<?xml version="1.0" encoding="UTF-8"?>
<map version="1.10" tiledversion="1.11.2" orientation="orthogonal" renderorder="right-down" width="64" height="48" tilewidth="16" tileheight="16" infinite="0" nextlayerid="9" nextobjectid="2">
 <editorsettings>
  <export target="map_castle_interior_2.tmx" format="tmx"/>
 </editorsettings>
 <tileset firstgid="1" source="castle_interior.tsx"/>
 <tileset firstgid="30228" source="puerta.tsx"/>
 <tileset firstgid="30248" source="puerta_2.tsx"/>
 <tileset firstgid="30268" source="puerta_3.tsx"/>
 <tileset firstgid="30288" source="puerta_cerrada.tsx"/>
 <layer id="2" name="pared" width="64" height="48">
  <data encoding="csv">
11372,11372,11372,11372,11372,11372,11372,11372,11372,11372,11372,11372,11372,11372,11372,11372,11372,11372,11372,11372,11372,11372,11372,11372,11372,11372,11372,11372,11372,11372,11372,11372,11372,11372,11372,11372,11372,11372,11372,11372,11372,11372,11372,11372,11372,11372,11372,11372,11372,11372,11372,11372,11372,11372,11372,11372,11372,11372,11372,11372,11372,11372,11372,11372,
11372,11372,11372,11372,11372,11372,11372,11372,11372,11372,11372,11372,11372,11372,11372,11372,11372,11372,11372,11372,11372,11372,11372,11372,11372,11372,11372,11372,11372,11372,11372,11372,11372,11372,11372,11372,11372,11372,11372,11372,11372,11372,11372,11372,11372,11372,11372,11372,11372,11372,11372,11372,11372,11372,11372,11372,11372,11372,11372,11372,11372,11372,11372,11372,
11372,11372,11372,11372,11372,11372,11372,11372,11372,11372,11372,11372,11372,11372,11372,11372,11372,11372,11372,11372,11372,11372,11372,11372,11372,11372,11372,11372,11372,11372,11372,11372,11372,11372,11372,11372,11372,11372,11372,11372,11372,11372,11372,11372,11372,11372,11372,11372,11372,11372,11372,11372,11372,11372,11372,11372,11372,11372,11372,11372,11372,11372,11372,11372,
11372,11372,11372,11372,11372,11372,11372,11372,11372,11372,11372,11372,11372,11372,11372,11372,11372,11372,11372,11372,11372,11372,11372,11372,11372,11372,11372,11372,11372,11372,11372,11372,11372,11372,11372,11372,11372,11372,11372,11372,11372,11372,11372,11372,11372,11372,11372,11372,11372,11372,11372,11372,11372,11372,11372,11372,11372,11372,11372,11372,11372,11372,11372,11372,
11372,11372,11372,11372,11372,11372,11372,11372,11372,11372,11372,11372,11372,11372,11372,11372,11372,11372,11372,11372,11372,11372,11372,11372,11372,11372,11372,11372,11372,11372,11372,11372,11372,11372,11372,11372,11372,11372,11372,11372,11372,11372,11372,11372,11372,11372,11372,11372,11372,11372,11372,11372,11372,11372,11372,11372,11372,11372,11372,11372,11372,11372,11372,11372,
11372,11372,11372,11372,11372,11372,11372,11372,11372,11372,11372,11372,11372,11372,11372,11372,11372,11372,11372,11372,11372,11372,11372,11372,11372,11372,11372,11372,11372,11372,11372,11372,11372,11372,11372,11372,11372,11372,11372,11372,11372,11372,11372,11372,11372,11372,11372,11372,11372,11372,11372,11372,11372,11372,11372,11372,11372,11372,11372,11372,11372,11372,11372,11372,
11372,11372,11372,11372,11372,11372,11372,11372,11372,11372,11372,11372,11372,11372,11372,11372,11372,11372,11372,11372,11372,11372,11372,11372,11372,11372,11372,11372,11372,11372,11372,11372,11372,11372,11372,11372,11372,11372,11372,11372,11372,11372,11372,11372,11372,11372,11372,11372,11372,11372,11372,11372,11372,11372,11372,11372,11372,11372,11372,11372,11372,11372,11372,11372,
11372,11372,11372,11372,11372,11372,11372,11372,11372,11372,11372,11372,11372,11372,11372,11372,11372,11372,11372,11372,11372,11372,11372,11372,11372,11372,11372,11372,11372,11372,11372,11372,11372,11372,11372,11372,11372,11372,11372,11372,11372,11372,11372,11372,11372,11372,11372,11372,11372,11372,11372,11372,11372,11372,11372,11372,11372,11372,11372,11372,11372,11372,11372,11372,
11372,11372,11372,11372,11372,11372,11372,11372,11372,11372,11372,11372,11372,11372,11372,11372,11372,11372,11372,11372,11372,11372,11372,11372,11372,11372,11372,11372,11372,11372,11372,11372,11372,11372,11372,11372,11372,11372,11372,11372,11372,11372,11372,11372,11372,11372,11372,11372,11372,11372,11372,11372,11372,11372,11372,11372,11372,11372,11372,11372,11372,11372,11372,11372,
11372,11372,11372,11372,11372,11372,11372,11372,11372,11372,11372,11372,11372,11372,11372,11372,11372,11372,11372,11372,11372,11372,11372,11372,11372,11372,11372,11372,11372,11372,11372,11372,11372,11372,11372,11372,11372,11372,11372,11372,11372,11372,11372,11372,11372,11372,11372,11372,11372,11372,11372,11372,11372,11372,11372,11372,11372,11372,11372,11372,11372,11372,11372,11372,
11372,11372,11372,11372,11372,11372,11372,11372,11372,11372,11372,11372,11372,11372,11372,11372,11372,11372,11372,11372,11372,11372,11372,11372,11372,11372,11372,11372,11372,11372,11372,11372,11372,11372,11372,11372,11372,11372,11372,11372,11372,11372,11372,11372,11372,11372,11372,11372,11372,11372,11372,11372,11372,11372,11372,11372,11372,11372,11372,11372,11372,11372,11372,11372,
11372,11372,11372,11372,11372,11372,11372,11372,11372,11372,11372,11372,11372,11372,11372,11372,11372,11372,11372,11372,11372,11372,11372,11372,11372,11372,11372,11372,11372,11372,11372,11372,11372,11372,11372,11372,11372,11372,11372,11372,11372,11372,11372,11372,11372,11372,11372,11372,11372,11372,11372,11372,11372,11372,11372,11372,11372,11372,11372,11372,11372,11372,11372,11372,
11372,11372,11372,11372,11372,11372,11372,11372,11372,11372,11372,11372,11372,11372,11372,11372,11372,11372,11372,11372,11372,11372,11372,11372,11372,11372,11372,11372,11372,11372,11372,11372,11372,11372,11372,11372,11372,11372,11372,11372,11372,11372,11372,11372,11372,11372,11372,11372,11372,11372,11372,11372,11372,11372,11372,11372,11372,11372,11372,11372,11372,11372,11372,11372,
11372,11372,11372,11372,11372,11372,11372,11372,11372,11372,11372,11372,11372,11372,11372,11372,11372,11372,11372,11372,11372,11372,11372,11372,11372,11372,11372,11372,11372,11372,11372,11372,11372,11372,11372,11372,11372,11372,11372,11372,11372,11372,11372,11372,11372,11372,11372,11372,11372,11372,11372,11372,11372,11372,11372,11372,11372,11372,11372,11372,11372,11372,11372,11372,
11372,11372,11372,11372,11372,11372,11372,11372,11372,11372,11372,11372,11372,11372,11372,11372,11372,11372,11372,11372,11372,11372,11372,11372,11372,11372,11372,11372,11372,11372,11372,11372,11372,11372,11372,11372,11372,11372,11372,11372,11372,11372,11372,11372,11372,11372,11372,11372,11372,11372,11372,11372,11372,11372,11372,11372,11372,11372,11372,11372,11372,11372,11372,11372,
11372,11372,11372,11372,11372,11372,11372,11372,11372,11372,11372,11372,11372,11372,11372,11372,11372,11372,11372,11372,11372,11372,11372,11372,11372,11372,11372,11372,11372,11372,11372,11372,11372,11372,11372,11372,11372,11372,11372,11372,11372,11372,11372,11372,11372,11372,11372,11372,11372,11372,11372,11372,11372,11372,11372,11372,11372,11372,11372,11372,11372,11372,11372,11372,
11372,11372,11372,11372,11372,11372,11372,11372,11372,11372,11372,11372,11372,11372,11372,11372,11372,11372,11372,11372,11372,11372,11372,11372,11372,11372,11372,11372,11372,11372,11372,11372,11372,11372,11372,11372,11372,11372,11372,11372,11372,11372,11372,11372,11372,11372,11372,11372,11372,11372,11372,11372,11372,11372,11372,11372,11372,11372,11372,11372,11372,11372,11372,11372,
11372,11372,11372,11372,11372,11372,11372,11372,11372,11372,11372,11372,11372,11372,11372,11372,11372,11372,11372,11372,11372,11372,11372,11372,11372,11372,11372,11372,11372,11372,11372,11372,11372,11372,11372,11372,11372,11372,11372,11372,11372,11372,11372,11372,11372,11372,11372,11372,11372,11372,11372,11372,11372,11372,11372,11372,11372,11372,11372,11372,11372,11372,11372,11372,
11372,11372,11372,11372,11372,11372,11372,11372,11372,11372,11372,11372,11372,11372,11372,11372,11372,11372,11372,11372,11372,11372,11372,11372,11372,11372,11372,11372,11372,11372,11372,11372,11372,11372,11372,11372,11372,11372,11372,11372,11372,11372,11372,11372,11372,11372,11372,11372,11372,11372,11372,11372,11372,11372,11372,11372,11372,11372,11372,11372,11372,11372,11372,11372,
11372,11372,11372,11372,11372,11372,11372,11372,11372,11372,11372,11372,11372,11372,11372,11372,11372,11372,11372,11372,11372,11372,11372,11372,11372,11372,11372,11372,11372,11372,11372,11372,11372,11372,11372,11372,11372,11372,11372,11372,11372,11372,11372,11372,11372,11372,11372,11372,11372,11372,11372,11372,11372,11372,11372,11372,11372,11372,11372,11372,11372,11372,11372,11372,
11372,11372,11372,11372,11372,11372,11372,11372,11372,11372,11372,11372,11372,11372,11372,11372,11372,11372,11372,11372,11372,11372,11372,11372,11372,11372,11372,11372,11372,11372,11372,11372,11372,11372,11372,11372,11372,11372,11372,11372,11372,11372,11372,11372,11372,11372,11372,11372,11372,11372,11372,11372,11372,11372,11372,11372,11372,11372,11372,11372,11372,11372,11372,11372,
11372,11372,11372,11372,11372,11372,11372,11372,11372,11372,11372,11372,11372,11372,11372,11372,11372,11372,11372,11372,11372,11372,11372,11372,11372,11372,11372,11372,11372,11372,11372,11372,11372,11372,11372,11372,11372,11372,11372,11372,11372,11372,11372,11372,11372,11372,11372,11372,11372,11372,11372,11372,11372,11372,11372,11372,11372,11372,11372,11372,11372,11372,11372,11372,
11372,11372,11372,11372,11372,11372,11372,11372,11372,11372,11372,11372,11372,11372,11372,11372,11372,11372,11372,11372,11372,11372,11372,11372,11372,11372,11372,11372,11372,11372,11372,11372,11372,11372,11372,11372,11372,11372,11372,11372,11372,11372,11372,11372,11372,11372,11372,11372,11372,11372,11372,11372,11372,11372,11372,11372,11372,11372,11372,11372,11372,11372,11372,11372,
11372,11372,11372,11372,11372,11372,11372,11372,11372,11372,11372,11372,11372,11372,11372,11372,11372,11372,11372,11372,11372,11372,11372,11372,11372,11372,11372,11372,11372,11372,11372,11372,11372,11372,11372,11372,11372,11372,11372,11372,11372,11372,11372,11372,11372,11372,11372,11372,11372,11372,11372,11372,11372,11372,11372,11372,11372,11372,11372,11372,11372,11372,11372,11372,
11372,11372,11372,11372,11372,11372,11372,11372,11372,11372,11372,11372,11372,11372,11372,11372,11372,11372,11372,11372,11372,11372,11372,11372,11372,11372,11372,11372,11372,11372,11372,11372,11372,11372,11372,11372,11372,11372,11372,11372,11372,11372,11372,11372,11372,11372,11372,11372,11372,11372,11372,11372,11372,11372,11372,11372,11372,11372,11372,11372,11372,11372,11372,11372,
11372,11372,11372,11372,11372,11372,11372,11372,11372,11372,11372,11372,11372,11372,11372,11372,11372,11372,11372,11372,11372,11372,11372,11372,11372,11372,11372,11372,11372,11372,11372,11372,11372,11372,11372,11372,11372,11372,11372,11372,11372,11372,11372,11372,11372,11372,11372,11372,11372,11372,11372,11372,11372,11372,11372,11372,11372,11372,11372,11372,11372,11372,11372,11372,
11372,11372,11372,11372,11372,11372,11372,11372,11372,11372,11372,11372,11372,11372,11372,11372,11372,11372,11372,11372,11372,11372,11372,11372,11372,11372,11372,11372,11372,11372,11372,11372,11372,11372,11372,11372,11372,11372,11372,11372,11372,11372,11372,11372,11372,11372,11372,11372,11372,11372,11372,11372,11372,11372,11372,11372,11372,11372,11372,11372,11372,11372,11372,11372,
11372,11372,11372,11372,11372,11372,11372,11372,11372,11372,11372,11372,11372,11372,11372,11372,11372,11372,11372,11372,11372,11372,11372,11372,11372,11372,11372,11372,11372,11372,11372,11372,11372,11372,11372,11372,11372,11372,11372,11372,11372,11372,11372,11372,11372,11372,11372,11372,11372,11372,11372,11372,11372,11372,11372,11372,11372,11372,11372,11372,11372,11372,11372,11372,
11372,11372,11372,11372,11372,11372,11372,11372,11372,11372,11372,11372,11372,11372,11372,11372,11372,11372,11372,11372,11372,11372,11372,11372,11372,11372,11372,11372,11372,11372,11372,11372,11372,11372,11372,11372,11372,11372,11372,11372,11372,11372,11372,11372,11372,11372,11372,11372,11372,11372,11372,11372,11372,11372,11372,11372,11372,11372,11372,11372,11372,11372,11372,11372,
11372,11372,11372,11372,11372,11372,11372,11372,11372,11372,11372,11372,11372,11372,11372,11372,11372,11372,11372,11372,11372,11372,11372,11372,11372,11372,11372,11372,11372,11372,11372,11372,11372,11372,11372,11372,11372,11372,11372,11372,11372,11372,11372,11372,11372,11372,11372,11372,11372,11372,11372,11372,11372,11372,11372,11372,11372,11372,11372,11372,11372,11372,11372,11372,
11372,11372,11372,11372,11372,11372,11372,11372,11372,11372,11372,11372,11372,11372,11372,11372,11372,11372,11372,11372,11372,11372,11372,11372,11372,11372,11372,11372,11372,11372,11372,11372,11372,11372,11372,11372,11372,11372,11372,11372,11372,11372,11372,11372,11372,11372,11372,11372,11372,11372,11372,11372,11372,11372,11372,11372,11372,11372,11372,11372,11372,11372,11372,11372,
11372,11372,11372,11372,11372,11372,11372,11372,11372,11372,11372,11372,11372,11372,11372,11372,11372,11372,11372,11372,11372,11372,11372,11372,11372,11372,11372,11372,11372,11372,11372,11372,11372,11372,11372,11372,11372,11372,11372,11372,11372,11372,11372,11372,11372,11372,11372,11372,11372,11372,11372,11372,11372,11372,11372,11372,11372,11372,11372,11372,11372,11372,11372,11372,
0,0,0,0,0,0,0,0,0,0,0,0,0,0,0,0,0,0,0,0,0,0,0,0,0,0,0,0,0,0,0,0,0,0,0,0,0,0,0,0,0,0,0,0,0,0,0,0,0,0,0,0,0,0,0,0,0,0,0,0,0,0,0,0,
0,0,0,0,0,0,0,0,0,0,0,0,0,0,0,0,0,0,0,0,0,0,0,0,0,0,0,0,0,0,0,0,0,0,0,0,0,0,0,0,0,0,0,0,0,0,0,0,0,0,0,0,0,0,0,0,0,0,0,0,0,0,0,0,
0,0,0,0,0,0,0,0,0,0,0,0,0,0,0,0,0,0,0,0,0,0,0,0,0,0,0,0,0,0,0,0,0,0,0,0,0,0,0,0,0,0,0,0,0,0,0,0,0,0,0,0,0,0,0,0,0,0,0,0,0,0,0,0,
0,0,0,0,0,0,0,0,0,0,0,0,0,0,0,0,0,0,0,0,0,0,0,0,0,0,0,0,0,0,0,0,0,0,0,0,0,0,0,0,0,0,0,0,0,0,0,0,0,0,0,0,0,0,0,0,0,0,0,0,0,0,0,0,
0,0,0,0,0,0,0,0,0,0,0,0,0,0,0,0,0,0,0,0,0,0,0,0,0,0,0,0,0,0,0,0,0,0,0,0,0,0,0,0,0,0,0,0,0,0,0,0,0,0,0,0,0,0,0,0,0,0,0,0,0,0,0,0,
0,0,0,0,0,0,0,0,0,0,0,0,0,0,0,0,0,0,0,0,0,0,0,0,0,0,0,0,0,0,0,0,0,0,0,0,0,0,0,0,0,0,0,0,0,0,0,0,0,0,0,0,0,0,0,0,0,0,0,0,0,0,0,0,
0,0,0,0,0,0,0,0,0,0,0,0,0,0,0,0,0,0,0,0,0,0,0,0,0,0,0,0,0,0,0,0,0,0,0,0,0,0,0,0,0,0,0,0,0,0,0,0,0,0,0,0,0,0,0,0,0,0,0,0,0,0,0,0,
0,0,0,0,0,0,0,0,0,0,0,0,0,0,0,0,0,0,0,0,0,0,0,0,0,0,0,0,0,0,0,0,0,0,0,0,0,0,0,0,0,0,0,0,0,0,0,0,0,0,0,0,0,0,0,0,0,0,0,0,0,0,0,0,
0,0,0,0,0,0,0,0,0,0,0,0,0,0,0,0,0,0,0,0,0,0,0,0,0,0,0,0,0,0,0,0,0,0,0,0,0,0,0,0,0,0,0,0,0,0,0,0,0,0,0,0,0,0,0,0,0,0,0,0,0,0,0,0,
0,0,0,0,0,0,0,0,0,0,0,0,0,0,0,0,0,0,0,0,0,0,0,0,0,0,0,0,0,0,0,0,0,0,0,0,0,0,0,0,0,0,0,0,0,0,0,0,0,0,0,0,0,0,0,0,0,0,0,0,0,0,0,0,
0,0,0,0,0,0,0,0,0,0,0,0,0,0,0,0,0,0,0,0,0,0,0,0,0,0,0,0,0,0,0,0,0,0,0,0,0,0,0,0,0,0,0,0,0,0,0,0,0,0,0,0,0,0,0,0,0,0,0,0,0,0,0,0,
0,0,0,0,0,0,0,0,0,0,0,0,0,0,0,0,0,0,0,0,0,0,0,0,0,0,0,0,0,0,0,0,0,0,0,0,0,0,0,0,0,0,0,0,0,0,0,0,0,0,0,0,0,0,0,0,0,0,0,0,0,0,0,0,
0,0,0,0,0,0,0,0,0,0,0,0,0,0,0,0,0,0,0,0,0,0,0,0,0,0,0,0,0,0,0,0,0,0,0,0,0,0,0,0,0,0,0,0,0,0,0,0,0,0,0,0,0,0,0,0,0,0,0,0,0,0,0,0,
0,0,0,0,0,0,0,0,0,0,0,0,0,0,0,0,0,0,0,0,0,0,0,0,0,0,0,0,0,0,0,0,0,0,0,0,0,0,0,0,0,0,0,0,0,0,0,0,0,0,0,0,0,0,0,0,0,0,0,0,0,0,0,0,
0,0,0,0,0,0,0,0,0,0,0,0,0,0,0,0,0,0,0,0,0,0,0,0,0,0,0,0,0,0,0,0,0,0,0,0,0,0,0,0,0,0,0,0,0,0,0,0,0,0,0,0,0,0,0,0,0,0,0,0,0,0,0,0,
0,0,0,0,0,0,0,0,0,0,0,0,0,0,0,0,0,0,0,0,0,0,0,0,0,0,0,0,0,0,0,0,0,0,0,0,0,0,0,0,0,0,0,0,0,0,0,0,0,0,0,0,0,0,0,0,0,0,0,0,0,0,0,0
</data>
 </layer>
 <layer id="1" name="Capa de patrones 1" width="64" height="48" visible="0">
  <data encoding="csv">
11697,11697,11697,11697,11697,11697,11697,11697,11697,11697,11697,11697,11697,11697,11697,11697,11697,11697,11697,11697,11697,11697,11697,11697,11697,11697,11697,11697,11697,11697,11697,11697,11697,11697,11697,11697,11697,11697,11697,11697,11697,11697,11697,11697,11697,11697,11697,11697,11697,11697,11697,11697,11697,11697,11697,11697,11697,11697,11697,11697,11697,11697,11697,11697,
11697,11697,11697,11697,11697,11697,11697,11697,11697,11697,11697,11697,11697,11697,11697,11697,11697,11697,11697,11697,11697,11697,11697,11697,11697,11697,11697,11697,11697,11697,11697,11697,11697,11697,11697,11697,11697,11697,11697,11697,11697,11697,11697,11697,11697,11697,11697,11697,11697,11697,11697,11697,11697,11697,11697,11697,11697,11697,11697,11697,11697,11697,11697,11697,
11697,11697,11697,11697,11697,11697,11697,11697,11697,11697,11697,11697,11697,11697,11697,11697,11697,11697,11697,11697,11697,11697,11697,11697,11697,11697,11697,11697,11697,11697,11697,11697,11697,11697,11697,11697,11697,11697,11697,11697,11697,11697,11697,11697,11697,11697,11697,11697,11697,11697,11697,11697,11697,11697,11697,11697,11697,11697,11697,11697,11697,11697,11697,11697,
11697,11697,11697,11697,11697,11697,11697,11697,11697,11697,11697,11697,11697,11697,11697,11697,11697,11697,11697,11697,11697,11697,11697,11697,11697,11697,11697,11697,11697,11697,11697,11697,11697,11697,11697,11697,11697,11697,11697,11697,11697,11697,11697,11697,11697,11697,11697,11697,11697,11697,11697,11697,11697,11697,11697,11697,11697,11697,11697,11697,11697,11697,11697,11697,
11697,11697,11697,11697,11697,11697,11697,11697,11697,11697,11697,11697,11697,11697,11697,11697,11697,11697,11697,11697,11697,11697,11697,11697,11697,11697,11697,11697,11697,11697,11697,11697,11697,11697,11697,11697,11697,11697,11697,11697,11697,11697,11697,11697,11697,11697,11697,11697,11697,11697,11697,11697,11697,11697,11697,11697,11697,11697,11697,11697,11697,11697,11697,11697,
10860,10860,10860,10860,10860,10860,10860,10860,10860,10860,10860,10860,10860,10860,10860,10860,10860,10860,10860,10860,10860,10860,10860,10860,10860,10860,10860,10860,10860,10860,10860,10860,10860,10860,10860,10860,10860,10860,10860,10860,10860,10860,10860,10860,10860,10860,10860,10860,10860,10860,10860,10860,10860,10860,10860,10860,10860,10860,10860,10860,10860,10860,10860,10860,
0,0,0,0,0,0,0,0,0,0,0,0,0,0,0,0,0,0,0,0,0,0,0,0,0,0,0,0,0,0,0,0,0,0,0,0,0,0,0,0,0,0,0,0,0,0,0,0,0,0,0,0,0,0,0,0,0,0,0,0,0,0,0,0,
0,0,0,0,0,0,0,0,0,0,0,0,0,0,0,0,0,0,0,0,0,0,0,0,0,0,0,0,0,0,0,0,0,0,0,0,0,0,0,0,0,0,0,0,0,0,0,0,0,0,0,0,0,0,0,0,0,0,0,0,0,0,0,0,
0,0,0,0,0,0,0,0,0,0,0,0,0,0,0,0,0,0,0,0,0,0,0,0,0,0,0,0,0,0,0,0,0,0,0,0,0,0,0,0,0,0,0,0,0,0,0,0,0,0,0,0,0,0,0,0,0,0,0,0,0,0,0,0,
0,0,0,0,0,0,0,0,0,0,0,0,0,0,0,0,0,0,0,0,0,0,0,0,0,0,0,0,0,0,0,0,0,0,0,0,0,0,0,0,0,0,0,0,0,0,0,0,0,0,0,0,0,0,0,0,0,0,0,0,0,0,0,0,
0,0,0,0,0,0,0,0,0,0,0,0,0,0,0,0,0,0,0,0,0,0,0,0,0,0,0,0,0,0,0,0,0,0,0,0,0,0,0,0,0,0,0,0,0,0,0,0,0,0,0,0,0,0,0,0,0,0,0,0,0,0,0,0,
0,0,0,0,0,0,0,0,0,0,0,0,0,0,0,0,0,0,0,0,0,0,0,0,0,0,0,0,0,0,0,0,0,0,0,0,0,0,0,0,0,0,0,0,0,0,0,0,0,0,0,0,0,0,0,0,0,0,0,0,0,0,0,0,
0,0,0,0,0,0,0,0,0,0,0,0,0,0,0,0,0,0,0,0,0,0,0,0,0,0,0,0,0,0,0,0,0,0,0,0,0,0,0,0,0,0,0,0,0,0,0,0,0,0,0,0,0,0,0,0,0,0,0,0,0,0,0,0,
0,0,0,0,0,0,0,0,0,0,0,0,0,0,0,0,0,0,0,0,0,0,0,0,0,0,0,0,0,0,0,0,0,0,0,0,0,0,0,0,0,0,0,0,0,0,0,0,0,0,0,0,0,0,0,0,0,0,0,0,0,0,0,0,
0,0,0,0,0,0,0,0,0,0,0,0,0,0,0,0,0,0,0,0,0,0,0,0,0,0,0,0,0,0,0,0,0,0,0,0,0,0,0,0,0,0,0,0,0,0,0,0,0,0,0,0,0,0,0,0,0,0,0,0,0,0,0,0,
0,0,0,0,0,0,0,0,0,0,0,0,0,0,0,0,0,0,0,0,0,0,0,0,0,0,0,0,0,0,0,0,0,0,0,0,0,0,0,0,0,0,0,0,0,0,0,0,0,0,0,0,0,0,0,0,0,0,0,0,0,0,0,0,
0,0,0,0,0,0,0,0,0,0,0,0,0,0,0,0,0,0,0,0,0,0,0,0,0,0,0,0,0,0,0,0,0,0,0,0,0,0,0,0,0,0,0,0,0,0,0,0,0,0,0,0,0,0,0,0,0,0,0,0,0,0,0,0,
0,0,0,0,0,0,0,0,0,0,0,0,0,0,0,0,0,0,0,0,0,0,0,0,0,0,0,0,0,0,0,0,0,0,0,0,0,0,0,0,0,0,0,0,0,0,0,0,0,0,0,0,0,0,0,0,0,0,0,0,0,0,0,0,
0,0,0,0,0,0,0,0,0,0,0,0,0,0,0,0,0,0,0,0,0,0,0,0,0,0,0,0,0,0,0,0,0,0,0,0,0,0,0,0,0,0,0,0,0,0,0,0,0,0,0,0,0,0,0,0,0,0,0,0,0,0,0,0,
0,0,0,0,0,0,0,0,0,0,0,0,0,0,0,0,0,0,0,0,0,0,0,0,0,0,0,0,0,0,0,0,0,0,0,0,0,0,0,0,0,0,0,0,0,0,0,0,0,0,0,0,0,0,0,0,0,0,0,0,0,0,0,0,
0,0,0,0,0,0,0,0,0,0,0,0,0,0,0,0,0,0,0,0,0,0,0,0,0,0,0,0,0,0,0,0,0,0,0,0,0,0,0,0,0,0,0,0,0,0,0,0,0,0,0,0,0,0,0,0,0,0,0,0,0,0,0,0,
0,0,0,0,0,0,0,0,0,0,0,0,0,0,0,0,0,0,0,0,0,0,0,0,0,0,0,0,0,0,0,0,0,0,0,0,0,0,0,0,0,0,0,0,0,0,0,0,0,0,0,0,0,0,0,0,0,0,0,0,0,0,0,0,
0,0,0,0,0,0,0,0,0,0,0,0,0,0,0,0,0,0,0,0,0,0,0,0,0,0,0,0,0,0,0,0,0,0,0,0,0,0,0,0,0,0,0,0,0,0,0,0,0,0,0,0,0,0,0,0,0,0,0,0,0,0,0,0,
10699,10699,10699,10699,10699,10699,10699,10699,10699,10699,10699,10699,10699,10699,10699,10699,10699,10699,10699,10699,10699,10699,10699,10699,10699,10699,10699,10699,10699,10699,10699,10699,10699,10699,10699,10699,10699,10699,10699,10699,10699,10699,10699,10699,10699,10699,10699,10699,10699,10699,10699,10699,10699,10699,10699,10699,10699,10699,10699,10699,10699,10699,10699,10699,
11213,11213,11213,11213,11213,11213,11213,11213,11213,11213,11213,11213,11213,11213,11213,11213,11213,11213,11213,11213,11213,11213,11213,11213,11213,11213,11213,11213,11213,11213,11213,11213,11213,11213,11213,11213,11213,11213,11213,11213,11213,11213,11213,11213,11213,11213,11213,11213,11213,11213,11213,11213,11213,11213,11213,11213,11213,11213,11213,11213,11213,11213,11213,11213,
11380,11213,11380,11380,11380,11380,11213,11380,11380,11213,11380,11380,11380,11380,11380,11213,11380,11380,11380,11380,11213,11380,11380,11213,11380,11380,11380,11380,11380,11213,11380,11380,11380,11380,11213,11380,11380,11213,11380,11380,11213,11380,11380,11380,11380,11213,11380,11380,11213,11380,11380,11213,11380,11380,11380,11380,11213,11380,11380,11213,11380,11380,11380,11380,
11380,11380,11380,11380,11380,11380,11380,11380,11380,11380,11380,11380,11380,11380,11380,11380,11380,11380,11380,11380,11380,11380,11380,11380,11380,11380,11380,11380,11380,11380,11380,11380,11380,11380,11380,11380,11380,11380,11380,11380,11380,11380,11380,11380,11380,11380,11380,11380,11380,11380,11380,11380,11380,11380,11380,11380,11380,11380,11380,11380,11380,11380,11380,11380,
11380,11380,11380,11380,11380,11380,11380,11380,11380,11380,11380,11380,11380,11380,11380,11380,11380,11380,11380,11380,11380,11380,11380,11380,11380,11380,11380,11380,11380,11380,11380,11380,11380,11380,11380,11380,11380,11380,11380,11380,11380,11380,11380,11380,11380,11380,11380,11380,11380,11380,11380,11380,11380,11380,11380,11380,11380,11380,11380,11380,11380,11380,11380,11380,
11380,11213,11380,11380,11380,11380,11213,11380,11380,11213,11380,11380,11380,11380,11380,11213,11380,11380,11380,11380,11213,11380,11380,11213,11380,11380,11380,11380,11380,11213,11380,11380,11380,11380,11213,11380,11380,11213,11380,11380,11213,11380,11380,11380,11380,11213,11380,11380,11213,11380,11380,11213,11380,11380,11380,11380,11213,11380,11380,11213,11380,11380,11380,11380,
11380,11380,11380,11380,11380,11380,11380,11380,11380,11380,11380,11380,11380,11380,11380,11380,11380,11380,11380,11380,11380,11380,11380,11380,11380,11380,11380,11380,11380,11380,11380,11380,11380,11380,11380,11380,11380,11380,11380,11380,11380,11380,11380,11380,11380,11380,11380,11380,11380,11380,11380,11380,11380,11380,11380,11380,11380,11380,11380,11380,11380,11380,11380,11380,
11380,11380,11380,11380,11380,11380,11380,11380,11380,11380,11380,11380,11380,11380,11380,11380,11380,11380,11380,11380,11380,11380,11380,11380,11380,11380,11380,11380,11380,11380,11380,11380,11380,11380,11380,11380,11380,11380,11380,11380,11380,11380,11380,11380,11380,11380,11380,11380,11380,11380,11380,11380,11380,11380,11380,11380,11380,11380,11380,11380,11380,11380,11380,11380,
11547,11547,11547,11547,11547,11547,11547,11547,11547,11547,11547,11547,11547,11547,11547,11547,11547,11547,11547,11547,11547,11547,11547,11547,11547,11547,11547,11547,11547,11547,11547,11547,11547,11547,11547,11547,11547,11547,11547,11547,11547,11547,11547,11547,11547,11547,11547,11547,11547,11547,11547,11547,11547,11547,11547,11547,11547,11547,11547,11547,11547,11547,11547,11547,
10699,10699,10699,10699,10699,10699,10699,10699,10699,10699,10699,10699,10699,10699,10699,10699,10699,10699,10699,10699,10699,10699,10699,10699,10699,10699,10699,10699,10699,10699,10699,10699,10699,10699,10699,10699,10699,10699,10699,10699,10699,10699,10699,10699,10699,10699,10699,10699,10699,10699,10699,10699,10699,10699,10699,10699,10699,10699,10699,10699,10699,10699,10699,10699,
11697,11697,11697,11697,11697,11697,11697,11697,11697,11697,11697,11697,11697,11697,11697,11697,11697,11697,11697,11697,11697,11697,11697,11697,11697,11697,11697,11697,11697,11697,11697,11697,11697,11697,11697,11697,11697,11697,11697,11697,11697,11697,11697,11697,11697,11697,11697,11697,11697,11697,11697,11697,11697,11697,11697,11697,11697,11697,11697,11697,11697,11697,11697,11697,
11697,11697,11697,11697,11697,11697,11697,11697,11697,11697,11697,11697,11697,11697,11697,11697,11697,11697,11697,11697,11697,11697,11697,11697,11697,11697,11697,11697,11697,11697,11697,11697,11697,11697,11697,11697,11697,11697,11697,11697,11697,11697,11697,11697,11697,11697,11697,11697,11697,11697,11697,11697,11697,11697,11697,11697,11697,11697,11697,11697,11697,11697,11697,11697,
11697,11697,11697,11697,11697,11697,11697,11697,11697,11697,11697,11697,11697,11697,11697,11697,11697,11697,11697,11697,11697,11697,11697,11697,11697,11697,11697,11697,11697,11697,11697,11697,11697,11697,11697,11697,11697,11697,11697,11697,11697,11697,11697,11697,11697,11697,11697,11697,11697,11697,11697,11697,11697,11697,11697,11697,11697,11697,11697,11697,11697,11697,11697,11697,
11697,11697,11697,11697,11697,11697,11697,11697,11697,11697,11697,11697,11697,11697,11697,11697,11697,11697,11697,11697,11697,11697,11697,11697,11697,11697,11697,11697,11697,11697,11697,11697,11697,11697,11697,11697,11697,11697,11697,11697,11697,11697,11697,11697,11697,11697,11697,11697,11697,11697,11697,11697,11697,11697,11697,11697,11697,11697,11697,11697,11697,11697,11697,11697,
11697,11697,11697,11697,11697,11697,11697,11697,11697,11697,11697,11697,11697,11697,11697,11697,11697,11697,11697,11697,11697,11697,11697,11697,11697,11697,11697,11697,11697,11697,11697,11697,11697,11697,11697,11697,11697,11697,11697,11697,11697,11697,11697,11697,11697,11697,11697,11697,11697,11697,11697,11697,11697,11697,11697,11697,11697,11697,11697,11697,11697,11697,11697,11697,
11697,11697,11697,11697,11697,11697,11697,11697,11697,11697,11697,11697,11697,11697,11697,11697,11697,11697,11697,11697,11697,11697,11697,11697,11697,11697,11697,11697,11697,11697,11697,11697,11697,11697,11697,11697,11697,11697,11697,11697,11697,11697,11697,11697,11697,11697,11697,11697,11697,11697,11697,11697,11697,11697,11697,11697,11697,11697,11697,11697,11697,11697,11697,11697,
11697,11697,11697,11697,11697,11697,11697,11697,11697,11697,11697,11697,11697,11697,11697,11697,11697,11697,11697,11697,11697,11697,11697,11697,11697,11697,11697,11697,11697,11697,11697,11697,11697,11697,11697,11697,11697,11697,11697,11697,11697,11697,11697,11697,11697,11697,11697,11697,11697,11697,11697,11697,11697,11697,11697,11697,11697,11697,11697,11697,11697,11697,11697,11697,
11697,11697,11697,11697,11697,11697,11697,11697,11697,11697,11697,11697,11697,11697,11697,11697,11697,11697,11697,11697,11697,11697,11697,11697,11697,11697,11697,11697,11697,11697,11697,11697,11697,11697,11697,11697,11697,11697,11697,11697,11697,11697,11697,11697,11697,11697,11697,11697,11697,11697,11697,11697,11697,11697,11697,11697,11697,11697,11697,11697,11697,11697,11697,11697,
11697,11697,11697,11697,11697,11697,11697,11697,11697,11697,11697,11697,11697,11697,11697,11697,11697,11697,11697,11697,11697,11697,11697,11697,11697,11697,11697,11697,11697,11697,11697,11697,11697,11697,11697,11697,11697,11697,11697,11697,11697,11697,11697,11697,11697,11697,11697,11697,11697,11697,11697,11697,11697,11697,11697,11697,11697,11697,11697,11697,11697,11697,11697,11697,
11697,11697,11697,11697,11697,11697,11697,11697,11697,11697,11697,11697,11697,11697,11697,11697,11697,11697,11697,11697,11697,11697,11697,11697,11697,11697,11697,11697,11697,11697,11697,11697,11697,11697,11697,11697,11697,11697,11697,11697,11697,11697,11697,11697,11697,11697,11697,11697,11697,11697,11697,11697,11697,11697,11697,11697,11697,11697,11697,11697,11697,11697,11697,11697,
11697,11697,11697,11697,11697,11697,11697,11697,11697,11697,11697,11697,11697,11697,11697,11697,11697,11697,11697,11697,11697,11697,11697,11697,11697,11697,11697,11697,11697,11697,11697,11697,11697,11697,11697,11697,11697,11697,11697,11697,11697,11697,11697,11697,11697,11697,11697,11697,11697,11697,11697,11697,11697,11697,11697,11697,11697,11697,11697,11697,11697,11697,11697,11697,
11697,11697,11697,11697,11697,11697,11697,11697,11697,11697,11697,11697,11697,11697,11697,11697,11697,11697,11697,11697,11697,11697,11697,11697,11697,11697,11697,11697,11697,11697,11697,11697,11697,11697,11697,11697,11697,11697,11697,11697,11697,11697,11697,11697,11697,11697,11697,11697,11697,11697,11697,11697,11697,11697,11697,11697,11697,11697,11697,11697,11697,11697,11697,11697,
11697,11697,11697,11697,11697,11697,11697,11697,11697,11697,11697,11697,11697,11697,11697,11697,11697,11697,11697,11697,11697,11697,11697,11697,11697,11697,11697,11697,11697,11697,11697,11697,11697,11697,11697,11697,11697,11697,11697,11697,11697,11697,11697,11697,11697,11697,11697,11697,11697,11697,11697,11697,11697,11697,11697,11697,11697,11697,11697,11697,11697,11697,11697,11697,
11697,11697,11697,11697,11697,11697,11697,11697,11697,11697,11697,11697,11697,11697,11697,11697,11697,11697,11697,11697,11697,11697,11697,11697,11697,11697,11697,11697,11697,11697,11697,11697,11697,11697,11697,11697,11697,11697,11697,11697,11697,11697,11697,11697,11697,11697,11697,11697,11697,11697,11697,11697,11697,11697,11697,11697,11697,11697,11697,11697,11697,11697,11697,11697,
11697,11697,11697,11697,11697,11697,11697,11697,11697,11697,11697,11697,11697,11697,11697,11697,11697,11697,11697,11697,11697,11697,11697,11697,11697,11697,11697,11697,11697,11697,11697,11697,11697,11697,11697,11697,11697,11697,11697,11697,11697,11697,11697,11697,11697,11697,11697,11697,11697,11697,11697,11697,11697,11697,11697,11697,11697,11697,11697,11697,11697,11697,11697,11697
</data>
 </layer>
 <layer id="5" name="puerta_cerrada" width="64" height="48">
  <data encoding="csv">
0,0,0,0,0,0,0,0,0,0,0,0,0,0,0,0,0,0,0,0,0,0,0,0,0,0,0,0,0,0,0,0,0,0,0,0,0,0,0,0,0,0,0,0,0,0,0,0,0,0,0,0,0,0,0,0,0,0,0,0,0,0,0,0,
0,0,0,0,0,0,0,0,0,0,0,0,0,0,0,0,0,0,0,0,0,0,0,0,0,0,0,0,0,0,0,0,0,0,0,0,0,0,0,0,0,0,0,0,0,0,0,0,0,0,0,0,0,0,0,0,0,0,0,0,0,0,0,0,
0,0,0,0,0,0,0,0,0,0,0,0,0,0,0,0,0,0,0,0,0,0,0,0,0,0,0,0,0,0,0,0,0,0,0,0,0,0,0,0,0,0,0,0,0,0,0,0,0,0,0,0,0,0,0,0,0,0,0,0,0,0,0,0,
0,0,0,0,0,0,0,0,0,0,0,0,0,0,0,0,0,0,0,0,0,0,0,0,0,0,0,0,0,0,0,0,0,0,0,0,0,0,0,0,0,0,0,0,0,0,0,0,0,0,0,0,0,0,0,0,0,0,0,0,0,0,0,0,
0,0,0,0,0,0,0,0,0,0,0,0,0,0,0,0,0,0,0,0,0,0,0,0,0,0,0,0,0,0,0,0,0,0,0,0,0,0,0,0,0,0,0,0,0,0,0,0,0,0,0,0,0,0,0,0,0,0,0,0,0,0,0,0,
0,0,0,0,0,0,0,0,0,0,0,0,0,0,0,0,0,0,0,0,0,0,0,0,0,0,0,0,0,0,0,0,0,0,0,0,0,0,0,0,0,0,0,0,0,0,0,0,0,0,0,0,0,0,0,0,0,0,0,0,0,0,0,0,
0,0,0,0,0,0,0,0,0,0,0,0,0,0,0,0,0,0,0,0,0,0,0,0,0,0,0,0,0,0,0,0,0,0,0,0,0,0,0,0,0,0,0,0,0,0,0,0,0,0,0,0,0,0,0,0,0,0,0,0,0,0,0,0,
0,0,0,0,0,0,0,0,0,0,0,0,0,0,0,0,0,0,0,0,0,0,0,0,0,0,0,0,0,0,0,0,0,0,0,0,0,0,0,0,0,0,0,0,0,0,0,0,0,0,0,0,0,0,0,0,0,0,0,0,0,0,0,0,
0,0,0,0,0,0,0,0,0,0,0,0,0,0,0,0,0,0,0,0,0,0,0,0,0,0,0,0,0,0,0,0,0,0,0,0,0,0,0,0,0,0,0,0,0,0,0,0,0,0,0,0,0,0,0,0,0,0,0,0,0,0,0,0,
0,0,0,0,0,0,0,0,0,0,0,0,0,0,0,0,0,0,0,0,0,0,0,0,0,0,0,0,0,0,0,0,0,0,0,0,0,0,0,0,0,0,0,0,0,0,0,0,0,0,0,0,0,0,0,0,0,0,0,0,0,0,0,0,
0,0,0,0,0,0,0,0,0,0,0,0,0,0,0,0,0,0,0,0,0,0,0,0,0,0,0,0,0,0,0,0,0,0,0,0,0,0,0,0,0,0,0,0,0,0,0,0,0,0,0,0,0,0,0,0,0,0,0,0,0,0,0,0,
0,0,0,0,0,0,0,0,0,0,0,0,0,0,0,0,0,0,0,0,0,0,0,0,0,0,0,0,0,0,0,0,0,0,0,0,0,0,0,0,0,0,0,0,0,0,0,0,0,0,0,0,0,0,0,0,0,0,0,0,0,0,0,0,
0,0,0,0,0,0,0,0,0,0,0,0,0,0,0,0,0,0,0,0,0,0,0,20291,20292,20293,20294,20295,0,0,0,0,0,0,0,20286,20287,20288,20289,20290,0,0,0,0,0,0,0,0,0,0,0,0,0,0,0,0,0,0,0,0,0,0,0,0,
0,0,0,0,0,0,0,0,0,0,0,0,0,0,0,0,0,0,0,0,0,0,0,20458,20459,20460,20461,20462,0,0,0,0,0,0,0,20453,20454,20455,20456,20457,0,0,0,0,0,0,0,0,0,0,0,0,0,0,0,0,0,0,0,0,0,0,0,0,
0,0,0,0,0,0,0,0,0,0,0,0,0,0,0,0,0,0,0,0,0,0,0,20625,20626,20627,20628,20629,0,0,0,0,0,0,0,20620,20621,20622,20623,20624,0,0,0,0,0,0,0,0,0,0,0,0,0,0,0,0,0,0,0,0,0,0,0,0,
0,0,0,0,0,0,0,0,0,0,0,0,0,0,0,0,0,0,0,0,0,0,0,20792,20793,20794,20795,20796,30230,30230,30230,30230,30230,30230,30230,20787,20788,20789,20790,20791,0,0,0,0,0,0,0,0,0,0,0,0,0,0,0,0,0,0,0,0,0,0,0,0,
0,0,0,0,0,0,0,0,0,0,0,0,0,0,0,0,0,0,0,0,0,0,0,0,0,30233,30234,30235,30235,30235,30235,30255,30235,30235,30235,30235,30236,30297,0,0,0,0,0,0,0,0,0,0,0,0,0,0,0,0,0,0,0,0,0,0,0,0,0,0,
0,0,0,0,0,0,0,0,0,0,0,0,0,0,0,0,0,0,0,0,0,0,0,0,0,30238,30239,30280,30280,30280,30280,30260,30280,30280,30280,30280,30241,30242,0,0,0,0,0,0,0,0,0,0,0,0,0,0,0,0,0,0,0,0,0,0,0,0,0,0,
0,0,0,0,0,0,0,0,0,0,0,0,0,0,0,0,0,0,0,0,0,0,0,0,0,30238,30239,30280,30280,30280,30280,30260,30280,30280,30280,30280,30241,30242,0,0,0,0,0,0,0,0,0,0,0,0,0,0,0,0,0,0,0,0,0,0,0,0,0,0,
0,0,0,0,0,0,0,0,0,0,0,0,0,0,0,0,0,0,0,0,20286,0,0,0,0,30238,30239,30280,30280,30280,30280,30260,30280,30280,30280,30280,30241,30242,0,0,0,0,0,0,0,0,0,0,0,0,0,0,0,0,0,0,0,0,0,0,0,0,0,0,
0,0,0,0,0,0,0,0,0,0,0,0,0,0,0,0,0,0,0,0,0,0,0,0,20457,30238,30239,30280,30280,30280,30280,30260,30280,30280,30280,30280,30241,30242,0,0,0,0,0,0,0,0,0,0,0,0,0,0,0,0,0,0,0,0,0,0,0,0,0,0,
0,0,0,0,0,0,0,0,0,0,0,0,0,0,0,0,0,0,0,0,0,0,0,0,20624,30238,30239,30280,30280,30280,30280,30240,30280,30280,30280,30280,30241,30242,0,0,0,0,0,0,0,0,0,0,0,0,0,0,0,0,0,0,0,0,0,0,0,0,0,0,
0,0,0,0,0,0,0,0,0,0,0,0,0,0,0,0,0,0,0,0,0,0,0,20790,20791,30243,30244,30285,30285,30285,30285,30245,30285,30285,30285,30285,30246,30247,0,20792,0,0,0,0,0,0,0,0,0,0,0,0,0,0,0,0,0,0,0,0,0,0,0,0,
0,0,0,0,0,0,0,0,0,0,0,0,0,0,0,0,0,0,0,0,0,0,0,0,0,0,0,0,0,0,0,0,0,0,0,0,0,0,0,0,0,0,0,0,0,0,0,0,0,0,0,0,0,0,0,0,0,0,0,0,0,0,0,0,
0,0,0,0,0,0,0,0,0,0,0,0,0,0,0,0,0,0,0,0,0,0,0,0,0,0,0,0,0,0,0,0,0,0,0,0,0,0,0,0,0,0,0,0,0,0,0,0,0,0,0,0,0,0,0,0,0,0,0,0,0,0,0,0,
0,0,0,0,0,0,0,0,0,0,0,0,0,0,0,0,0,0,0,0,0,0,0,0,0,0,0,0,0,0,0,0,0,0,0,0,0,0,0,0,0,0,0,0,0,0,0,0,0,0,0,0,0,0,0,0,0,0,0,0,0,0,0,0,
0,0,0,0,0,0,0,0,0,0,0,0,0,0,0,0,0,0,0,0,0,0,0,0,0,0,0,0,0,0,0,0,0,0,0,0,0,0,0,0,0,0,0,0,0,0,0,0,0,0,0,0,0,0,0,0,0,0,0,0,0,0,0,0,
0,0,0,0,0,0,0,0,0,0,0,0,0,0,0,0,0,0,0,0,0,0,0,0,0,0,0,0,0,0,0,0,0,0,0,0,0,0,0,0,0,0,0,0,0,0,0,0,0,0,0,0,0,0,0,0,0,0,0,0,0,0,0,0,
0,0,0,0,0,0,0,0,0,0,0,0,0,0,0,0,0,0,0,0,0,0,0,0,0,0,0,0,0,0,0,0,0,0,0,0,0,0,0,0,0,0,0,0,0,0,0,0,0,0,0,0,0,0,0,0,0,0,0,0,0,0,0,0,
0,0,0,0,0,0,0,0,0,0,0,0,0,0,0,0,0,0,0,0,0,0,0,0,0,0,0,0,0,0,0,0,0,0,0,0,0,0,0,0,0,0,0,0,0,0,0,0,0,0,0,0,0,0,0,0,0,0,0,0,0,0,0,0,
0,0,0,0,0,0,0,0,0,0,0,0,0,0,0,0,0,0,0,0,0,0,0,0,0,0,0,0,0,0,0,0,0,0,0,0,0,0,0,0,0,0,0,0,0,0,0,0,0,0,0,0,0,0,0,0,0,0,0,0,0,0,0,0,
0,0,0,0,0,0,0,0,0,0,0,0,0,0,0,0,0,0,0,0,0,0,0,0,0,0,0,0,0,0,0,0,0,0,0,0,0,0,0,0,0,0,0,0,0,0,0,0,0,0,0,0,0,0,0,0,0,0,0,0,0,0,0,0,
0,0,0,0,0,0,0,0,0,0,0,0,0,0,0,0,0,0,0,0,0,0,0,0,0,0,0,0,0,0,0,0,0,0,0,0,0,0,0,0,0,0,0,0,0,0,0,0,0,0,0,0,0,0,0,0,0,0,0,0,0,0,0,0,
0,0,0,0,0,0,0,0,0,0,0,0,0,0,0,0,0,0,0,0,0,0,0,0,0,0,0,0,0,0,0,0,0,0,0,0,0,0,0,0,0,0,0,0,0,0,0,0,0,0,0,0,0,0,0,0,0,0,0,0,0,0,0,0,
0,0,0,0,0,0,0,0,0,0,0,0,0,0,0,0,0,0,0,0,0,0,0,0,0,0,0,0,0,0,0,0,0,0,0,0,0,0,0,0,0,0,0,0,0,0,0,0,0,0,0,0,0,0,0,0,0,0,0,0,0,0,0,0,
0,0,0,0,0,0,0,0,0,0,0,0,0,0,0,0,0,0,0,0,0,0,0,0,0,0,0,0,0,0,0,0,0,0,0,0,0,0,0,0,0,0,0,0,0,0,0,0,0,0,0,0,0,0,0,0,0,0,0,0,0,0,0,0,
0,0,0,0,0,0,0,0,0,0,0,0,0,0,0,0,0,0,0,0,0,0,0,0,0,0,0,0,0,0,0,0,0,0,0,0,0,0,0,0,0,0,0,0,0,0,0,0,0,0,0,0,0,0,0,0,0,0,0,0,0,0,0,0,
0,0,0,0,0,0,0,0,0,0,0,0,0,0,0,0,0,0,0,0,0,0,0,0,0,0,0,0,0,0,0,0,0,0,0,0,0,0,0,0,0,0,0,0,0,0,0,0,0,0,0,0,0,0,0,0,0,0,0,0,0,0,0,0,
0,0,0,0,0,0,0,0,0,0,0,0,0,0,0,0,0,0,0,0,0,0,0,0,0,0,0,0,0,0,0,0,0,0,0,0,0,0,0,0,0,0,0,0,0,0,0,0,0,0,0,0,0,0,0,0,0,0,0,0,0,0,0,0,
0,0,0,0,0,0,0,0,0,0,0,0,0,0,0,0,0,0,0,0,0,0,0,0,0,0,0,0,0,0,0,0,0,0,0,0,0,0,0,0,0,0,0,0,0,0,0,0,0,0,0,0,0,0,0,0,0,0,0,0,0,0,0,0,
0,0,0,0,0,0,0,0,0,0,0,0,0,0,0,0,0,0,0,0,0,0,0,0,0,0,0,0,0,0,0,0,0,0,0,0,0,0,0,0,0,0,0,0,0,0,0,0,0,0,0,0,0,0,0,0,0,0,0,0,0,0,0,0,
0,0,0,0,0,0,0,0,0,0,0,0,0,0,0,0,0,0,0,0,0,0,0,0,0,0,0,0,0,0,0,0,0,0,0,0,0,0,0,0,0,0,0,0,0,0,0,0,0,0,0,0,0,0,0,0,0,0,0,0,0,0,0,0,
0,0,0,0,0,0,0,0,0,0,0,0,0,0,0,0,0,0,0,0,0,0,0,0,0,0,0,0,0,0,0,0,0,0,0,0,0,0,0,0,0,0,0,0,0,0,0,0,0,0,0,0,0,0,0,0,0,0,0,0,0,0,0,0,
0,0,0,0,0,0,0,0,0,0,0,0,0,0,0,0,0,0,0,0,0,0,0,0,0,0,0,0,0,0,0,0,0,0,0,0,0,0,0,0,0,0,0,0,0,0,0,0,0,0,0,0,0,0,0,0,0,0,0,0,0,0,0,0,
0,0,0,0,0,0,0,0,0,0,0,0,0,0,0,0,0,0,0,0,0,0,0,0,0,0,0,0,0,0,0,0,0,0,0,0,0,0,0,0,0,0,0,0,0,0,0,0,0,0,0,0,0,0,0,0,0,0,0,0,0,0,0,0,
0,0,0,0,0,0,0,0,0,0,0,0,0,0,0,0,0,0,0,0,0,0,0,0,0,0,0,0,0,0,0,0,0,0,0,0,0,0,0,0,0,0,0,0,0,0,0,0,0,0,0,0,0,0,0,0,0,0,0,0,0,0,0,0,
0,0,0,0,0,0,0,0,0,0,0,0,0,0,0,0,0,0,0,0,0,0,0,0,0,0,0,0,0,0,0,0,0,0,0,0,0,0,0,0,0,0,0,0,0,0,0,0,0,0,0,0,0,0,0,0,0,0,0,0,0,0,0,0,
0,0,0,0,0,0,0,0,0,0,0,0,0,0,0,0,0,0,0,0,0,0,0,0,0,0,0,0,0,0,0,0,0,0,0,0,0,0,0,0,0,0,0,0,0,0,0,0,0,0,0,0,0,0,0,0,0,0,0,0,0,0,0,0
</data>
 </layer>
 <layer id="8" name="puerta_abierta" width="64" height="48">
  <data encoding="csv">
0,0,0,0,0,0,0,0,0,0,0,0,0,0,0,0,0,0,0,0,0,0,0,0,0,0,0,0,0,0,0,0,0,0,0,0,0,0,0,0,0,0,0,0,0,0,0,0,0,0,0,0,0,0,0,0,0,0,0,0,0,0,0,0,
0,0,0,0,0,0,0,0,0,0,0,0,0,0,0,0,0,0,0,0,0,0,0,0,0,0,0,0,0,0,0,0,0,0,0,0,0,0,0,0,0,0,0,0,0,0,0,0,0,0,0,0,0,0,0,0,0,0,0,0,0,0,0,0,
0,0,0,0,0,0,0,0,0,0,0,0,0,0,0,0,0,0,0,0,0,0,0,0,0,0,0,0,0,0,0,0,0,0,0,0,0,0,0,0,0,0,0,0,0,0,0,0,0,0,0,0,0,0,0,0,0,0,0,0,0,0,0,0,
0,0,0,0,0,0,0,0,0,0,0,0,0,0,0,0,0,0,0,0,0,0,0,0,0,0,0,0,0,0,0,0,0,0,0,0,0,0,0,0,0,0,0,0,0,0,0,0,0,0,0,0,0,0,0,0,0,0,0,0,0,0,0,0,
0,0,0,0,0,0,0,0,0,0,0,0,0,0,0,0,0,0,0,0,0,0,0,0,0,0,0,0,0,0,0,0,0,0,0,0,0,0,0,0,0,0,0,0,0,0,0,0,0,0,0,0,0,0,0,0,0,0,0,0,0,0,0,0,
0,0,0,0,0,0,0,0,0,0,0,0,0,0,0,0,0,0,0,0,0,0,0,0,0,0,0,0,0,0,0,0,0,0,0,0,0,0,0,0,0,0,0,0,0,0,0,0,0,0,0,0,0,0,0,0,0,0,0,0,0,0,0,0,
0,0,0,0,0,0,0,0,0,0,0,0,0,0,0,0,0,0,0,0,0,0,0,0,0,0,0,0,0,0,0,0,0,0,0,0,0,0,0,0,0,0,0,0,0,0,0,0,0,0,0,0,0,0,0,0,0,0,0,0,0,0,0,0,
0,0,0,0,0,0,0,0,0,0,0,0,0,0,0,0,0,0,0,0,0,0,0,0,0,0,0,0,0,0,0,0,0,0,0,0,0,0,0,0,0,0,0,0,0,0,0,0,0,0,0,0,0,0,0,0,0,0,0,0,0,0,0,0,
0,0,0,0,0,0,0,0,0,0,0,0,0,0,0,0,0,0,0,0,0,0,0,0,0,0,0,0,0,0,0,0,0,0,0,0,0,0,0,0,0,0,0,0,0,0,0,0,0,0,0,0,0,0,0,0,0,0,0,0,0,0,0,0,
0,0,0,0,0,0,0,0,0,0,0,0,0,0,0,0,0,0,0,0,0,0,0,0,0,0,0,0,0,0,0,0,0,0,0,0,0,0,0,0,0,0,0,0,0,0,0,0,0,0,0,0,0,0,0,0,0,0,0,0,0,0,0,0,
0,0,0,0,0,0,0,0,0,0,0,0,0,0,0,0,0,0,0,0,0,0,0,0,0,0,0,0,0,0,0,0,0,0,0,0,0,0,0,0,0,0,0,0,0,0,0,0,0,0,0,0,0,0,0,0,0,0,0,0,0,0,0,0,
0,0,0,0,0,0,0,0,0,0,0,0,0,0,0,0,0,0,0,0,0,0,0,0,0,0,0,0,0,0,0,0,0,0,0,0,0,0,0,0,0,0,0,0,0,0,0,0,0,0,0,0,0,0,0,0,0,0,0,0,0,0,0,0,
0,0,0,0,0,0,0,0,0,0,0,0,0,0,0,0,0,0,0,0,0,0,0,20291,20292,20293,20294,20295,0,0,0,0,0,0,0,20286,20287,20288,20289,20290,0,0,0,0,0,0,0,0,0,0,0,0,0,0,0,0,0,0,0,0,0,0,0,0,
0,0,0,0,0,0,0,0,0,0,0,0,0,0,0,0,0,0,0,0,0,0,0,20458,20459,20460,20461,20462,0,0,0,0,0,0,0,20453,20454,20455,20456,20457,0,0,0,0,0,0,0,0,0,0,0,0,0,0,0,0,0,0,0,0,0,0,0,0,
0,0,0,0,0,0,0,0,0,0,0,0,0,0,0,0,0,0,0,0,0,0,0,20625,20626,20627,20628,20629,0,0,0,0,0,0,0,20620,20621,20622,20623,20624,0,0,0,0,0,0,0,0,0,0,0,0,0,0,0,0,0,0,0,0,0,0,0,0,
0,0,0,0,0,0,0,0,0,0,0,0,0,0,0,0,0,0,0,0,0,0,0,20792,20793,20794,20795,20796,30290,30290,30290,30290,30290,30290,30290,20787,20788,20789,20790,20791,0,0,0,0,0,0,0,0,0,0,0,0,0,0,0,0,0,0,0,0,0,0,0,0,
0,0,0,0,0,0,0,0,0,0,0,0,0,0,0,0,0,0,0,0,0,0,0,0,0,30293,30294,30295,30295,30295,30295,30295,30295,30295,30295,30295,30296,30297,0,0,0,0,0,0,0,0,0,0,0,0,0,0,0,0,0,0,0,0,0,0,0,0,0,0,
0,0,0,0,0,0,0,0,0,0,0,0,0,0,0,0,0,0,0,30280,30280,30280,30280,30280,30280,30276,30299,30300,30300,30300,30300,30300,30300,30300,30300,30300,30301,30274,30280,30280,30280,30280,30280,30280,0,0,0,0,0,0,0,0,0,0,0,0,0,0,0,0,0,0,0,0,
0,0,0,0,0,0,0,0,0,0,0,0,0,0,0,0,0,0,0,30280,30280,30280,30280,30280,30280,30280,30299,30300,30300,30300,30300,30300,30300,30300,30300,30300,30301,30280,30280,30280,30280,30280,30280,30280,0,0,0,0,0,0,0,0,0,0,0,0,0,0,0,0,0,0,0,0,
0,0,0,0,0,0,0,0,0,0,0,0,0,0,0,0,0,0,0,30280,30280,30280,30280,30280,30280,30280,30299,30300,30300,30300,30300,30300,30300,30300,30300,30300,30301,30280,30280,30280,30280,30280,30280,30280,0,0,0,0,0,0,0,0,0,0,0,0,0,0,0,0,0,0,0,0,
0,0,0,0,0,0,0,0,0,0,0,0,0,0,0,0,0,0,0,30280,30280,30280,30280,30280,30280,30280,30299,30300,30300,30300,30300,30300,30300,30300,30300,30300,30301,30280,30280,30280,30280,30280,30280,30280,0,0,0,0,0,0,0,0,0,0,0,0,0,0,0,0,0,0,0,0,
0,0,0,0,0,0,0,0,0,0,0,0,0,0,0,0,0,0,0,30280,30280,30280,30280,30280,30280,30280,30299,30300,30300,30300,30300,30300,30300,30300,30300,30300,30301,30280,30280,30280,30280,30280,30280,30280,0,0,0,0,0,0,0,0,0,0,0,0,0,0,0,0,0,0,0,0,
0,0,0,0,0,0,0,0,0,0,0,0,0,0,0,0,0,0,0,30285,30285,30285,30285,30285,30285,30285,30299,30300,30300,30300,30300,30300,30300,30300,30300,30300,30301,30285,30285,30285,30285,30285,30285,30285,0,0,0,0,0,0,0,0,0,0,0,0,0,0,0,0,0,0,0,0,
0,0,0,0,0,0,0,0,0,0,0,0,0,0,0,0,0,0,0,0,0,0,0,0,0,0,0,0,0,0,0,0,0,0,0,0,0,0,0,0,0,0,0,0,0,0,0,0,0,0,0,0,0,0,0,0,0,0,0,0,0,0,0,0,
0,0,0,0,0,0,0,0,0,0,0,0,0,0,0,0,0,0,0,0,0,0,0,0,0,0,0,0,0,0,0,0,0,0,0,0,0,0,0,0,0,0,0,0,0,0,0,0,0,0,0,0,0,0,0,0,0,0,0,0,0,0,0,0,
0,0,0,0,0,0,0,0,0,0,0,0,0,0,0,0,0,0,0,0,0,0,0,0,0,0,0,0,0,0,0,0,0,0,0,0,0,0,0,0,0,0,0,0,0,0,0,0,0,0,0,0,0,0,0,0,0,0,0,0,0,0,0,0,
0,0,0,0,0,0,0,0,0,0,0,0,0,0,0,0,0,0,0,0,0,0,0,0,0,0,0,0,0,0,0,0,0,0,0,0,0,0,0,0,0,0,0,0,0,0,0,0,0,0,0,0,0,0,0,0,0,0,0,0,0,0,0,0,
0,0,0,0,0,0,0,0,0,0,0,0,0,0,0,0,0,0,0,0,0,0,0,0,0,0,0,0,0,0,0,0,0,0,0,0,0,0,0,0,0,0,0,0,0,0,0,0,0,0,0,0,0,0,0,0,0,0,0,0,0,0,0,0,
0,0,0,0,0,0,0,0,0,0,0,0,0,0,0,0,0,0,0,0,0,0,0,0,0,0,0,0,0,0,0,0,0,0,0,0,0,0,0,0,0,0,0,0,0,0,0,0,0,0,0,0,0,0,0,0,0,0,0,0,0,0,0,0,
0,0,0,0,0,0,0,0,0,0,0,0,0,0,0,0,0,0,0,0,0,0,0,0,0,0,0,0,0,0,0,0,0,0,0,0,0,0,0,0,0,0,0,0,0,0,0,0,0,0,0,0,0,0,0,0,0,0,0,0,0,0,0,0,
0,0,0,0,0,0,0,0,0,0,0,0,0,0,0,0,0,0,0,0,0,0,0,0,0,0,0,0,0,0,0,0,0,0,0,0,0,0,0,0,0,0,0,0,0,0,0,0,0,0,0,0,0,0,0,0,0,0,0,0,0,0,0,0,
0,0,0,0,0,0,0,0,0,0,0,0,0,0,0,0,0,0,0,0,0,0,0,0,0,0,0,0,0,0,0,0,0,0,0,0,0,0,0,0,0,0,0,0,0,0,0,0,0,0,0,0,0,0,0,0,0,0,0,0,0,0,0,0,
0,0,0,0,0,0,0,0,0,0,0,0,0,0,0,0,0,0,0,0,0,0,0,0,0,0,0,0,0,0,0,0,0,0,0,0,0,0,0,0,0,0,0,0,0,0,0,0,0,0,0,0,0,0,0,0,0,0,0,0,0,0,0,0,
0,0,0,0,0,0,0,0,0,0,0,0,0,0,0,0,0,0,0,0,0,0,0,0,0,0,0,0,0,0,0,0,0,0,0,0,0,0,0,0,0,0,0,0,0,0,0,0,0,0,0,0,0,0,0,0,0,0,0,0,0,0,0,0,
0,0,0,0,0,0,0,0,0,0,0,0,0,0,0,0,0,0,0,0,0,0,0,0,0,0,0,0,0,0,0,0,0,0,0,0,0,0,0,0,0,0,0,0,0,0,0,0,0,0,0,0,0,0,0,0,0,0,0,0,0,0,0,0,
0,0,0,0,0,0,0,0,0,0,0,0,0,0,0,0,0,0,0,0,0,0,0,0,0,0,0,0,0,0,0,0,0,0,0,0,0,0,0,0,0,0,0,0,0,0,0,0,0,0,0,0,0,0,0,0,0,0,0,0,0,0,0,0,
0,0,0,0,0,0,0,0,0,0,0,0,0,0,0,0,0,0,0,0,0,0,0,0,0,0,0,0,0,0,0,0,0,0,0,0,0,0,0,0,0,0,0,0,0,0,0,0,0,0,0,0,0,0,0,0,0,0,0,0,0,0,0,0,
0,0,0,0,0,0,0,0,0,0,0,0,0,0,0,0,0,0,0,0,0,0,0,0,0,0,0,0,0,0,0,0,0,0,0,0,0,0,0,0,0,0,0,0,0,0,0,0,0,0,0,0,0,0,0,0,0,0,0,0,0,0,0,0,
0,0,0,0,0,0,0,0,0,0,0,0,0,0,0,0,0,0,0,0,0,0,0,0,0,0,0,0,0,0,0,0,0,0,0,0,0,0,0,0,0,0,0,0,0,0,0,0,0,0,0,0,0,0,0,0,0,0,0,0,0,0,0,0,
0,0,0,0,0,0,0,0,0,0,0,0,0,0,0,0,0,0,0,0,0,0,0,0,0,0,0,0,0,0,0,0,0,0,0,0,0,0,0,0,0,0,0,0,0,0,0,0,0,0,0,0,0,0,0,0,0,0,0,0,0,0,0,0,
0,0,0,0,0,0,0,0,0,0,0,0,0,0,0,0,0,0,0,0,0,0,0,0,0,0,0,0,0,0,0,0,0,0,0,0,0,0,0,0,0,0,0,0,0,0,0,0,0,0,0,0,0,0,0,0,0,0,0,0,0,0,0,0,
0,0,0,0,0,0,0,0,0,0,0,0,0,0,0,0,0,0,0,0,0,0,0,0,0,0,0,0,0,0,0,0,0,0,0,0,0,0,0,0,0,0,0,0,0,0,0,0,0,0,0,0,0,0,0,0,0,0,0,0,0,0,0,0,
0,0,0,0,0,0,0,0,0,0,0,0,0,0,0,0,0,0,0,0,0,0,0,0,0,0,0,0,0,0,0,0,0,0,0,0,0,0,0,0,0,0,0,0,0,0,0,0,0,0,0,0,0,0,0,0,0,0,0,0,0,0,0,0,
0,0,0,0,0,0,0,0,0,0,0,0,0,0,0,0,0,0,0,0,0,0,0,0,0,0,0,0,0,0,0,0,0,0,0,0,0,0,0,0,0,0,0,0,0,0,0,0,0,0,0,0,0,0,0,0,0,0,0,0,0,0,0,0,
0,0,0,0,0,0,0,0,0,0,0,0,0,0,0,0,0,0,0,0,0,0,0,0,0,0,0,0,0,0,0,0,0,0,0,0,0,0,0,0,0,0,0,0,0,0,0,0,0,0,0,0,0,0,0,0,0,0,0,0,0,0,0,0,
0,0,0,0,0,0,0,0,0,0,0,0,0,0,0,0,0,0,0,0,0,0,0,0,0,0,0,0,0,0,0,0,0,0,0,0,0,0,0,0,0,0,0,0,0,0,0,0,0,0,0,0,0,0,0,0,0,0,0,0,0,0,0,0,
0,0,0,0,0,0,0,0,0,0,0,0,0,0,0,0,0,0,0,0,0,0,0,0,0,0,0,0,0,0,0,0,0,0,0,0,0,0,0,0,0,0,0,0,0,0,0,0,0,0,0,0,0,0,0,0,0,0,0,0,0,0,0,0,
0,0,0,0,0,0,0,0,0,0,0,0,0,0,0,0,0,0,0,0,0,0,0,0,0,0,0,0,0,0,0,0,0,0,0,0,0,0,0,0,0,0,0,0,0,0,0,0,0,0,0,0,0,0,0,0,0,0,0,0,0,0,0,0
</data>
 </layer>
 <objectgroup id="6" name="colisiones">
  <object id="1" x="-0.5625" y="368.313" width="1025" height="19"/>
 </objectgroup>
</map>
