<?xml version="1.0" encoding="UTF-8"?>
<map version="1.10" tiledversion="1.11.2" orientation="orthogonal" renderorder="right-down" width="64" height="48" tilewidth="16" tileheight="16" infinite="0" nextlayerid="5" nextobjectid="32">
 <tileset firstgid="1" source="castle_interior.tsx"/>
 <tileset firstgid="30228" source="trono.tsx"/>
 <layer id="2" name="pared" width="64" height="48">
  <data encoding="csv">
11372,11372,11372,11372,11372,11372,11372,11372,11372,11372,11372,11372,11372,11372,11372,11372,11372,11372,11372,11372,11372,11372,11372,11372,11372,11372,11372,11372,11372,11372,11372,11372,11372,11372,11372,11372,11372,11372,11372,11372,11372,11372,11372,11372,11372,11372,11372,11372,11372,11372,11372,11372,11372,11372,11372,11372,11372,11372,11372,11372,11372,11372,11372,11372,
11372,11372,11372,11372,11372,11372,11372,11372,11372,11372,11372,11372,11372,11372,11372,11372,11372,11372,11372,11372,11372,11372,11372,11372,11372,11372,11372,11372,11372,11372,11372,11372,11372,11372,11372,11372,11372,11372,11372,11372,11372,11372,11372,11372,11372,11372,11372,11372,11372,11372,11372,11372,11372,11372,11372,11372,11372,11372,11372,11372,11372,11372,11372,11372,
11372,11372,11372,11372,11372,11372,11372,11372,11372,11372,11372,11372,11372,11372,11372,11372,11372,11372,11372,11372,11372,11372,11372,11372,11372,11372,11372,11372,11372,11372,11372,11372,11372,11372,11372,11372,11372,11372,11372,11372,11372,11372,11372,11372,11372,11372,11372,11372,11372,11372,11372,11372,11372,11372,11372,11372,11372,11372,11372,11372,11372,11372,11372,11372,
11372,11372,11372,11372,11372,11372,11372,11372,11372,11372,11372,11372,11372,11372,11372,11372,11372,11372,11372,11372,11372,11372,11372,11372,11372,11372,11372,11372,11372,11372,11372,11372,11372,11372,11372,11372,11372,11372,11372,11372,11372,11372,11372,11372,11372,11372,11372,11372,11372,11372,11372,11372,11372,11372,11372,11372,11372,11372,11372,11372,11372,11372,11372,11372,
11372,11372,11372,11372,11372,11372,11372,11372,11372,11372,11372,11372,11372,11372,11372,11372,11372,11372,11372,11372,11372,11372,11372,11372,11372,11372,11372,11372,11372,11372,11372,11372,11372,11372,11372,11372,11372,11372,11372,11372,11372,11372,11372,11372,11372,11372,11372,11372,11372,11372,11372,11372,11372,11372,11372,11372,11372,11372,11372,11372,11372,11372,11372,11372,
11372,11372,11372,11372,11372,11372,11372,11372,11372,11372,11372,11372,11372,11372,11372,11372,11372,11372,11372,11372,11372,11372,11372,11372,11372,11372,11372,11372,11372,11372,11372,11372,11372,11372,11372,11372,11372,11372,11372,11372,11372,11372,11372,11372,11372,11372,11372,11372,11372,11372,11372,11372,11372,11372,11372,11372,11372,11372,11372,11372,11372,11372,11372,11372,
11372,11372,11372,11372,11372,11372,11372,11372,11372,11372,11372,11372,11372,11372,11372,11372,11372,11372,11372,11372,11372,11372,11372,11372,11372,11372,11372,11372,11372,11372,11372,11372,11372,11372,11372,11372,11372,11372,11372,11372,11372,11372,11372,11372,11372,11372,11372,11372,11372,11372,11372,11372,11372,11372,11372,11372,11372,11372,11372,11372,11372,11372,11372,11372,
11372,11372,11372,11372,11372,11372,11372,11372,11372,11372,11372,11372,11372,11372,11372,11372,11372,11372,11372,11372,11372,11372,11372,11372,11372,11372,11372,11372,11372,11372,11372,11372,11372,11372,11372,11372,11372,11372,11372,11372,11372,11372,11372,11372,11372,11372,11372,11372,11372,11372,11372,11372,11372,11372,11372,11372,11372,11372,11372,11372,11372,11372,11372,11372,
11372,11372,11372,11372,11372,11372,11372,11372,11372,11372,11372,11372,11372,11372,11372,11372,11372,11372,11372,11372,11372,11372,11372,11372,11372,11372,11372,11372,11372,11372,11372,11372,11372,11372,11372,11372,11372,11372,11372,11372,11372,11372,11372,11372,11372,11372,11372,11372,11372,11372,11372,11372,11372,11372,11372,11372,11372,11372,11372,11372,11372,11372,11372,11372,
11372,11372,11372,11372,11372,11372,11372,11372,11372,11372,11372,11372,11372,11372,11372,11372,11372,11372,11372,11372,11372,11372,11372,11372,11372,11372,11372,11372,11372,11372,11372,11372,11372,11372,11372,11372,11372,11372,11372,11372,11372,11372,11372,11372,11372,11372,11372,11372,11372,11372,11372,11372,11372,11372,11372,11372,11372,11372,11372,11372,11372,11372,11372,11372,
11372,11372,11372,11372,11372,11372,11372,11372,11372,11372,11372,11372,11372,11372,11372,11372,11372,11372,11372,11372,11372,11372,11372,11372,11372,11372,11372,11372,11372,11372,11372,11372,11372,11372,11372,11372,11372,11372,11372,11372,11372,11372,11372,11372,11372,11372,11372,11372,11372,11372,11372,11372,11372,11372,11372,11372,11372,11372,11372,11372,11372,11372,11372,11372,
11372,11372,11372,11372,11372,11372,11372,11372,11372,11372,11372,11372,11372,11372,11372,11372,11372,11372,11372,11372,11372,11372,11372,11372,11372,11372,11372,11372,11372,11372,11372,11372,11372,11372,11372,11372,11372,11372,11372,11372,11372,11372,11372,11372,11372,11372,11372,11372,11372,11372,11372,11372,11372,11372,11372,11372,11372,11372,11372,11372,11372,11372,11372,11372,
11372,11372,11372,11372,11372,11372,11372,11372,11372,11372,11372,11372,11372,11372,11372,11372,11372,11372,11372,11372,11372,11372,11372,11372,11372,11372,11372,11372,11372,11372,11372,11372,11372,11372,11372,11372,11372,11372,11372,11372,11372,11372,11372,11372,11372,11372,11372,11372,11372,11372,11372,11372,11372,11372,11372,11372,11372,11372,11372,11372,11372,11372,11372,11372,
11372,11372,11372,11372,11372,11372,11372,11372,11372,11372,11372,11372,11372,11372,11372,11372,11372,11372,11372,11372,11372,11372,11372,11372,11372,11372,11372,11372,11372,11372,11372,11372,11372,11372,11372,11372,11372,11372,11372,11372,11372,11372,11372,11372,11372,11372,11372,11372,11372,11372,11372,11372,11372,11372,11372,11372,11372,11372,11372,11372,11372,11372,11372,11372,
11372,11372,11372,11372,11372,11372,11372,11372,11372,11372,11372,11372,11372,11372,11372,11372,11372,11372,11372,11372,11372,11372,11372,11372,11372,11372,11372,11372,11372,11372,11372,11372,11372,11372,11372,11372,11372,11372,11372,11372,11372,11372,11372,11372,11372,11372,11372,11372,11372,11372,11372,11372,11372,11372,11372,11372,11372,11372,11372,11372,11372,11372,11372,11372,
11372,11372,11372,11372,11372,11372,11372,11372,11372,11372,11372,11372,11372,11372,11372,11372,11372,11372,11372,11372,11372,11372,11372,11372,11372,11372,11372,11372,11372,11372,11372,11372,11372,11372,11372,11372,11372,11372,11372,11372,11372,11372,11372,11372,11372,11372,11372,11372,11372,11372,11372,11372,11372,11372,11372,11372,11372,11372,11372,11372,11372,11372,11372,11372,
11372,11372,11372,11372,11372,11372,11372,11372,11372,11372,11372,11372,11372,11372,11372,11372,11372,11372,11372,11372,11372,11372,11372,11372,11372,11372,11372,11372,11372,11372,11372,11372,11372,11372,11372,11372,11372,11372,11372,11372,11372,11372,11372,11372,11372,11372,11372,11372,11372,11372,11372,11372,11372,11372,11372,11372,11372,11372,11372,11372,11372,11372,11372,11372,
11372,11372,11372,11372,11372,11372,11372,11372,11372,11372,11372,11372,11372,11372,11372,11372,11372,11372,11372,11372,11372,11372,11372,11372,11372,11372,11372,11372,11372,11372,11372,11372,11372,11372,11372,11372,11372,11372,11372,11372,11372,11372,11372,11372,11372,11372,11372,11372,11372,11372,11372,11372,11372,11372,11372,11372,11372,11372,11372,11372,11372,11372,11372,11372,
11372,11372,11372,11372,11372,11372,11372,11372,11372,11372,11372,11372,11372,11372,11372,11372,11372,11372,11372,11372,11372,11372,11372,11372,11372,11372,11372,11372,11372,11372,11372,11372,11372,11372,11372,11372,11372,11372,11372,11372,11372,11372,11372,11372,11372,11372,11372,11372,11372,11372,11372,11372,11372,11372,11372,11372,11372,11372,11372,11372,11372,11372,11372,11372,
11372,11372,11372,11372,11372,11372,11372,11372,11372,11372,11372,11372,11372,11372,11372,11372,11372,11372,11372,11372,11372,11372,11372,11372,11372,11372,11372,11372,11372,11372,11372,11372,11372,11372,11372,11372,11372,11372,11372,11372,11372,11372,11372,11372,11372,11372,11372,11372,11372,11372,11372,11372,11372,11372,11372,11372,11372,11372,11372,11372,11372,11372,11372,11372,
11372,11372,11372,11372,11372,11372,11372,11372,11372,11372,11372,11372,11372,11372,11372,11372,11372,11372,11372,11372,11372,11372,11372,11372,11372,11372,11372,11372,11372,11372,11372,11372,11372,11372,11372,11372,11372,11372,11372,11372,11372,11372,11372,11372,11372,11372,11372,11372,11372,11372,11372,11372,11372,11372,11372,11372,11372,11372,11372,11372,11372,11372,11372,11372,
11372,11372,11372,11372,11372,11372,11372,11372,11372,11372,11372,11372,11372,11372,11372,11372,11372,11372,11372,11372,11372,11372,11372,11372,11372,11372,11372,11372,11372,11372,11372,11372,11372,11372,11372,11372,11372,11372,11372,11372,11372,11372,11372,11372,11372,11372,11372,11372,11372,11372,11372,11372,11372,11372,11372,11372,11372,11372,11372,11372,11372,11372,11372,11372,
11372,11372,11372,11372,11372,11372,11372,11372,11372,11372,11372,11372,11372,11372,11372,11372,11372,11372,11372,11372,11372,11372,11372,11372,11372,11372,11372,11372,11372,11372,11372,11372,11372,11372,11372,11372,11372,11372,11372,11372,11372,11372,11372,11372,11372,11372,11372,11372,11372,11372,11372,11372,11372,11372,11372,11372,11372,11372,11372,11372,11372,11372,11372,11372,
11372,11372,11372,11372,11372,11372,11372,11372,11372,11372,11372,11372,11372,11372,11372,11372,11372,11372,11372,11372,11372,11372,11372,11372,11372,11372,11372,11372,11372,11372,11372,11372,11372,11372,11372,11372,11372,11372,11372,11372,11372,11372,11372,11372,11372,11372,11372,11372,11372,11372,11372,11372,11372,11372,11372,11372,11372,11372,11372,11372,11372,11372,11372,11372,
11372,11372,11372,11372,11372,11372,11372,11372,11372,11372,11372,11372,11372,11372,11372,11372,11372,11372,11372,11372,11372,11372,11372,11372,11372,11372,11372,11372,11372,11372,11372,11372,11372,11372,11372,11372,11372,11372,11372,11372,11372,11372,11372,11372,11372,11372,11372,11372,11372,11372,11372,11372,11372,11372,11372,11372,11372,11372,11372,11372,11372,11372,11372,11372,
11372,11372,11372,11372,11372,11372,11372,11372,11372,11372,11372,11372,11372,11372,11372,11372,11372,11372,11372,11372,11372,11372,11372,11372,11372,11372,11372,11372,11372,11372,11372,11372,11372,11372,11372,11372,11372,11372,11372,11372,11372,11372,11372,11372,11372,11372,11372,11372,11372,11372,11372,11372,11372,11372,11372,11372,11372,11372,11372,11372,11372,11372,11372,11372,
11372,11372,11372,11372,11372,11372,11372,11372,11372,11372,11372,11372,11372,11372,11372,11372,11372,11372,11372,11372,11372,11372,11372,11372,11372,11372,11372,11372,11372,11372,11372,11372,11372,11372,11372,11372,11372,11372,11372,11372,11372,11372,11372,11372,11372,11372,11372,11372,11372,11372,11372,11372,11372,11372,11372,11372,11372,11372,11372,11372,11372,11372,11372,11372,
11372,11372,11372,11372,11372,11372,11372,11372,11372,11372,11372,11372,11372,11372,11372,11372,11372,11372,11372,11372,11372,11372,11372,11372,11372,11372,11372,11372,11372,11372,11372,11372,11372,11372,11372,11372,11372,11372,11372,11372,11372,11372,11372,11372,11372,11372,11372,11372,11372,11372,11372,11372,11372,11372,11372,11372,11372,11372,11372,11372,11372,11372,11372,11372,
11372,11372,11372,11372,11372,11372,11372,11372,11372,11372,11372,11372,11372,11372,11372,11372,11372,11372,11372,11372,11372,11372,11372,11372,11372,11372,11372,11372,11372,11372,11372,11372,11372,11372,11372,11372,11372,11372,11372,11372,11372,11372,11372,11372,11372,11372,11372,11372,11372,11372,11372,11372,11372,11372,11372,11372,11372,11372,11372,11372,11372,11372,11372,11372,
11372,11372,11372,11372,11372,11372,11372,11372,11372,11372,11372,11372,11372,11372,11372,11372,11372,11372,11372,11372,11372,11372,11372,11372,11372,11372,11372,11372,11372,11372,11372,11372,11372,11372,11372,11372,11372,11372,11372,11372,11372,11372,11372,11372,11372,11372,11372,11372,11372,11372,11372,11372,11372,11372,11372,11372,11372,11372,11372,11372,11372,11372,11372,11372,
11372,11372,11372,11372,11372,11372,11372,11372,11372,11372,11372,11372,11372,11372,11372,11372,11372,11372,11372,11372,11372,11372,11372,11372,11372,11372,11372,11372,11372,11372,11372,11372,11372,11372,11372,11372,11372,11372,11372,11372,11372,11372,11372,11372,11372,11372,11372,11372,11372,11372,11372,11372,11372,11372,11372,11372,11372,11372,11372,11372,11372,11372,11372,11372,
11372,11372,11372,11372,11372,11372,11372,11372,11372,11372,11372,11372,11372,11372,11372,11372,11372,11372,11372,11372,11372,11372,11372,11372,11372,11372,11372,11372,11372,11372,11372,11372,11372,11372,11372,11372,11372,11372,11372,11372,11372,11372,11372,11372,11372,11372,11372,11372,11372,11372,11372,11372,11372,11372,11372,11372,11372,11372,11372,11372,11372,11372,11372,11372,
0,0,0,0,0,0,0,0,0,0,0,0,0,0,0,0,0,0,0,0,0,0,0,0,0,0,0,0,0,0,0,0,0,0,0,0,0,0,0,0,0,0,0,0,0,0,0,0,0,0,0,0,0,0,0,0,0,0,0,0,0,0,0,0,
0,0,0,0,0,0,0,0,0,0,0,0,0,0,0,0,0,0,0,0,0,0,0,0,0,0,0,0,0,0,0,0,0,0,0,0,0,0,0,0,0,0,0,0,0,0,0,0,0,0,0,0,0,0,0,0,0,0,0,0,0,0,0,0,
0,0,0,0,0,0,0,0,0,0,0,0,0,0,0,0,0,0,0,0,0,0,0,0,0,0,0,0,0,0,0,0,0,0,0,0,0,0,0,0,0,0,0,0,0,0,0,0,0,0,0,0,0,0,0,0,0,0,0,0,0,0,0,0,
0,0,0,0,0,0,0,0,0,0,0,0,0,0,0,0,0,0,0,0,0,0,0,0,0,0,0,0,0,0,0,0,0,0,0,0,0,0,0,0,0,0,0,0,0,0,0,0,0,0,0,0,0,0,0,0,0,0,0,0,0,0,0,0,
0,0,0,0,0,0,0,0,0,0,0,0,0,0,0,0,0,0,0,0,0,0,0,0,0,0,0,0,0,0,0,0,0,0,0,0,0,0,0,0,0,0,0,0,0,0,0,0,0,0,0,0,0,0,0,0,0,0,0,0,0,0,0,0,
0,0,0,0,0,0,0,0,0,0,0,0,0,0,0,0,0,0,0,0,0,0,0,0,0,0,0,0,0,0,0,0,0,0,0,0,0,0,0,0,0,0,0,0,0,0,0,0,0,0,0,0,0,0,0,0,0,0,0,0,0,0,0,0,
0,0,0,0,0,0,0,0,0,0,0,0,0,0,0,0,0,0,0,0,0,0,0,0,0,0,0,0,0,0,0,0,0,0,0,0,0,0,0,0,0,0,0,0,0,0,0,0,0,0,0,0,0,0,0,0,0,0,0,0,0,0,0,0,
0,0,0,0,0,0,0,0,0,0,0,0,0,0,0,0,0,0,0,0,0,0,0,0,0,0,0,0,0,0,0,0,0,0,0,0,0,0,0,0,0,0,0,0,0,0,0,0,0,0,0,0,0,0,0,0,0,0,0,0,0,0,0,0,
0,0,0,0,0,0,0,0,0,0,0,0,0,0,0,0,0,0,0,0,0,0,0,0,0,0,0,0,0,0,0,0,0,0,0,0,0,0,0,0,0,0,0,0,0,0,0,0,0,0,0,0,0,0,0,0,0,0,0,0,0,0,0,0,
0,0,0,0,0,0,0,0,0,0,0,0,0,0,0,0,0,0,0,0,0,0,0,0,0,0,0,0,0,0,0,0,0,0,0,0,0,0,0,0,0,0,0,0,0,0,0,0,0,0,0,0,0,0,0,0,0,0,0,0,0,0,0,0,
0,0,0,0,0,0,0,0,0,0,0,0,0,0,0,0,0,0,0,0,0,0,0,0,0,0,0,0,0,0,0,0,0,0,0,0,0,0,0,0,0,0,0,0,0,0,0,0,0,0,0,0,0,0,0,0,0,0,0,0,0,0,0,0,
0,0,0,0,0,0,0,0,0,0,0,0,0,0,0,0,0,0,0,0,0,0,0,0,0,0,0,0,0,0,0,0,0,0,0,0,0,0,0,0,0,0,0,0,0,0,0,0,0,0,0,0,0,0,0,0,0,0,0,0,0,0,0,0,
0,0,0,0,0,0,0,0,0,0,0,0,0,0,0,0,0,0,0,0,0,0,0,0,0,0,0,0,0,0,0,0,0,0,0,0,0,0,0,0,0,0,0,0,0,0,0,0,0,0,0,0,0,0,0,0,0,0,0,0,0,0,0,0,
0,0,0,0,0,0,0,0,0,0,0,0,0,0,0,0,0,0,0,0,0,0,0,0,0,0,0,0,0,0,0,0,0,0,0,0,0,0,0,0,0,0,0,0,0,0,0,0,0,0,0,0,0,0,0,0,0,0,0,0,0,0,0,0,
0,0,0,0,0,0,0,0,0,0,0,0,0,0,0,0,0,0,0,0,0,0,0,0,0,0,0,0,0,0,0,0,0,0,0,0,0,0,0,0,0,0,0,0,0,0,0,0,0,0,0,0,0,0,0,0,0,0,0,0,0,0,0,0,
0,0,0,0,0,0,0,0,0,0,0,0,0,0,0,0,0,0,0,0,0,0,0,0,0,0,0,0,0,0,0,0,0,0,0,0,0,0,0,0,0,0,0,0,0,0,0,0,0,0,0,0,0,0,0,0,0,0,0,0,0,0,0,0
</data>
 </layer>
 <layer id="3" name="ventanas" width="64" height="48">
  <data encoding="csv">
0,0,0,0,0,0,0,0,0,0,0,0,0,0,0,0,0,0,0,0,0,0,0,0,0,0,0,0,0,0,0,0,0,0,0,0,0,0,0,0,0,0,0,0,0,0,0,0,0,0,0,0,0,0,0,0,0,0,0,0,0,0,0,0,
0,0,0,0,0,0,0,0,0,0,0,0,0,0,0,0,0,0,0,0,0,0,0,0,0,0,0,0,0,0,0,0,0,0,0,0,0,0,0,0,0,0,0,0,0,0,0,0,0,0,0,0,0,0,0,0,0,0,0,0,0,0,0,0,
0,0,0,0,0,0,0,0,0,0,0,0,0,0,0,0,0,0,0,0,0,0,0,0,0,0,0,0,0,0,0,0,0,0,0,0,0,0,0,0,0,0,0,0,0,0,0,0,0,0,0,0,0,0,0,0,0,0,0,0,0,0,0,0,
0,0,0,0,0,0,0,0,0,0,0,0,0,0,0,0,0,0,0,0,0,0,0,0,0,0,0,0,0,0,0,0,0,0,0,0,0,0,0,0,0,0,0,0,0,0,0,0,0,0,0,0,0,0,0,0,0,0,0,0,0,0,0,0,
0,0,0,0,0,0,0,0,0,0,0,0,0,0,0,0,0,0,0,0,0,0,0,0,0,0,0,0,0,0,0,0,0,0,0,0,0,0,0,0,0,0,0,0,0,0,0,0,0,0,0,0,0,0,0,0,0,0,0,0,0,0,0,0,
0,0,0,0,0,0,0,0,0,0,0,0,0,0,0,0,0,0,0,0,0,0,0,0,0,0,0,0,0,0,0,0,0,0,0,0,0,0,0,0,0,0,0,0,0,0,0,0,0,0,0,0,0,0,0,0,0,0,0,0,0,0,0,0,
0,0,0,0,0,0,0,0,0,0,0,0,0,0,0,0,0,0,0,0,0,0,0,0,0,0,0,0,0,0,0,0,0,0,0,0,0,0,0,0,0,0,0,0,0,0,0,0,0,0,0,0,0,0,0,0,0,0,0,0,0,0,0,0,
0,0,0,0,0,0,0,0,0,0,0,0,0,0,0,0,0,0,0,0,0,0,0,0,0,0,0,0,0,0,0,0,0,0,0,0,0,0,0,0,0,0,0,0,0,0,0,0,0,0,0,0,0,0,0,0,0,0,0,0,0,0,0,0,
0,0,0,0,0,0,0,0,0,0,0,0,0,0,0,0,0,0,0,0,0,0,0,0,0,0,0,0,0,0,0,0,0,0,0,0,0,0,0,0,0,0,0,0,0,0,0,0,0,0,0,0,0,0,0,0,0,0,0,0,0,0,0,0,
0,0,0,0,0,0,0,0,0,0,0,0,0,0,0,0,0,0,0,0,0,0,0,0,0,0,0,0,0,0,0,0,0,0,0,0,0,0,0,0,0,0,0,0,0,0,0,0,0,0,0,0,0,0,0,0,0,0,0,0,0,0,0,0,
0,22607,22608,22609,22610,0,0,0,22607,22608,22609,22610,0,0,0,22607,22608,22609,22610,0,0,0,22607,22608,22609,22610,0,0,0,22607,22608,22609,22610,0,0,0,22607,22608,22609,22610,0,0,0,22607,22608,22609,22610,0,0,0,22607,22608,22609,22610,0,0,0,22607,22608,22609,22610,0,0,0,
0,22774,22775,22776,22777,0,0,0,22774,22775,22776,22777,0,0,0,22774,22775,22776,22777,0,0,0,22774,22775,22776,22777,0,0,0,22774,22775,22776,22777,0,0,0,22774,22775,22776,22777,0,0,0,22774,22775,22776,22777,0,0,0,22774,22775,22776,22777,0,0,0,22774,22775,22776,22777,0,0,0,
0,22941,22942,22943,22944,0,0,0,22941,22942,22943,22944,0,0,0,22941,22942,22943,22944,0,0,0,22941,22942,22943,22944,0,0,0,22941,22942,22943,22944,0,0,0,22941,22942,22943,22944,0,0,0,22941,22942,22943,22944,0,0,0,22941,22942,22943,22944,0,0,0,22941,22942,22943,22944,0,0,0,
0,23108,23109,23110,23111,0,0,0,23108,23109,23110,23111,0,0,0,23108,23109,23110,23111,0,0,0,23108,23109,23110,23111,0,0,0,23108,23109,23110,23111,0,0,0,23108,23109,23110,23111,0,0,0,23108,23109,23110,23111,0,0,0,23108,23109,23110,23111,0,0,0,23108,23109,23110,23111,0,0,0,
0,0,0,0,0,0,0,0,0,0,0,0,0,0,0,0,0,0,0,0,0,0,0,0,0,0,0,0,0,0,0,0,0,0,0,0,0,0,0,0,0,0,0,0,0,0,0,0,0,0,0,0,0,0,0,0,0,0,0,0,0,0,0,0,
0,0,0,0,0,0,0,0,0,0,0,0,0,0,0,0,0,0,0,0,0,0,0,0,0,0,0,0,0,0,0,0,0,0,0,0,0,0,0,0,0,0,0,0,0,0,0,0,0,0,0,0,0,0,0,0,0,0,0,0,0,0,0,0,
0,0,0,0,0,0,0,0,0,0,0,0,0,0,0,0,0,0,0,0,0,0,0,0,0,0,0,0,0,0,0,0,0,0,0,0,0,0,0,0,0,0,0,0,0,0,0,0,0,0,0,0,0,0,0,0,0,0,0,0,0,0,0,0,
0,0,0,0,0,0,0,0,0,0,0,0,0,0,0,0,0,0,0,0,0,0,0,0,0,0,0,0,0,0,0,0,0,0,0,0,0,0,0,0,0,0,0,0,0,0,0,0,0,0,0,0,0,0,0,0,0,0,0,0,0,0,0,0,
0,0,0,0,0,0,0,0,0,0,0,0,0,0,0,0,0,0,0,0,0,0,0,0,0,0,0,0,0,0,0,0,0,0,0,0,0,0,0,0,0,0,0,0,0,0,0,0,0,0,0,0,0,0,0,0,0,0,0,0,0,0,0,0,
0,0,0,0,0,0,0,0,0,0,0,0,0,0,0,0,0,0,0,0,0,0,0,0,0,0,0,0,0,0,0,0,0,0,0,0,0,0,0,0,0,0,0,0,0,0,0,0,0,0,0,0,0,0,0,0,0,0,0,0,0,0,0,0,
0,0,0,0,0,0,0,0,0,0,0,0,0,0,0,0,0,0,0,0,0,0,0,0,0,0,0,0,0,0,0,0,0,0,0,0,0,0,0,0,0,0,0,0,0,0,0,0,0,0,0,0,0,0,0,0,0,0,0,0,0,0,0,0,
0,0,0,0,0,0,0,0,0,0,0,0,0,0,0,0,0,0,0,0,0,0,0,0,0,0,0,0,0,0,0,0,0,0,0,0,0,0,0,0,0,0,0,0,0,0,0,0,0,0,0,0,0,0,0,0,0,0,0,0,0,0,0,0,
0,0,0,0,0,0,0,0,0,0,0,0,0,0,0,0,0,0,0,0,0,0,0,0,0,0,0,0,0,0,0,0,0,0,0,0,0,0,0,0,0,0,0,0,0,0,0,0,0,0,0,0,0,0,0,0,0,0,0,0,0,0,0,0,
0,0,0,0,0,0,0,0,0,0,0,0,0,0,0,0,0,0,0,0,0,0,0,0,0,0,0,0,0,0,0,0,0,0,0,0,0,0,0,0,0,0,0,0,0,0,0,0,0,0,0,0,0,0,0,0,0,0,0,0,0,0,0,0,
0,0,0,0,0,0,0,0,0,0,0,0,0,0,0,0,0,0,0,0,0,0,0,0,0,0,0,0,0,0,0,0,0,0,0,0,0,0,0,0,0,0,0,0,0,0,0,0,0,0,0,0,0,0,0,0,0,0,0,0,0,0,0,0,
0,0,0,0,0,0,0,0,0,0,0,0,0,0,0,0,0,0,0,0,0,0,0,0,0,0,0,0,0,0,0,0,0,0,0,0,0,0,0,0,0,0,0,0,0,0,0,0,0,0,0,0,0,0,0,0,0,0,0,0,0,0,0,0,
0,0,0,0,0,0,0,0,0,0,0,0,0,0,0,0,0,0,0,0,0,0,0,0,0,0,0,0,0,0,0,0,0,0,0,0,0,0,0,0,0,0,0,0,0,0,0,0,0,0,0,0,0,0,0,0,0,0,0,0,0,0,0,0,
0,0,0,0,0,0,0,0,0,0,0,0,0,0,0,0,0,0,0,0,0,0,0,0,0,0,0,0,0,0,0,0,0,0,0,0,0,0,0,0,0,0,0,0,0,0,0,0,0,0,0,0,0,0,0,0,0,0,0,0,0,0,0,0,
0,0,0,0,0,0,0,0,0,0,0,0,0,0,0,0,0,0,0,0,0,0,0,0,0,0,0,0,0,0,0,0,0,0,0,0,0,0,0,0,0,0,0,0,0,0,0,0,0,0,0,0,0,0,0,0,0,0,0,0,0,0,0,0,
0,0,0,0,0,0,0,0,0,0,0,0,0,0,0,0,0,0,0,0,0,0,0,0,0,0,0,0,0,0,0,0,0,0,0,0,0,0,0,0,0,0,0,0,0,0,0,0,0,0,0,0,0,0,0,0,0,0,0,0,0,0,0,0,
0,0,0,0,0,0,0,0,0,0,0,0,0,0,0,0,0,0,0,0,0,0,0,0,0,0,0,0,0,0,0,0,0,0,0,0,0,0,0,0,0,0,0,0,0,0,0,0,0,0,0,0,0,0,0,0,0,0,0,0,0,0,0,0,
0,0,0,0,0,0,0,0,0,0,0,0,0,0,0,0,0,0,0,0,0,0,0,0,0,0,0,0,0,0,0,0,0,0,0,0,0,0,0,0,0,0,0,0,0,0,0,0,0,0,0,0,0,0,0,0,0,0,0,0,0,0,0,0,
0,0,0,0,0,0,0,0,0,0,0,0,0,0,0,0,0,0,0,0,0,0,0,0,0,0,0,0,0,0,0,0,0,0,0,0,0,0,0,0,0,0,0,0,0,0,0,0,0,0,0,0,0,0,0,0,0,0,0,0,0,0,0,0,
0,0,0,0,0,0,0,0,0,0,0,0,0,0,0,0,0,0,0,0,0,0,0,0,0,0,0,0,0,0,0,0,0,0,0,0,0,0,0,0,0,0,0,0,0,0,0,0,0,0,0,0,0,0,0,0,0,0,0,0,0,0,0,0,
0,0,0,0,0,0,0,0,0,0,0,0,0,0,0,0,0,0,0,0,0,0,0,0,0,0,0,0,0,0,0,0,0,0,0,0,0,0,0,0,0,0,0,0,0,0,0,0,0,0,0,0,0,0,0,0,0,0,0,0,0,0,0,0,
0,0,0,0,0,0,0,0,0,0,0,0,0,0,0,0,0,0,0,0,0,0,0,0,0,0,0,0,0,0,0,0,0,0,0,0,0,0,0,0,0,0,0,0,0,0,0,0,0,0,0,0,0,0,0,0,0,0,0,0,0,0,0,0,
0,0,0,0,0,0,0,0,0,0,0,0,0,0,0,0,0,0,0,0,0,0,0,0,0,0,0,0,0,0,0,0,0,0,0,0,0,0,0,0,0,0,0,0,0,0,0,0,0,0,0,0,0,0,0,0,0,0,0,0,0,0,0,0,
0,0,0,0,0,0,0,0,0,0,0,0,0,0,0,0,0,0,0,0,0,0,0,0,0,0,0,0,0,0,0,0,0,0,0,0,0,0,0,0,0,0,0,0,0,0,0,0,0,0,0,0,0,0,0,0,0,0,0,0,0,0,0,0,
0,0,0,0,0,0,0,0,0,0,0,0,0,0,0,0,0,0,0,0,0,0,0,0,0,0,0,0,0,0,0,0,0,0,0,0,0,0,0,0,0,0,0,0,0,0,0,0,0,0,0,0,0,0,0,0,0,0,0,0,0,0,0,0,
0,0,0,0,0,0,0,0,0,0,0,0,0,0,0,0,0,0,0,0,0,0,0,0,0,0,0,0,0,0,0,0,0,0,0,0,0,0,0,0,0,0,0,0,0,0,0,0,0,0,0,0,0,0,0,0,0,0,0,0,0,0,0,0,
0,0,0,0,0,0,0,0,0,0,0,0,0,0,0,0,0,0,0,0,0,0,0,0,0,0,0,0,0,0,0,0,0,0,0,0,0,0,0,0,0,0,0,0,0,0,0,0,0,0,0,0,0,0,0,0,0,0,0,0,0,0,0,0,
0,0,0,0,0,0,0,0,0,0,0,0,0,0,0,0,0,0,0,0,0,0,0,0,0,0,0,0,0,0,0,0,0,0,0,0,0,0,0,0,0,0,0,0,0,0,0,0,0,0,0,0,0,0,0,0,0,0,0,0,0,0,0,0,
0,0,0,0,0,0,0,0,0,0,0,0,0,0,0,0,0,0,0,0,0,0,0,0,0,0,0,0,0,0,0,0,0,0,0,0,0,0,0,0,0,0,0,0,0,0,0,0,0,0,0,0,0,0,0,0,0,0,0,0,0,0,0,0,
0,0,0,0,0,0,0,0,0,0,0,0,0,0,0,0,0,0,0,0,0,0,0,0,0,0,0,0,0,0,0,0,0,0,0,0,0,0,0,0,0,0,0,0,0,0,0,0,0,0,0,0,0,0,0,0,0,0,0,0,0,0,0,0,
0,0,0,0,0,0,0,0,0,0,0,0,0,0,0,0,0,0,0,0,0,0,0,0,0,0,0,0,0,0,0,0,0,0,0,0,0,0,0,0,0,0,0,0,0,0,0,0,0,0,0,0,0,0,0,0,0,0,0,0,0,0,0,0,
0,0,0,0,0,0,0,0,0,0,0,0,0,0,0,0,0,0,0,0,0,0,0,0,0,0,0,0,0,0,0,0,0,0,0,0,0,0,0,0,0,0,0,0,0,0,0,0,0,0,0,0,0,0,0,0,0,0,0,0,0,0,0,0,
0,0,0,0,0,0,0,0,0,0,0,0,0,0,0,0,0,0,0,0,0,0,0,0,0,0,0,0,0,0,0,0,0,0,0,0,0,0,0,0,0,0,0,0,0,0,0,0,0,0,0,0,0,0,0,0,0,0,0,0,0,0,0,0,
0,0,0,0,0,0,0,0,0,0,0,0,0,0,0,0,0,0,0,0,0,0,0,0,0,0,0,0,0,0,0,0,0,0,0,0,0,0,0,0,0,0,0,0,0,0,0,0,0,0,0,0,0,0,0,0,0,0,0,0,0,0,0,0
</data>
 </layer>
 <layer id="1" name="Capa de patrones 1" width="64" height="48">
  <data encoding="csv">
11697,11697,11697,11697,11697,11697,11697,11697,11697,11697,11697,11697,11697,11697,11697,11697,11697,11697,11697,11697,11697,11697,11697,11697,11697,11697,11697,11697,11697,11697,11697,11697,11697,11697,11697,11697,11697,11697,11697,11697,11697,11697,11697,11697,11697,11697,11697,11697,11697,11697,11697,11697,11697,11697,11697,11697,11697,11697,11697,11697,11697,11697,11697,11697,
11697,11697,11697,11697,11697,11697,11697,11697,11697,11697,11697,11697,11697,11697,11697,11697,11697,11697,11697,11697,11697,11697,11697,11697,11697,11697,11697,11697,11697,11697,11697,11697,11697,11697,11697,11697,11697,11697,11697,11697,11697,11697,11697,11697,11697,11697,11697,11697,11697,11697,11697,11697,11697,11697,11697,11697,11697,11697,11697,11697,11697,11697,11697,11697,
11697,11697,11697,11697,11697,11697,11697,11697,11697,11697,11697,11697,11697,11697,11697,11697,11697,11697,11697,11697,11697,11697,11697,11697,11697,11697,11697,11697,11697,11697,11697,11697,11697,11697,11697,11697,11697,11697,11697,11697,11697,11697,11697,11697,11697,11697,11697,11697,11697,11697,11697,11697,11697,11697,11697,11697,11697,11697,11697,11697,11697,11697,11697,11697,
11697,11697,11697,11697,11697,11697,11697,11697,11697,11697,11697,11697,11697,11697,11697,11697,11697,11697,11697,11697,11697,11697,11697,11697,11697,11697,11697,11697,11697,11697,11697,11697,11697,11697,11697,11697,11697,11697,11697,11697,11697,11697,11697,11697,11697,11697,11697,11697,11697,11697,11697,11697,11697,11697,11697,11697,11697,11697,11697,11697,11697,11697,11697,11697,
11697,11697,11697,11697,11697,11697,11697,11697,11697,11697,11697,11697,11697,11697,11697,11697,11697,11697,11697,11697,11697,11697,11697,11697,11697,11697,11697,11697,11697,11697,11697,11697,11697,11697,11697,11697,11697,11697,11697,11697,11697,11697,11697,11697,11697,11697,11697,11697,11697,11697,11697,11697,11697,11697,11697,11697,11697,11697,11697,11697,11697,11697,11697,11697,
10860,10860,10860,10860,10860,10860,10860,10860,10860,10860,10860,10860,10860,10860,10860,10860,10860,10860,10860,10860,10860,10860,10860,10860,10860,10860,10860,10860,10860,10860,10860,10860,10860,10860,10860,10860,10860,10860,10860,10860,10860,10860,10860,10860,10860,10860,10860,10860,10860,10860,10860,10860,10860,10860,10860,10860,10860,10860,10860,10860,10860,10860,10860,10860,
0,0,0,0,0,0,0,0,0,0,0,0,0,0,0,0,0,0,0,0,0,0,0,0,0,0,0,0,0,0,0,0,0,0,0,0,0,0,0,0,0,0,0,0,0,0,0,0,0,0,3317,3318,3319,3320,0,0,0,0,0,0,0,0,0,0,
0,0,0,0,0,0,0,0,0,0,0,0,0,0,0,0,0,0,0,0,0,0,0,0,0,0,0,0,0,0,0,0,0,0,0,0,0,0,0,0,0,0,0,0,0,0,0,0,0,0,3484,3485,3486,3487,0,0,0,0,0,0,0,0,0,0,
0,0,0,0,0,0,0,0,0,0,0,0,0,0,0,0,0,0,0,0,0,0,0,0,0,0,0,0,0,0,0,0,0,0,0,0,0,0,0,0,0,0,0,0,0,0,0,0,0,0,3651,3652,3653,3654,0,0,0,0,0,0,0,0,0,0,
0,0,0,0,0,0,0,0,0,0,0,0,0,0,0,0,0,0,0,0,0,0,0,0,0,0,0,0,0,0,0,0,0,0,0,0,0,0,0,0,0,0,0,0,0,0,0,0,0,0,3818,3819,3820,3821,0,0,0,0,0,0,0,0,0,0,
0,0,0,0,0,0,0,0,0,0,0,0,0,0,0,0,0,0,0,0,0,0,0,0,0,0,0,0,0,0,0,0,0,0,0,0,0,0,0,0,0,0,0,0,0,0,0,0,0,0,0,0,0,0,0,0,0,0,0,0,0,0,0,0,
0,0,0,0,0,0,0,0,0,0,0,0,0,0,0,0,0,0,0,0,0,0,0,0,0,0,0,0,0,0,0,0,0,0,0,0,0,0,0,0,0,0,0,0,0,0,0,0,0,0,0,0,0,0,0,0,0,0,0,0,0,0,0,0,
0,0,0,0,0,0,0,0,0,0,0,0,0,0,0,0,0,0,0,0,0,0,0,0,0,0,0,0,0,0,0,0,0,0,0,0,0,0,0,0,0,0,0,0,0,0,0,0,0,0,0,0,0,0,0,0,0,0,0,0,0,0,0,0,
0,0,0,0,0,0,0,0,0,0,0,0,0,0,0,0,0,0,0,0,0,0,0,0,0,0,0,0,0,0,0,0,0,0,0,0,0,0,0,0,0,0,0,0,0,0,0,0,0,0,0,30228,30229,0,0,0,0,0,0,0,0,0,0,0,
0,0,0,0,0,0,0,0,0,0,0,0,0,0,0,0,0,0,0,0,0,0,0,0,0,0,0,0,0,0,0,0,0,0,0,0,0,0,0,0,0,0,0,0,0,0,0,0,0,0,0,30230,30231,0,0,0,0,0,0,0,0,0,0,0,
0,0,0,0,0,0,0,0,0,0,0,0,0,0,0,0,0,0,0,0,0,0,0,0,0,0,0,0,0,0,0,0,0,0,0,0,0,0,0,0,0,0,0,0,0,0,0,0,0,0,0,30232,30233,0,0,0,0,0,0,0,0,0,0,0,
0,0,0,0,0,0,0,0,0,0,0,0,0,0,0,0,0,0,0,0,0,0,0,0,0,0,0,10879,11046,10699,10699,10699,10699,10699,10699,10699,10700,10699,10699,10699,10699,10700,10699,10699,10699,10699,10699,10699,10699,10699,10699,10699,10699,10699,10699,10699,10700,10699,10699,10699,10699,10700,10699,10699,
0,0,0,0,0,0,0,0,0,0,0,0,0,0,0,0,0,0,0,0,0,0,0,0,0,0,10879,11046,11213,11213,11213,11213,11213,11213,11213,11213,11213,11213,11213,11213,11213,11213,11213,11213,11213,11213,11213,11213,11213,11213,11213,11213,11213,11213,11213,11213,11213,11213,11213,11213,11213,11213,11213,11213,
0,0,0,0,0,0,0,0,0,0,0,0,0,0,0,0,0,0,0,0,0,10875,10876,10877,10878,10879,11046,11213,11380,11213,11380,11380,11380,11380,11213,11380,11380,11213,11380,11380,11380,11380,11213,11380,11380,11380,11380,11213,11380,11213,11380,11380,11380,11380,11213,11380,11380,11213,11380,11380,11380,11380,11380,11380,
0,0,0,0,0,0,0,0,0,0,0,0,0,0,0,0,0,0,0,0,0,11042,11043,11044,10879,11046,11213,11380,11380,11380,11380,11380,11380,11380,11380,11380,11380,11380,11380,11380,11380,11380,11380,11380,11380,11380,11380,11380,11380,11380,11380,11380,11380,11380,11380,11380,11380,11380,11380,11380,11380,11380,11380,11380,
0,0,0,0,0,0,0,0,0,0,0,0,0,0,0,0,0,0,0,0,0,11209,10878,10879,11046,11213,11380,11380,11380,11380,11380,11380,11380,11380,11380,11380,11380,11380,11380,11380,11380,11380,11380,11380,11380,11380,11380,11380,11380,11380,11380,11380,11380,11380,11380,11380,11380,11380,11380,11380,11380,11380,11380,11380,
0,0,0,0,0,0,0,0,0,0,0,0,0,0,0,0,0,0,0,0,0,11376,11045,11046,11213,11380,11380,11380,11380,11213,11380,11380,11380,11380,11213,11380,11380,11213,11380,11380,11380,11380,11213,11380,11380,11380,11380,11213,11380,11213,11380,11380,11380,11380,11213,11380,11380,11213,11380,11380,11380,11380,11380,11380,
0,0,0,0,0,0,0,0,0,0,0,0,0,0,0,0,0,0,0,0,0,11543,11212,11213,11380,11380,11380,11380,11380,11380,11380,11380,11380,11380,11380,11380,11380,11380,11380,11380,11380,11380,11380,11380,11380,11380,11380,11380,11380,11380,11380,11380,11380,11380,11380,11380,11380,11380,11380,11380,11380,11380,11547,11547,
10699,10699,10699,10699,10699,10699,10699,10699,10699,10699,10699,10699,10699,10699,10699,10699,10699,10699,10699,10699,10699,10699,10699,10699,10699,10699,10699,10699,10699,10699,10699,10699,10699,10699,10699,10699,10699,10699,10699,10699,10699,10699,10699,10699,10699,10699,10699,10699,10699,10699,10699,10699,10699,10699,10699,10699,10699,10699,10699,10699,10699,10699,10699,10699,
11213,11213,11213,11213,11213,11213,11213,11213,11213,11213,11213,11213,11213,11213,11213,11213,11213,11213,11213,11213,11213,11213,11213,11213,11213,11213,11213,11213,11213,11213,11213,11213,11213,11213,11213,11213,11213,11213,11213,11213,11213,11213,11213,11213,11213,11213,11213,11213,11213,11213,11213,11213,11213,11213,11213,11213,11213,11213,11213,11213,11213,11213,11213,11213,
11380,11213,11380,11380,11380,11380,11213,11380,11380,11213,11380,11380,11380,11380,11380,11213,11380,11380,11380,11380,11213,11380,11380,11213,11380,11380,11380,11380,11380,11213,11380,11380,11380,11380,11213,11380,11380,11213,11380,11380,11213,11380,11380,11380,11380,11213,11380,11380,11213,11380,11380,11213,11380,11380,11380,11380,11213,11380,11380,11213,11380,11380,11380,11380,
11380,11380,11380,11380,11380,11380,11380,11380,11380,11380,11380,11380,11380,11380,11380,11380,11380,11380,11380,11380,11380,11380,11380,11380,11380,11380,11380,11380,11380,11380,11380,11380,11380,11380,11380,11380,11380,11380,11380,11380,11380,11380,11380,11380,11380,11380,11380,11380,11380,11380,11380,11380,11380,11380,11380,11380,11380,11380,11380,11380,11380,11380,11380,11380,
11380,11380,11380,11380,11380,11380,11380,11380,11380,11380,11380,11380,11380,11380,11380,11380,11380,11380,11380,11380,11380,11380,11380,11380,11380,11380,11380,11380,11380,11380,11380,11380,11380,11380,11380,11380,11380,11380,11380,11380,11380,11380,11380,11380,11380,11380,11380,11380,11380,11380,11380,11380,11380,11380,11380,11380,11380,11380,11380,11380,11380,11380,11380,11380,
11380,11213,11380,11380,11380,11380,11213,11380,11380,11213,11380,11380,11380,11380,11380,11213,11380,11380,11380,11380,11213,11380,11380,11213,11380,11380,11380,11380,11380,11213,11380,11380,11380,11380,11213,11380,11380,11213,11380,11380,11213,11380,11380,11380,11380,11213,11380,11380,11213,11380,11380,11213,11380,11380,11380,11380,11213,11380,11380,11213,11380,11380,11380,11380,
11380,11380,11380,11380,11380,11380,11380,11380,11380,11380,11380,11380,11380,11380,11380,11380,11380,11380,11380,11380,11380,11380,11380,11380,11380,11380,11380,11380,11380,11380,11380,11380,11380,11380,11380,11380,11380,11380,11380,11380,11380,11380,11380,11380,11380,11380,11380,11380,11380,11380,11380,11380,11380,11380,11380,11380,11380,11380,11380,11380,11380,11380,11380,11380,
11380,11380,11380,11380,11380,11380,11380,11380,11380,11380,11380,11380,11380,11380,11380,11380,11380,11380,11380,11380,11380,11380,11380,11380,11380,11380,11380,11380,11380,11380,11380,11380,11380,11380,11380,11380,11380,11380,11380,11380,11380,11380,11380,11380,11380,11380,11380,11380,11380,11380,11380,11380,11380,11380,11380,11380,11380,11380,11380,11380,11380,11380,11380,11380,
11547,11547,11547,11547,11547,11547,11547,11547,11547,11547,11547,11547,11547,11547,11547,11547,11547,11547,11547,11547,11547,11547,11547,11547,11547,11547,11547,11547,11547,11547,11547,11547,11547,11547,11547,11547,11547,11547,11547,11547,11547,11547,11547,11547,11547,11547,11547,11547,11547,11547,11547,11547,11547,11547,11547,11547,11547,11547,11547,11547,11547,11547,11547,11547,
10699,10699,10699,10699,10699,10699,10699,10699,10699,10699,10699,10699,10699,10699,10699,10699,10699,10699,10699,10699,10699,10699,10699,10699,10699,10699,10699,10699,10699,10699,10699,10699,10699,10699,10699,10699,10699,10699,10699,10699,10699,10699,10699,10699,10699,10699,10699,10699,10699,10699,10699,10699,10699,10699,10699,10699,10699,10699,10699,10699,10699,10699,10699,10699,
11697,11697,11697,11697,11697,11697,11697,11697,11697,11697,11697,11697,11697,11697,11697,11697,11697,11697,11697,11697,11697,11697,11697,11697,11697,11697,11697,11697,11697,11697,11697,11697,11697,11697,11697,11697,11697,11697,11697,11697,11697,11697,11697,11697,11697,11697,11697,11697,11697,11697,11697,11697,11697,11697,11697,11697,11697,11697,11697,11697,11697,11697,11697,11697,
11697,11697,11697,11697,11697,11697,11697,11697,11697,11697,11697,11697,11697,11697,11697,11697,11697,11697,11697,11697,11697,11697,11697,11697,11697,11697,11697,11697,11697,11697,11697,11697,11697,11697,11697,11697,11697,11697,11697,11697,11697,11697,11697,11697,11697,11697,11697,11697,11697,11697,11697,11697,11697,11697,11697,11697,11697,11697,11697,11697,11697,11697,11697,11697,
11697,11697,11697,11697,11697,11697,11697,11697,11697,11697,11697,11697,11697,11697,11697,11697,11697,11697,11697,11697,11697,11697,11697,11697,11697,11697,11697,11697,11697,11697,11697,11697,11697,11697,11697,11697,11697,11697,11697,11697,11697,11697,11697,11697,11697,11697,11697,11697,11697,11697,11697,11697,11697,11697,11697,11697,11697,11697,11697,11697,11697,11697,11697,11697,
11697,11697,11697,11697,11697,11697,11697,11697,11697,11697,11697,11697,11697,11697,11697,11697,11697,11697,11697,11697,11697,11697,11697,11697,11697,11697,11697,11697,11697,11697,11697,11697,11697,11697,11697,11697,11697,11697,11697,11697,11697,11697,11697,11697,11697,11697,11697,11697,11697,11697,11697,11697,11697,11697,11697,11697,11697,11697,11697,11697,11697,11697,11697,11697,
11697,11697,11697,11697,11697,11697,11697,11697,11697,11697,11697,11697,11697,11697,11697,11697,11697,11697,11697,11697,11697,11697,11697,11697,11697,11697,11697,11697,11697,11697,11697,11697,11697,11697,11697,11697,11697,11697,11697,11697,11697,11697,11697,11697,11697,11697,11697,11697,11697,11697,11697,11697,11697,11697,11697,11697,11697,11697,11697,11697,11697,11697,11697,11697,
11697,11697,11697,11697,11697,11697,11697,11697,11697,11697,11697,11697,11697,11697,11697,11697,11697,11697,11697,11697,11697,11697,11697,11697,11697,11697,11697,11697,11697,11697,11697,11697,11697,11697,11697,11697,11697,11697,11697,11697,11697,11697,11697,11697,11697,11697,11697,11697,11697,11697,11697,11697,11697,11697,11697,11697,11697,11697,11697,11697,11697,11697,11697,11697,
11697,11697,11697,11697,11697,11697,11697,11697,11697,11697,11697,11697,11697,11697,11697,11697,11697,11697,11697,11697,11697,11697,11697,11697,11697,11697,11697,11697,11697,11697,11697,11697,11697,11697,11697,11697,11697,11697,11697,11697,11697,11697,11697,11697,11697,11697,11697,11697,11697,11697,11697,11697,11697,11697,11697,11697,11697,11697,11697,11697,11697,11697,11697,11697,
11697,11697,11697,11697,11697,11697,11697,11697,11697,11697,11697,11697,11697,11697,11697,11697,11697,11697,11697,11697,11697,11697,11697,11697,11697,11697,11697,11697,11697,11697,11697,11697,11697,11697,11697,11697,11697,11697,11697,11697,11697,11697,11697,11697,11697,11697,11697,11697,11697,11697,11697,11697,11697,11697,11697,11697,11697,11697,11697,11697,11697,11697,11697,11697,
11697,11697,11697,11697,11697,11697,11697,11697,11697,11697,11697,11697,11697,11697,11697,11697,11697,11697,11697,11697,11697,11697,11697,11697,11697,11697,11697,11697,11697,11697,11697,11697,11697,11697,11697,11697,11697,11697,11697,11697,11697,11697,11697,11697,11697,11697,11697,11697,11697,11697,11697,11697,11697,11697,11697,11697,11697,11697,11697,11697,11697,11697,11697,11697,
11697,11697,11697,11697,11697,11697,11697,11697,11697,11697,11697,11697,11697,11697,11697,11697,11697,11697,11697,11697,11697,11697,11697,11697,11697,11697,11697,11697,11697,11697,11697,11697,11697,11697,11697,11697,11697,11697,11697,11697,11697,11697,11697,11697,11697,11697,11697,11697,11697,11697,11697,11697,11697,11697,11697,11697,11697,11697,11697,11697,11697,11697,11697,11697,
11697,11697,11697,11697,11697,11697,11697,11697,11697,11697,11697,11697,11697,11697,11697,11697,11697,11697,11697,11697,11697,11697,11697,11697,11697,11697,11697,11697,11697,11697,11697,11697,11697,11697,11697,11697,11697,11697,11697,11697,11697,11697,11697,11697,11697,11697,11697,11697,11697,11697,11697,11697,11697,11697,11697,11697,11697,11697,11697,11697,11697,11697,11697,11697,
11697,11697,11697,11697,11697,11697,11697,11697,11697,11697,11697,11697,11697,11697,11697,11697,11697,11697,11697,11697,11697,11697,11697,11697,11697,11697,11697,11697,11697,11697,11697,11697,11697,11697,11697,11697,11697,11697,11697,11697,11697,11697,11697,11697,11697,11697,11697,11697,11697,11697,11697,11697,11697,11697,11697,11697,11697,11697,11697,11697,11697,11697,11697,11697,
11697,11697,11697,11697,11697,11697,11697,11697,11697,11697,11697,11697,11697,11697,11697,11697,11697,11697,11697,11697,11697,11697,11697,11697,11697,11697,11697,11697,11697,11697,11697,11697,11697,11697,11697,11697,11697,11697,11697,11697,11697,11697,11697,11697,11697,11697,11697,11697,11697,11697,11697,11697,11697,11697,11697,11697,11697,11697,11697,11697,11697,11697,11697,11697,
11697,11697,11697,11697,11697,11697,11697,11697,11697,11697,11697,11697,11697,11697,11697,11697,11697,11697,11697,11697,11697,11697,11697,11697,11697,11697,11697,11697,11697,11697,11697,11697,11697,11697,11697,11697,11697,11697,11697,11697,11697,11697,11697,11697,11697,11697,11697,11697,11697,11697,11697,11697,11697,11697,11697,11697,11697,11697,11697,11697,11697,11697,11697,11697,
11697,11697,11697,11697,11697,11697,11697,11697,11697,11697,11697,11697,11697,11697,11697,11697,11697,11697,11697,11697,11697,11697,11697,11697,11697,11697,11697,11697,11697,11697,11697,11697,11697,11697,11697,11697,11697,11697,11697,11697,11697,11697,11697,11697,11697,11697,11697,11697,11697,11697,11697,11697,11697,11697,11697,11697,11697,11697,11697,11697,11697,11697,11697,11697
</data>
 </layer>
 <objectgroup id="4" name="colisiones">
  <object id="1" x="-1" y="368" width="910" height="18"/>
  <object id="2" x="344.75" y="363.5" width="24.5" height="4.25"/>
  <object id="3" x="348" y="359.75" width="24" height="3.5"/>
  <object id="4" x="351.75" y="355.75" width="24.25" height="3.75"/>
  <object id="6" x="355.5" y="351.5" width="27.5" height="4"/>
  <object id="7" x="360" y="347.75" width="24.25" height="4"/>
  <object id="8" x="364" y="343.5" width="22.25" height="4.25"/>
  <object id="9" x="368" y="339.5" width="21" height="4"/>
  <object id="10" x="372" y="336.25" width="22.5" height="3"/>
  <object id="11" x="375.5" y="331.5" width="24.75" height="4.5"/>
  <object id="12" x="380" y="327.5" width="21.375" height="4.125"/>
  <object id="13" x="384" y="323.875" width="18.75" height="3.625"/>
  <object id="14" x="388" y="319.75" width="18" height="4"/>
  <object id="15" x="391.75" y="315.875" width="16.125" height="3.875"/>
  <object id="16" x="395.875" y="311.875" width="15.5" height="3.875"/>
  <object id="18" x="399.875" y="307.75" width="13.625" height="4.125"/>
  <object id="19" x="404" y="303.625" width="15.25" height="4"/>
  <object id="20" x="408.125" y="299.875" width="16.125" height="3.875"/>
  <object id="21" x="411.75" y="295.875" width="14.125" height="4"/>
  <object id="22" x="415.75" y="291.875" width="13.625" height="3.875"/>
  <object id="23" x="420" y="287.75" width="12.875" height="4.125"/>
  <object id="24" x="424" y="284" width="11.5" height="3.75"/>
  <object id="25" x="427.875" y="279.875" width="11.625" height="4"/>
  <object id="26" x="432" y="275.625" width="12.75" height="4.125"/>
  <object id="27" x="435.875" y="272" width="12.125" height="3.5"/>
  <object id="28" x="440.125" y="267.875" width="11.625" height="4.125"/>
  <object id="29" x="444" y="264" width="10.875" height="3.75"/>
  <object id="30" x="447.75" y="259.75" width="12.5" height="4.375"/>
  <object id="31" x="452.667" y="254" width="571.333" height="18"/>
 </objectgroup>
</map>
