<?xml version="1.0" encoding="UTF-8"?>
<map version="1.10" tiledversion="1.11.2" orientation="orthogonal" renderorder="right-down" width="64" height="48" tilewidth="16" tileheight="16" infinite="0" nextlayerid="5" nextobjectid="63">
 <tileset firstgid="1" source="castle_interior.tsx"/>
 <layer id="2" name="pared" width="64" height="48">
  <data encoding="csv">
0,0,0,0,0,0,0,0,0,0,0,0,0,0,0,0,0,0,0,0,0,0,0,0,0,0,0,0,0,0,0,0,0,0,0,0,0,0,0,0,0,0,0,0,0,0,0,0,0,0,0,0,0,0,0,0,0,0,0,0,0,0,0,0,
0,0,0,0,0,0,0,0,0,0,0,0,0,0,0,0,0,0,0,0,0,0,0,0,0,0,0,0,0,0,0,0,0,0,0,0,0,0,0,0,0,0,0,0,0,0,0,0,0,0,0,0,0,0,0,0,0,0,0,0,0,0,0,0,
0,0,0,0,0,0,0,0,0,0,0,0,0,0,0,0,0,0,0,0,0,0,0,0,0,0,0,0,0,0,0,0,0,0,0,0,0,0,0,0,0,0,0,0,0,0,0,0,0,0,0,0,0,0,0,0,0,0,0,0,0,0,0,0,
0,0,0,0,0,0,0,0,0,0,0,0,0,0,0,0,0,0,0,0,0,0,0,0,0,0,0,0,0,0,0,0,0,0,0,0,0,0,0,0,0,0,0,0,0,0,0,0,0,0,0,0,0,0,0,0,0,0,0,0,0,0,0,0,
0,0,0,0,0,0,0,0,0,0,0,0,0,0,0,0,0,0,0,0,0,0,0,0,0,0,0,0,0,0,0,0,0,0,0,0,0,0,0,0,0,0,0,0,0,0,0,0,0,0,0,0,0,0,0,0,0,0,0,0,0,0,0,0,
0,0,0,0,0,0,0,0,0,0,0,0,0,0,0,0,0,0,0,0,0,0,0,0,0,0,0,0,0,0,0,0,0,0,0,0,0,0,0,0,0,0,0,0,0,0,0,0,0,0,0,0,0,0,0,0,0,0,0,0,0,0,0,0,
11372,11372,11372,11372,11372,11372,11372,11372,11372,11372,11372,11372,11372,11372,11372,11372,11372,11372,11372,11372,11372,11372,11372,11372,11372,11372,11372,11372,11372,11372,11372,11372,11372,11372,11372,11372,11372,11372,11372,11372,11372,11372,11372,11372,11372,11372,11372,11372,11372,11372,11372,11372,11372,11372,11372,11372,11372,11372,11372,11372,11372,11372,11372,11372,
11372,11372,11372,11372,11372,11372,11372,11372,11372,11372,11372,11372,11372,11372,11372,11372,11372,11372,11372,11372,11372,11372,11372,11372,11372,11372,11372,11372,11372,11372,11372,11372,11372,11372,11372,11372,11372,11372,11372,11372,11372,11372,11372,11372,11372,11372,11372,11372,11372,11372,11372,11372,11372,11372,11372,11372,11372,11372,11372,11372,11372,11372,11372,11372,
11372,11372,11372,11372,11372,11372,11372,11372,11372,11372,11372,11372,11372,11372,11372,11372,11372,11372,11372,11372,11372,11372,11372,11372,11372,11372,11372,11372,11372,11372,11372,11372,11372,11372,11372,11372,11372,11372,11372,11372,11372,11372,11372,11372,11372,11372,11372,11372,11372,11372,11372,11372,11372,11372,11372,11372,11372,11372,11372,11372,11372,11372,11372,11372,
11372,11372,11372,11372,11372,11372,11372,11372,11372,11372,11372,11372,11372,11372,11372,11372,11372,11372,11372,11372,11372,11372,11372,11372,11372,11372,11372,11372,11372,11372,11372,11372,11372,11372,11372,11372,11372,11372,11372,11372,11372,11372,11372,11372,11372,11372,11372,11372,11372,11372,11372,11372,11372,11372,11372,11372,11372,11372,11372,11372,11372,11372,11372,11372,
11372,11372,11372,11372,11372,11372,11372,11372,11372,11372,11372,11372,11372,11372,11372,11372,11372,11372,11372,11372,11372,11372,11372,11372,11372,11372,11372,11372,11372,11372,11372,11372,11372,11372,11372,11372,11372,11372,11372,11372,11372,11372,11372,11372,11372,11372,11372,11372,11372,11372,11372,11372,11372,11372,11372,11372,11372,11372,11372,11372,11372,11372,11372,11372,
11372,11372,11372,11372,11372,11372,11372,11372,11372,11372,11372,11372,11372,11372,11372,11372,11372,11372,11372,11372,11372,11372,11372,11372,11372,11372,11372,11372,11372,11372,11372,11372,11372,11372,11372,11372,11372,11372,11372,11372,11372,11372,11372,11372,11372,11372,11372,11372,11372,11372,11372,11372,11372,11372,11372,11372,11372,11372,11372,11372,11372,11372,11372,11372,
11372,11372,11372,11372,11372,11372,11372,11372,11372,11372,11372,11372,11372,11372,11372,11372,11372,11372,11372,11372,11372,11372,11372,11372,11372,11372,11372,11372,11372,11372,11372,11372,11372,11372,11372,11372,11372,11372,11372,11372,11372,11372,11372,11372,11372,11372,11372,11372,11372,11372,11372,11372,11372,11372,11372,11372,11372,11372,11372,11372,11372,11372,11372,11372,
11372,11372,11372,11372,11372,11372,11372,11372,11372,11372,11372,11372,11372,11372,11372,11372,11372,11372,11372,11372,11372,11372,11372,11372,11372,11372,11372,11372,11372,11372,11372,11372,11372,11372,11372,11372,11372,11372,11372,11372,11372,11372,11372,11372,11372,11372,11372,11372,11372,11372,11372,11372,11372,11372,11372,11372,11372,11372,11372,11372,11372,11372,11372,11372,
11372,11372,11372,11372,11372,11372,11372,11372,11372,11372,11372,11372,11372,11372,11372,11372,11372,11372,11372,11372,11372,11372,11372,11372,11372,11372,11372,11372,11372,11372,11372,11372,11372,11372,11372,11372,11372,11372,11372,11372,11372,11372,11372,11372,11372,11372,11372,11372,11372,11372,11372,11372,11372,11372,11372,11372,11372,11372,11372,11372,11372,11372,11372,11372,
11372,11372,11372,11372,11372,11372,11372,11372,11372,11372,11372,11372,11372,11372,11372,11372,11372,11372,11372,11372,11372,11372,11372,11372,11372,11372,11372,11372,11372,11372,11372,11372,11372,11372,11372,11372,11372,11372,11372,11372,11372,11372,11372,11372,11372,11372,11372,11372,11372,11372,11372,11372,11372,11372,11372,11372,11372,11372,11372,11372,11372,11372,11372,11372,
11372,11372,11372,11372,11372,11372,11372,11372,11372,11372,11372,11372,11372,11372,11372,11372,11372,11372,11372,11372,11372,11372,11372,11372,11372,11372,11372,11372,11372,11372,11372,11372,11372,11372,11372,11372,11372,11372,11372,11372,11372,11372,11372,11372,11372,11372,11372,11372,11372,11372,11372,11372,11372,11372,11372,11372,11372,11372,11372,11372,11372,11372,11372,11372,
11372,11372,11372,11372,11372,11372,11372,11372,11372,11372,11372,11372,11372,11372,11372,11372,11372,11372,11372,11372,11372,11372,11372,11372,11372,11372,11372,11372,11372,11372,11372,11372,11372,11372,11372,11372,11372,11372,11372,11372,11372,11372,11372,11372,11372,11372,11372,11372,11372,11372,11372,11372,11372,11372,11372,11372,11372,11372,11372,11372,11372,11372,11372,11372,
11372,11372,11372,11372,11372,11372,11372,11372,11372,11372,11372,11372,11372,11372,11372,11372,11372,11372,11372,11372,11372,11372,11372,11372,11372,11372,11372,11372,11372,11372,11372,11372,11372,11372,11372,11372,11372,11372,11372,11372,11372,11372,11372,11372,11372,11372,11372,11372,11372,11372,11372,11372,11372,11372,11372,11372,11372,11372,11372,11372,11372,11372,11372,11372,
11372,11372,11372,11372,11372,11372,11372,11372,11372,11372,11372,11372,11372,11372,11372,11372,11372,11372,11372,11372,11372,11372,11372,11372,11372,11372,11372,11372,11372,11372,11372,11372,11372,11372,11372,11372,11372,11372,11372,11372,11372,11372,11372,11372,11372,11372,11372,11372,11372,11372,11372,11372,11372,11372,11372,11372,11372,11372,11372,11372,11372,11372,11372,11372,
11372,11372,11372,11372,11372,11372,11372,11372,11372,11372,11372,11372,11372,11372,11372,11372,11372,11372,11372,11372,11372,11372,11372,11372,11372,11372,11372,11372,11372,11372,11372,11372,11372,11372,11372,11372,11372,11372,11372,11372,11372,11372,11372,11372,11372,11372,11372,11372,11372,11372,11372,11372,11372,11372,11372,11372,11372,11372,11372,11372,11372,11372,11372,11372,
11372,11372,11372,11372,11372,11372,11372,11372,11372,11372,11372,11372,11372,11372,11372,11372,11372,11372,11372,11372,11372,11372,11372,11372,11372,11372,11372,11372,11372,11372,11372,11372,11372,11372,11372,11372,11372,11372,11372,11372,11372,11372,11372,11372,11372,11372,11372,11372,11372,11372,11372,11372,11372,11372,11372,11372,11372,11372,11372,11372,11372,11372,11372,11372,
11372,11372,11372,11372,11372,11372,11372,11372,11372,11372,11372,11372,11372,11372,11372,11372,11372,11372,11372,11372,11372,11372,11372,11372,11372,11372,11372,11372,11372,11372,11372,11372,11372,11372,11372,11372,11372,11372,11372,11372,11372,11372,11372,11372,11372,11372,11372,11372,11372,11372,11372,11372,11372,11372,11372,11372,11372,11372,11372,11372,11372,11372,11372,11372,
11372,11372,11372,11372,11372,11372,11372,11372,11372,11372,11372,11372,11372,11372,11372,11372,11372,11372,11372,11372,11372,11372,11372,11372,11372,11372,11372,11372,11372,11372,11372,11372,11372,11372,11372,11372,11372,11372,11372,11372,11372,11372,11372,11372,11372,11372,11372,11372,11372,11372,11372,11372,11372,11372,11372,11372,11372,11372,11372,11372,11372,11372,11372,11372,
11372,11372,11372,11372,11372,11372,11372,11372,11372,11372,11372,11372,11372,11372,11372,11372,11372,11372,11372,11372,11372,11372,11372,11372,11372,11372,11372,11372,11372,11372,11372,11372,11372,11372,11372,11372,11372,11372,11372,11372,11372,11372,11372,11372,11372,11372,11372,11372,11372,11372,11372,11372,11372,11372,11372,11372,11372,11372,11372,11372,11372,11372,11372,11372,
11372,11372,11372,11372,11372,11372,11372,11372,11372,11372,11372,11372,11372,11372,11372,11372,11372,11372,11372,11372,11372,11372,11372,11372,11372,11372,11372,11372,11372,11372,11372,11372,11372,11372,11372,11372,11372,11372,11372,11372,11372,11372,11372,11372,11372,11372,11372,11372,11372,11372,11372,11372,11372,11372,11372,11372,11372,11372,11372,11372,11372,11372,11372,11372,
11372,11372,11372,11372,11372,11372,11372,11372,11372,11372,11372,11372,11372,11372,11372,11372,11372,11372,11372,11372,11372,11372,11372,11372,11372,11372,11372,11372,11372,11372,11372,11372,11372,11372,11372,11372,11372,11372,11372,11372,11372,11372,11372,11372,11372,11372,11372,11372,11372,11372,11372,11372,11372,11372,11372,11372,11372,11372,11372,11372,11372,11372,11372,11372,
11372,11372,11372,11372,11372,11372,11372,11372,11372,11372,11372,11372,11372,11372,11372,11372,11372,11372,11372,11372,11372,11372,11372,11372,11372,11372,11372,11372,11372,11372,11372,11372,11372,11372,11372,11372,11372,11372,11372,11372,11372,11372,11372,11372,11372,11372,11372,11372,11372,11372,11372,11372,11372,11372,11372,11372,11372,11372,11372,11372,11372,11372,11372,11372,
11372,11372,11372,11372,11372,11372,11372,11372,11372,11372,11372,11372,11372,11372,11372,11372,11372,11372,11372,11372,11372,11372,11372,11372,11372,11372,11372,11372,11372,11372,11372,11372,11372,11372,11372,11372,11372,11372,11372,11372,11372,11372,11372,11372,11372,11372,11372,11372,11372,11372,11372,11372,11372,11372,11372,11372,11372,11372,11372,11372,11372,11372,11372,11372,
11372,11372,11372,11372,11372,11372,11372,11372,11372,11372,11372,11372,11372,11372,11372,11372,11372,11372,11372,11372,11372,11372,11372,11372,11372,11372,11372,11372,11372,11372,11372,11372,11372,11372,11372,11372,11372,11372,11372,11372,11372,11372,11372,11372,11372,11372,11372,11372,11372,11372,11372,11372,11372,11372,11372,11372,11372,11372,11372,11372,11372,11372,11372,11372,
11372,11372,11372,11372,11372,11372,11372,11372,11372,11372,11372,11372,11372,11372,11372,11372,11372,11372,11372,11372,11372,11372,11372,11372,11372,11372,11372,11372,11372,11372,11372,11372,11372,11372,11372,11372,11372,11372,11372,11372,11372,11372,11372,11372,11372,11372,11372,11372,11372,11372,11372,11372,11372,11372,11372,11372,11372,11372,11372,11372,11372,11372,11372,11372,
11372,11372,11372,11372,11372,11372,11372,11372,11372,11372,11372,11372,11372,11372,11372,11372,11372,11372,11372,11372,11372,11372,11372,11372,11372,11372,11372,11372,11372,11372,11372,11372,11372,11372,11372,11372,11372,11372,11372,11372,11372,11372,11372,11372,11372,11372,11372,11372,11372,11372,11372,11372,11372,11372,11372,11372,11372,11372,11372,11372,11372,11372,11372,11372,
0,0,0,0,0,0,0,0,11372,11372,11372,11372,11372,11372,11372,11372,11372,11372,11372,11372,0,0,0,0,0,0,0,0,0,0,0,0,0,0,0,0,0,0,0,0,0,0,0,0,0,0,0,0,0,0,0,0,0,0,0,0,0,0,0,0,0,0,0,0,
0,0,0,0,0,0,0,12365,12365,12365,12365,12365,12365,12365,12365,12365,12365,12365,12365,12365,0,0,0,0,0,0,0,0,0,0,0,0,0,0,0,0,0,0,0,0,0,0,0,0,0,0,0,0,0,0,0,0,0,0,0,0,0,0,0,0,0,0,0,0,
0,0,0,0,0,0,0,0,0,0,0,0,0,0,0,0,0,0,0,0,0,0,0,0,0,0,0,0,0,0,0,0,0,0,0,0,0,0,0,0,0,0,0,0,0,0,0,0,0,0,0,0,0,0,0,0,0,0,0,0,0,0,0,0,
0,0,0,0,0,0,0,0,0,0,0,0,0,0,0,0,0,0,0,0,0,0,0,0,0,0,0,0,0,0,0,0,0,0,0,0,0,0,0,0,0,0,0,0,0,0,0,0,0,0,0,0,0,0,0,0,0,0,0,0,0,0,0,0,
0,0,0,0,0,0,0,0,0,0,0,0,0,0,0,0,0,0,0,0,0,0,0,0,0,0,0,0,0,0,0,0,0,0,0,0,0,0,0,0,0,0,0,0,0,0,0,0,0,0,0,0,0,0,0,0,0,0,0,0,0,0,0,0,
0,0,0,0,0,0,0,0,0,0,0,0,0,0,0,0,0,0,0,0,0,0,0,0,0,0,0,0,0,0,0,0,0,0,0,0,0,0,0,0,0,0,0,0,0,0,0,0,0,0,0,0,0,0,0,0,0,0,0,0,0,0,0,0,
0,0,0,0,0,0,0,0,0,0,0,0,0,0,0,0,0,0,0,0,0,0,0,0,0,0,0,0,0,0,0,0,0,0,0,0,0,0,0,0,0,0,0,0,0,0,0,0,0,0,0,0,0,0,0,0,0,0,0,0,0,0,0,0,
0,0,0,0,0,0,0,0,0,0,0,0,0,0,0,0,0,0,0,0,0,0,0,0,0,0,0,0,0,0,0,0,0,0,0,0,0,0,0,0,0,0,0,0,0,0,0,0,0,0,0,0,0,0,0,0,0,0,0,0,0,0,0,0,
0,0,0,0,0,0,0,0,0,0,0,0,0,0,0,0,0,0,0,0,0,0,0,0,0,0,0,0,0,0,0,0,0,0,0,0,0,0,0,0,0,0,0,0,0,0,0,0,0,0,0,0,0,0,0,0,0,0,0,0,0,0,0,0,
0,0,0,0,0,0,0,0,0,0,0,0,0,0,0,0,0,0,0,0,0,0,0,0,0,0,0,0,0,0,0,0,0,0,0,0,0,0,0,0,0,0,0,0,0,0,0,0,0,0,0,0,0,0,0,0,0,0,0,0,0,0,0,0,
0,0,0,0,0,0,0,0,0,0,0,0,0,0,0,0,0,0,0,0,0,0,0,0,0,0,0,0,0,0,0,0,0,0,0,0,0,0,0,0,0,0,0,0,0,0,0,0,0,0,0,0,0,0,0,0,0,0,0,0,0,0,0,0,
0,0,0,0,0,0,0,0,0,0,0,0,0,0,0,0,0,0,0,0,0,0,0,0,0,0,0,0,0,0,0,0,0,0,0,0,0,0,0,0,0,0,0,0,0,0,0,0,0,0,0,0,0,0,0,0,0,0,0,0,0,0,0,0,
0,0,0,0,0,0,0,0,0,0,0,0,0,0,0,0,0,0,0,0,0,0,0,0,0,0,0,0,0,0,0,0,0,0,0,0,0,0,0,0,0,0,0,0,0,0,0,0,0,0,0,0,0,0,0,0,0,0,0,0,0,0,0,0,
0,0,0,0,0,0,0,0,0,0,0,0,0,0,0,0,0,0,0,0,0,0,0,0,0,0,0,0,0,0,0,0,0,0,0,0,0,0,0,0,0,0,0,0,0,0,0,0,0,0,0,0,0,0,0,0,0,0,0,0,0,0,0,0,
0,0,0,0,0,0,0,0,0,0,0,0,0,0,0,0,0,0,0,0,0,0,0,0,0,0,0,0,0,0,0,0,0,0,0,0,0,0,0,0,0,0,0,0,0,0,0,0,0,0,0,0,0,0,0,0,0,0,0,0,0,0,0,0,
0,0,0,0,0,0,0,0,0,0,0,0,0,0,0,0,0,0,0,0,0,0,0,0,0,0,0,0,0,0,0,0,0,0,0,0,0,0,0,0,0,0,0,0,0,0,0,0,0,0,0,0,0,0,0,0,0,0,0,0,0,0,0,0
</data>
 </layer>
 <objectgroup id="4" name="colisiones">
  <object id="2" x="0" y="512" width="127.038" height="17.3233"/>
  <object id="3" x="318.556" y="512.962" width="352.241" height="17.3233"/>
  <object id="9" x="73" y="507.875" width="49" height="3.75"/>
  <object id="10" x="75.875" y="503.75" width="50" height="3.75"/>
  <object id="11" x="79.75" y="499.75" width="50.875" height="3.625"/>
  <object id="12" x="83.875" y="495.625" width="50.5" height="4.125"/>
  <object id="13" x="88.125" y="492.125" width="49.375" height="3.5"/>
  <object id="15" x="88.125" y="491.875" width="51.125" height="3.75"/>
  <object id="16" x="91.875" y="487.875" width="48.75" height="3.625"/>
  <object id="17" x="96" y="483.75" width="45.375" height="4.125"/>
  <object id="18" x="100.333" y="479.333" width="247" height="5"/>
  <object id="19" x="315.727" y="483.818" width="36" height="4.27273"/>
  <object id="20" x="315.364" y="488" width="40.3636" height="3.90909"/>
  <object id="21" x="315.364" y="491.727" width="44.4545" height="4.09091"/>
  <object id="22" x="315.364" y="495.818" width="48.5455" height="4.27273"/>
  <object id="23" x="316.818" y="499.818" width="51.1818" height="3.72727"/>
  <object id="24" x="322.273" y="503.909" width="49.5455" height="3.90909"/>
  <object id="25" x="323.091" y="507.818" width="52.6364" height="3.81818"/>
  <object id="26" x="664.625" y="507.5" width="27.5" height="4.25"/>
  <object id="27" x="668" y="503.625" width="31.75" height="3.75"/>
  <object id="28" x="671.875" y="499.75" width="30.25" height="3.875"/>
  <object id="29" x="675.875" y="495.875" width="30.875" height="3.75"/>
  <object id="30" x="680" y="492" width="28.625" height="3.9375"/>
  <object id="31" x="683.875" y="487.875" width="26.1875" height="4"/>
  <object id="32" x="688" y="483.875" width="26.25" height="3.9375"/>
  <object id="33" x="692.063" y="479.875" width="27.5" height="4.0625"/>
  <object id="34" x="696.063" y="475.688" width="25.75" height="4.125"/>
  <object id="35" x="700.125" y="472" width="26.375" height="3.625"/>
  <object id="36" x="703.938" y="468.063" width="25.3125" height="3.8125"/>
  <object id="37" x="708" y="463.938" width="24.625" height="3.9375"/>
  <object id="38" x="712" y="459.938" width="26.5625" height="3.875"/>
  <object id="39" x="716.063" y="455.813" width="28" height="3.9375"/>
  <object id="40" x="720" y="452.063" width="30.5" height="3.625"/>
  <object id="42" x="723.875" y="447.938" width="22.875" height="3.875"/>
  <object id="43" x="728.063" y="443.813" width="22.9375" height="4.125"/>
  <object id="44" x="732" y="439.938" width="22.25" height="3.75"/>
  <object id="45" x="735.875" y="435.75" width="22.125" height="3.875"/>
  <object id="46" x="740.063" y="431.938" width="21.9375" height="3.625"/>
  <object id="47" x="743.938" y="428" width="21.1875" height="3.9375"/>
  <object id="48" x="748" y="423.813" width="20.8125" height="4.1875"/>
  <object id="49" x="752" y="419.938" width="19.1875" height="3.8125"/>
  <object id="50" x="755.875" y="416.063" width="20.375" height="3.6875"/>
  <object id="51" x="760" y="411.875" width="20.0625" height="4"/>
  <object id="52" x="763.75" y="407.813" width="22.125" height="4.125"/>
  <object id="53" x="768.188" y="403.938" width="19.25" height="3.75"/>
  <object id="54" x="771.875" y="400" width="17.9375" height="3.9375"/>
  <object id="55" x="775.813" y="395.938" width="16.1875" height="4"/>
  <object id="56" x="779.875" y="391.938" width="15.25" height="4"/>
  <object id="57" x="783.938" y="388.125" width="17.0625" height="3.875"/>
  <object id="58" x="788.063" y="383.875" width="16.6875" height="4.3125"/>
  <object id="59" x="792.125" y="379.938" width="15.125" height="3.9375"/>
  <object id="60" x="795.75" y="375.875" width="19.75" height="4.1875"/>
  <object id="61" x="799.875" y="371.813" width="22.1875" height="4"/>
  <object id="62" x="804.25" y="367.5" width="220" height="4.5"/>
 </objectgroup>
 <layer id="3" name="objetos_fondo" width="64" height="48">
  <data encoding="csv">
0,0,0,0,0,0,0,0,0,0,0,0,0,0,0,0,0,0,0,0,0,0,0,0,0,0,0,0,0,0,0,0,0,0,0,0,0,0,0,0,0,0,0,0,0,0,0,0,0,0,0,0,0,0,0,0,0,0,0,0,0,0,0,0,
0,0,0,0,0,0,0,0,0,0,0,0,0,0,0,0,0,0,0,0,0,0,0,0,0,0,0,0,0,0,0,0,0,0,0,0,0,0,0,0,0,0,0,0,0,0,0,0,0,0,0,0,0,0,0,0,0,0,0,0,0,0,0,0,
0,0,0,0,0,0,0,0,0,0,0,0,0,0,0,0,0,0,0,0,0,0,0,0,0,0,0,0,0,0,0,0,0,0,0,0,0,0,0,0,0,0,0,0,0,0,0,0,0,0,0,0,0,0,0,0,0,0,0,0,0,0,0,0,
0,0,0,0,0,0,0,0,0,0,0,0,0,0,0,0,0,0,0,0,0,0,0,0,0,0,0,0,0,0,0,0,0,0,0,0,0,0,0,0,0,0,0,0,0,0,0,0,0,0,0,0,0,0,0,0,0,0,0,0,0,0,0,0,
0,0,0,0,0,0,0,0,0,0,0,0,0,0,0,0,0,0,0,0,0,0,0,0,0,0,0,0,0,0,0,0,0,0,0,0,0,0,0,0,0,0,0,0,0,0,0,0,0,0,0,0,0,0,0,0,0,0,0,0,0,0,0,0,
0,0,0,0,0,0,0,0,0,0,0,0,0,0,0,0,0,0,0,0,0,0,0,0,0,0,0,0,0,0,0,0,0,0,0,0,0,0,0,0,0,0,0,0,0,0,0,0,0,0,0,0,0,0,0,0,0,0,0,0,0,0,0,0,
0,0,0,0,0,0,0,0,0,0,0,0,0,0,0,0,0,0,0,0,0,0,0,0,0,0,0,0,0,0,0,0,0,0,0,0,0,0,0,0,0,0,0,0,0,0,0,0,0,0,0,0,0,0,0,0,0,0,0,0,0,0,0,0,
0,0,0,0,0,0,0,0,0,0,0,0,0,0,0,0,0,0,0,0,0,0,0,0,0,0,0,0,0,0,0,0,0,0,0,0,0,0,0,0,0,0,0,0,0,0,0,0,0,0,0,0,0,0,0,0,0,0,0,0,0,0,0,0,
0,0,0,0,0,0,0,0,0,0,0,0,0,0,0,0,0,0,0,0,0,0,0,0,0,0,0,0,0,0,0,0,0,0,0,0,0,0,0,0,0,0,0,0,0,0,0,0,0,0,0,0,0,0,0,0,0,0,0,0,0,0,0,0,
0,0,0,0,0,0,0,0,0,0,0,0,0,0,0,0,0,0,0,0,0,0,0,0,0,0,0,0,0,0,0,0,0,0,0,0,0,0,0,0,0,0,0,0,0,0,0,0,0,0,0,0,0,0,0,0,0,0,0,0,0,0,0,0,
0,0,0,0,0,0,0,0,0,0,0,0,0,0,0,0,0,0,0,0,0,0,0,0,0,0,0,0,0,0,0,0,0,0,0,0,0,0,0,0,0,0,0,0,0,0,0,0,0,0,0,0,0,0,0,0,0,0,0,0,0,0,0,0,
0,0,0,0,0,0,0,0,0,0,0,0,0,0,0,0,0,0,0,0,0,0,0,0,0,0,0,0,0,0,0,0,0,0,0,0,0,0,0,0,0,0,0,0,0,0,0,0,0,0,0,0,0,0,0,0,0,0,0,0,0,0,0,0,
0,0,0,0,0,0,0,0,0,0,0,0,0,0,0,0,0,0,0,0,0,0,0,0,0,0,0,0,0,0,0,0,0,0,0,0,0,0,0,0,0,0,0,0,0,0,0,0,0,0,0,0,0,0,0,0,0,0,0,0,0,0,0,0,
0,0,0,0,0,0,0,0,0,0,0,0,0,0,0,0,0,0,0,0,0,0,0,0,0,0,0,0,0,0,0,0,0,0,0,0,0,0,0,0,0,0,0,0,0,0,0,0,0,0,0,0,0,0,0,0,0,0,0,0,0,0,0,0,
0,0,0,0,0,0,0,0,0,0,0,0,0,0,0,0,0,0,0,0,0,0,0,0,0,0,0,0,0,0,0,0,0,0,0,0,0,0,0,0,0,0,0,0,0,0,0,0,0,0,0,0,0,0,0,0,0,0,0,0,0,0,0,0,
0,0,0,0,0,0,0,0,0,0,0,0,0,0,0,0,0,0,0,0,0,0,0,0,0,0,0,0,0,0,0,0,0,0,0,0,0,0,0,0,0,0,0,0,0,0,0,0,0,0,0,0,0,0,0,0,0,0,0,0,0,0,0,0,
0,0,0,0,0,0,0,0,0,0,0,0,0,0,0,0,0,0,0,0,0,0,0,0,0,0,0,0,0,0,0,0,0,0,0,0,0,0,0,0,0,0,0,0,0,0,0,0,0,0,0,0,0,0,0,0,0,0,0,0,0,0,0,0,
0,0,0,0,0,0,0,0,0,0,0,0,0,0,0,0,0,0,0,0,0,0,0,0,0,0,0,0,0,0,0,0,0,0,0,0,0,0,0,0,0,0,0,0,0,0,0,0,0,0,0,0,0,0,0,0,0,0,0,0,0,0,0,0,
0,0,0,0,0,0,0,0,0,0,0,0,0,0,0,0,0,0,0,0,0,0,0,0,0,0,0,0,0,0,0,0,0,0,0,0,0,0,0,0,0,0,0,0,0,0,0,0,0,0,0,0,0,0,0,0,0,0,0,0,0,0,0,0,
0,0,0,0,0,0,0,0,0,0,0,0,0,0,0,0,0,0,0,0,0,0,0,0,0,0,0,0,0,0,0,0,0,0,0,0,0,0,0,0,0,0,0,0,0,0,0,0,0,0,0,0,20291,20292,20293,20294,20295,0,0,0,0,0,0,0,
0,0,0,0,0,0,0,0,0,0,0,0,0,0,0,0,0,0,0,0,0,0,0,0,0,0,0,0,0,0,0,0,0,0,0,0,0,0,0,0,0,0,0,0,0,0,0,0,0,0,0,0,20458,20459,20460,20461,20462,0,0,0,0,0,0,0,
0,0,0,0,0,0,0,0,0,0,0,0,0,0,0,0,0,0,0,0,0,0,0,0,0,0,0,0,0,0,0,0,0,0,0,0,0,0,0,0,0,0,0,0,0,0,0,0,0,0,0,0,20625,20626,20627,20628,20629,0,0,0,0,0,0,0,
0,0,0,0,0,0,0,0,0,0,0,0,0,0,0,0,0,0,0,0,0,0,0,0,0,0,0,0,0,0,0,0,0,0,0,0,0,0,0,0,0,0,0,0,0,0,0,0,0,0,0,0,20792,20793,20794,20795,20796,0,0,0,0,0,0,0,
0,0,0,0,0,0,0,0,0,0,0,0,0,0,0,0,0,0,0,0,0,0,0,0,0,0,0,0,0,0,0,0,0,0,0,0,0,0,0,0,0,0,0,0,0,0,0,0,0,0,0,0,0,0,0,0,0,0,0,0,0,0,0,0,
0,0,0,0,0,0,0,0,0,0,0,0,0,0,0,0,0,0,0,0,0,0,0,0,0,0,0,0,0,0,0,0,0,0,0,0,0,0,0,0,0,0,0,0,0,0,0,0,0,0,0,0,0,0,0,0,0,0,0,0,0,0,0,0,
0,0,0,0,0,0,0,0,0,0,0,0,0,0,0,0,0,0,0,0,0,0,0,0,0,0,0,0,0,0,0,0,0,0,0,0,0,0,0,0,0,0,0,0,0,0,0,0,0,0,0,0,0,0,0,0,0,0,0,0,0,0,0,0,
0,0,0,0,0,0,0,0,0,0,0,0,0,0,0,0,0,0,0,0,0,0,0,0,0,0,0,0,0,0,0,0,0,0,0,0,0,0,0,0,0,0,0,0,0,0,0,0,0,0,0,0,0,0,0,0,0,0,0,0,0,0,0,0,
0,0,0,0,0,0,0,0,0,0,0,0,0,0,0,0,0,0,0,0,0,0,0,0,0,0,0,0,0,0,0,0,0,0,0,0,0,0,0,0,0,0,0,0,0,0,0,0,0,0,0,0,0,0,0,0,0,0,0,0,0,0,0,0,
0,0,0,0,0,0,0,0,0,0,0,0,0,0,0,0,0,0,0,0,0,0,0,0,0,0,0,0,0,0,0,0,0,0,0,0,0,0,0,0,0,0,0,0,0,0,0,0,0,0,0,0,0,0,0,0,0,0,0,0,0,0,0,0,
0,0,0,0,0,0,0,0,0,0,0,0,0,0,0,0,0,0,0,0,0,0,0,0,0,0,0,0,0,0,0,0,0,0,0,0,0,0,0,0,0,0,0,0,0,0,0,0,0,0,0,0,0,0,0,0,0,0,0,0,0,0,0,0,
0,0,0,0,0,0,0,0,0,0,0,0,0,0,0,0,0,0,0,0,0,0,0,0,0,0,0,0,0,0,0,0,0,0,0,0,0,0,0,0,0,0,0,0,0,0,0,0,0,0,0,0,0,0,0,0,0,0,0,0,0,0,0,0,
0,0,0,0,0,0,0,0,0,0,0,0,0,0,0,0,0,0,10867,0,0,0,0,0,0,0,0,0,0,0,0,0,0,0,0,0,0,0,0,0,0,0,0,0,0,0,0,0,0,0,0,0,0,0,0,0,0,0,0,0,0,0,0,0,
0,0,0,0,0,0,0,0,0,0,0,0,0,0,0,0,0,0,0,0,0,0,0,0,0,0,0,0,0,0,0,0,0,0,0,0,0,0,0,0,0,0,0,0,0,0,0,0,0,0,0,0,0,0,0,0,0,0,0,0,0,0,0,0,
0,0,0,0,0,0,0,0,0,0,0,0,0,0,0,0,0,0,0,0,0,0,0,0,0,0,0,0,0,0,0,0,0,0,0,0,0,0,0,0,0,0,0,0,0,0,0,0,0,0,0,0,0,0,0,0,0,0,0,0,0,0,0,0,
0,0,0,0,0,0,0,0,0,0,0,0,0,0,0,0,0,0,0,0,0,0,0,0,0,0,0,0,0,0,0,0,0,0,0,0,0,0,0,0,0,0,0,0,0,0,0,0,0,0,0,0,0,0,0,0,0,0,0,0,0,0,0,0,
0,0,0,0,0,0,0,0,0,0,0,0,0,0,0,0,0,0,0,0,0,0,0,0,0,0,0,0,0,0,0,0,0,0,0,0,0,0,0,0,0,0,0,0,0,0,0,0,0,0,0,0,0,0,0,0,0,0,0,0,0,0,0,0,
0,0,0,0,0,0,0,0,0,0,0,0,0,0,0,0,0,0,0,0,0,0,0,0,0,0,0,0,0,0,0,0,0,0,0,0,0,0,0,0,0,0,0,0,0,0,0,0,0,0,0,0,0,0,0,0,0,0,0,0,0,0,0,0,
0,0,0,0,0,0,0,0,0,0,0,0,0,0,0,0,0,0,0,0,0,0,0,0,0,0,0,0,0,0,0,0,0,0,0,0,0,0,0,0,0,0,0,0,0,0,0,0,0,0,0,0,0,0,0,0,0,0,0,0,0,0,0,0,
0,0,0,0,0,0,0,0,0,0,0,0,0,0,0,0,0,0,0,0,0,0,0,0,0,0,0,0,0,0,0,0,0,0,0,0,0,0,0,0,0,0,0,0,0,0,0,0,0,0,0,0,0,0,0,0,0,0,0,0,0,0,0,0,
0,0,0,0,0,0,0,0,0,0,0,0,0,0,0,0,0,0,0,0,0,0,0,0,0,0,0,0,0,0,0,0,0,0,0,0,0,0,0,0,0,0,0,0,0,0,0,0,0,0,0,0,0,0,0,0,0,0,0,0,0,0,0,0,
0,0,0,0,0,0,0,0,0,0,0,0,0,0,0,0,0,0,0,0,0,0,0,0,0,0,0,0,0,0,0,0,0,0,0,0,0,0,0,0,0,0,0,0,0,0,0,0,0,0,0,0,0,0,0,0,0,0,0,0,0,0,0,0,
0,0,0,0,0,0,0,0,0,0,0,0,0,0,0,0,0,0,0,0,0,0,0,0,0,0,0,0,0,0,0,0,0,0,0,0,0,0,0,0,0,0,0,0,0,0,0,0,0,0,0,0,0,0,0,0,0,0,0,0,0,0,0,0,
0,0,0,0,0,0,0,0,0,0,0,0,0,0,0,0,0,0,0,0,0,0,0,0,0,0,0,0,0,0,0,0,0,0,0,0,0,0,0,0,0,0,0,0,0,0,0,0,0,0,0,0,0,0,0,0,0,0,0,0,0,0,0,0,
0,0,0,0,0,0,0,0,0,0,0,0,0,0,0,0,0,0,0,0,0,0,0,0,0,0,0,0,0,0,0,0,0,0,0,0,0,0,0,0,0,0,0,0,0,0,0,0,0,0,0,0,0,0,0,0,0,0,0,0,0,0,0,0,
0,0,0,0,0,0,0,0,0,0,0,0,0,0,0,0,0,0,0,0,0,0,0,0,0,0,0,0,0,0,0,0,0,0,0,0,0,0,0,0,0,0,0,0,0,0,0,0,0,0,0,0,0,0,0,0,0,0,0,0,0,0,0,0,
0,0,0,0,0,0,0,0,0,0,0,0,0,0,0,0,0,0,0,0,0,0,0,0,0,0,0,0,0,0,0,0,0,0,0,0,0,0,0,0,0,0,0,0,0,0,0,0,0,0,0,0,0,0,0,0,0,0,0,0,0,0,0,0,
0,0,0,0,0,0,0,0,0,0,0,0,0,0,0,0,0,0,0,0,0,0,0,0,0,0,0,0,0,0,0,0,0,0,0,0,0,0,0,0,0,0,0,0,0,0,0,0,0,0,0,0,0,0,0,0,0,0,0,0,0,0,0,0,
0,0,0,0,0,0,0,0,0,0,0,0,0,0,0,0,0,0,0,0,0,0,0,0,0,0,0,0,0,0,0,0,0,0,0,0,0,0,0,0,0,0,0,0,0,0,0,0,0,0,0,0,0,0,0,0,0,0,0,0,0,0,0,0
</data>
 </layer>
 <layer id="1" name="Capa de patrones 1" width="64" height="48">
  <data encoding="csv">
11697,11697,11697,11697,11697,11697,11697,11697,11697,11697,11697,11697,11697,11697,11697,11697,11697,11697,11697,11697,11697,11697,11697,11697,11697,11697,11697,11697,11697,11697,11697,11697,11697,11697,11697,11697,11697,11697,11697,11697,11697,11697,11697,11697,11697,11697,11697,11697,11697,11697,11697,11697,11697,11697,11697,11697,11697,11697,11697,11697,11697,11697,11697,11697,
11697,11697,11697,11697,11697,11697,11697,11697,11697,11697,11697,11697,11697,11697,11697,11697,11697,11697,11697,11697,11697,11697,11697,11697,11697,11697,11697,11697,11697,11697,11697,11697,11697,11697,11697,11697,11697,11697,11697,11697,11697,11697,11697,11697,11697,11697,11697,11697,11697,11697,11697,11697,11697,11697,11697,11697,11697,11697,11697,11697,11697,11697,11697,11697,
11697,11697,11697,11697,11697,11697,11697,11697,11697,11697,11697,11697,11697,11697,11697,11697,11697,11697,11697,11697,11697,11697,11697,11697,11697,11697,11697,11697,11697,11697,11697,11697,11697,11697,11697,11697,11697,11697,11697,11697,11697,11697,11697,11697,11697,11697,11697,11697,11697,11697,11697,11697,11697,11697,11697,11697,11697,11697,11697,11697,11697,11697,11697,11697,
11697,11697,11697,11697,11697,11697,11697,11697,11697,11697,11697,11697,11697,11697,11697,11697,11697,11697,11697,11697,11697,11697,11697,11697,11697,11697,11697,11697,11697,11697,11697,11697,11697,11697,11697,11697,11697,11697,11697,11697,11697,11697,11697,11697,11697,11697,11697,11697,11697,11697,11697,11697,11697,11697,11697,11697,11697,11697,11697,11697,11697,11697,11697,11697,
11697,11697,11697,11697,11697,11697,11697,11697,11697,11697,11697,11697,11697,11697,11697,11697,11697,11697,11697,11697,11697,11697,11697,11697,11697,11697,11697,11697,11697,11697,11697,11697,11697,11697,11697,11697,11697,11697,11697,11697,11697,11697,11697,11697,11697,11697,11697,11697,11697,11697,11697,11697,11697,11697,11697,11697,11697,11697,11697,11697,11697,11697,11697,11697,
10860,10860,10860,10860,10860,10860,10860,10860,10860,10860,10860,10860,10860,10860,10860,10860,10860,10860,10860,10860,10860,10860,10860,10860,10860,10860,10860,10860,10860,10860,10860,10860,10860,10860,10860,10860,10860,10860,10860,10860,10860,10860,10860,10860,10860,10860,10860,10860,10860,10860,10860,10860,10860,10860,10860,10860,10860,10860,10860,10860,10860,10860,10860,10860,
0,0,0,0,3305,3306,3307,3308,0,0,0,0,0,0,0,0,0,0,0,0,0,0,0,0,0,3305,3306,3307,3308,0,0,0,0,0,0,0,0,0,0,0,0,0,0,0,0,0,0,3305,3306,3307,3308,0,0,0,0,0,0,0,0,0,0,0,0,0,
0,0,0,0,3472,3473,3474,3475,0,0,0,0,0,0,0,0,0,0,0,0,0,0,0,0,0,3472,3473,3474,3475,0,0,0,0,0,0,0,0,0,0,0,0,0,0,0,0,0,0,3472,3473,3474,3475,0,0,0,0,0,0,0,0,0,0,0,0,0,
0,0,0,0,3639,3640,3641,3642,0,0,0,0,0,0,0,0,0,0,0,0,0,0,0,0,0,3639,3640,3641,3642,0,0,0,0,0,0,0,0,0,0,0,0,0,0,0,0,0,0,3639,3640,3641,3642,0,0,0,0,0,0,0,0,0,0,0,0,0,
0,0,0,0,3806,3807,3808,3809,0,0,0,0,0,0,0,0,0,0,0,0,0,0,0,0,0,3806,3807,3808,3809,0,0,0,0,0,0,0,0,0,0,0,0,0,0,0,0,0,0,3806,3807,3808,3809,0,0,0,0,0,0,0,0,0,0,0,0,0,
0,0,0,0,0,0,0,0,0,0,0,0,0,0,0,0,0,0,0,0,0,0,0,0,0,0,0,0,0,0,0,0,0,0,0,0,0,0,0,0,0,0,0,0,0,0,0,0,0,0,0,0,0,0,0,0,0,0,0,0,0,0,0,0,
0,0,0,0,0,0,0,0,0,0,0,0,0,0,0,0,0,0,0,0,0,0,0,0,0,0,0,0,0,0,0,0,0,0,0,0,0,0,0,0,0,0,0,0,0,0,0,0,0,0,0,0,0,0,0,0,0,0,0,0,0,0,0,0,
0,0,0,0,0,0,0,0,0,0,0,0,0,0,0,0,0,0,0,0,0,0,0,0,0,0,0,0,0,0,0,0,0,0,0,0,0,0,0,0,0,0,0,0,0,0,0,0,0,0,0,0,0,0,0,0,0,0,0,0,0,0,0,0,
0,0,0,0,0,0,0,0,0,0,0,0,0,0,0,0,0,0,0,0,0,0,0,0,0,0,0,0,0,0,0,0,0,0,0,0,0,0,0,0,0,0,0,0,0,0,0,0,0,0,0,0,0,0,0,0,0,0,0,0,0,0,0,0,
0,0,0,0,0,0,0,0,0,0,0,0,0,0,0,0,0,0,0,0,0,0,0,0,0,0,0,0,0,0,0,0,0,0,0,0,0,0,0,0,0,0,0,0,0,0,0,0,0,0,0,0,0,0,0,0,0,0,0,0,0,0,0,0,
0,0,0,0,0,0,0,0,0,0,0,0,0,0,0,0,0,0,0,0,0,0,0,0,0,0,0,0,0,0,0,0,0,0,0,0,0,0,0,0,0,0,0,0,0,0,0,0,0,0,0,0,0,0,0,0,0,0,0,0,0,0,0,0,
0,0,0,0,0,0,0,0,0,0,0,0,0,0,0,0,0,0,0,0,0,0,0,0,0,0,0,0,0,0,0,0,0,0,0,0,0,0,0,0,0,0,0,0,0,0,0,0,0,0,0,0,0,0,0,0,0,0,0,0,0,0,0,0,
0,0,0,0,0,0,0,0,0,0,0,0,0,0,0,0,0,0,0,0,0,0,0,0,0,0,0,0,0,0,0,0,0,0,0,0,0,0,0,0,0,0,0,0,0,0,0,0,0,0,0,0,0,0,0,0,0,0,0,0,0,0,0,0,
0,0,0,0,0,0,0,0,0,0,0,22608,22609,22610,0,0,0,0,22608,22609,22610,0,0,0,0,22608,22609,22610,0,0,0,0,22608,22609,22610,0,0,0,0,22608,22609,22610,0,0,0,0,0,0,0,0,0,0,0,0,0,0,0,0,0,0,0,0,0,0,
0,0,0,0,0,0,0,0,0,0,0,22775,22776,22777,0,0,0,0,22775,22776,22777,0,0,0,0,22775,22776,22777,0,0,0,0,22775,22776,22777,0,0,0,0,22775,22776,22777,0,0,0,0,0,0,0,0,0,0,0,0,0,0,0,0,0,0,0,0,0,0,
0,0,0,0,0,0,0,0,0,0,0,22942,22943,22944,0,0,0,0,22942,22943,22944,0,0,0,0,22942,22943,22944,0,0,0,0,22942,22943,22944,0,0,0,0,22942,22943,22944,0,0,0,0,0,0,0,0,0,0,0,0,0,0,0,0,0,0,0,0,0,0,
0,0,0,0,0,0,0,0,0,0,0,23109,23110,23111,0,0,0,0,23109,23110,23111,0,0,0,0,23109,23110,23111,0,0,0,0,23109,23110,23111,0,0,0,0,23109,23110,23111,0,0,0,0,0,0,0,0,0,0,0,0,0,0,0,0,0,0,0,0,0,0,
0,0,0,0,0,0,0,0,0,0,0,0,0,0,0,0,0,0,0,0,0,0,0,0,0,0,0,0,0,0,0,0,0,0,0,0,0,0,0,0,0,0,0,0,0,0,0,0,0,0,0,0,0,0,0,0,0,0,0,0,0,0,0,0,
0,0,0,0,0,0,0,0,0,0,0,0,0,0,0,0,0,0,0,0,0,0,0,0,0,0,0,0,0,0,0,0,0,0,0,0,0,0,0,0,0,0,0,0,0,0,0,0,0,10879,11046,10699,10699,10699,10699,10699,10699,10699,10700,10699,10699,10699,10699,10700,
0,0,0,0,0,0,0,0,0,0,0,0,0,0,0,0,0,0,0,0,0,0,0,0,0,0,0,0,0,0,0,0,0,0,0,0,0,0,0,0,0,0,0,0,0,0,0,0,10879,11046,11213,11213,11213,11213,11213,11213,11213,11213,11213,11213,11213,11213,11213,11213,
0,0,0,0,0,0,0,0,0,0,0,0,0,0,0,0,0,0,0,0,0,0,0,0,0,0,0,0,0,0,0,0,0,0,0,0,0,0,0,0,0,0,0,0,0,0,0,10879,11046,11213,11380,11213,11380,11380,11380,11380,11213,11380,11380,11213,11380,11380,11380,11380,
0,0,0,0,0,0,0,0,0,0,0,0,0,0,0,0,0,0,0,0,0,0,0,0,0,0,0,0,0,0,0,0,0,0,0,0,0,0,0,0,0,0,0,0,0,0,10879,11046,11213,11380,11380,11380,11380,11380,11380,11380,11380,11380,11380,11380,11380,11380,11380,11380,
0,0,0,0,0,0,0,0,0,0,0,0,0,0,0,0,0,0,0,0,0,0,0,0,0,0,0,0,0,0,0,0,0,0,0,0,0,0,0,0,0,10875,10876,10877,10878,10879,11046,11213,11380,11380,11380,11380,11380,11380,11380,11380,11380,11380,11380,11380,11380,11380,11380,11380,
0,0,0,0,0,0,0,0,0,0,0,0,0,0,0,0,0,0,0,0,0,0,0,0,0,0,0,0,0,0,0,0,0,0,0,0,0,0,0,0,0,11042,11043,11044,11045,11046,11213,11380,11380,11380,11380,11213,11380,11380,11380,11380,11213,11380,11380,11213,11380,11380,11380,11380,
0,0,0,0,0,0,0,0,0,0,0,0,0,0,0,0,0,0,0,0,0,0,0,0,0,0,0,0,0,0,0,0,0,0,0,0,0,0,0,0,0,11209,11210,11211,11212,11213,11380,11380,11380,11380,11380,11380,11380,11380,11380,11380,11380,11380,11380,11380,11380,11380,11380,11380,
0,0,0,0,11376,11377,11378,10697,10698,10699,10700,10700,10700,10700,10700,10700,10700,10700,10700,10701,10702,2147495026,2147495025,2147495024,0,0,0,0,0,0,0,0,0,0,0,0,0,0,0,0,0,11376,11377,11378,11379,11380,11380,11380,11380,11380,11380,11380,11380,11380,11380,11380,11380,11380,11380,11380,11380,11380,11380,11380,
0,0,0,0,11543,11544,11545,10864,10865,10866,0,0,0,0,0,0,0,0,10867,10868,10869,2147495193,2147495192,2147495191,0,0,0,0,0,0,0,0,0,0,0,0,0,0,0,0,0,11543,11544,11545,11546,11547,11547,11547,11547,11547,11547,11547,11547,11547,11547,11547,11547,11547,11547,11547,11547,11547,11547,11547,
10699,10699,10699,10699,10699,10699,10699,10699,16983,16998,16992,16983,16998,16992,16983,16983,16992,16998,16998,16983,10699,10699,10699,10699,10699,10699,10699,10699,10699,10699,10699,10699,10699,10699,10699,10699,10699,10699,10699,10699,10699,10699,10699,10699,10699,10699,10699,10699,10699,10699,10699,10699,10699,10699,10699,10699,10699,10699,10699,10699,10699,10699,10699,10699,
11697,11697,11697,11697,11697,11697,11697,11697,17150,17165,17159,17150,17165,17159,17150,17150,17159,17165,17165,17150,11697,11697,11697,11697,11697,11697,11697,11697,11697,11697,11697,11697,11697,11697,11697,11697,11697,11697,11697,11697,11697,11697,11697,11697,11697,11697,11697,11697,11697,11697,11697,11697,11697,11697,11697,11697,11697,11697,11697,11697,11697,11697,11697,11697,
11697,11697,11697,11697,11697,11697,11697,11697,11697,11697,11697,11697,11697,11697,11697,11697,11697,11697,11697,11697,11697,11697,11697,11697,11697,11697,11697,11697,11697,11697,11697,11697,11697,11697,11697,11697,11697,11697,11697,11697,11697,11697,11697,11697,11697,11697,11697,11697,11697,11697,11697,11697,11697,11697,11697,11697,11697,11697,11697,11697,11697,11697,11697,11697,
11697,11697,11697,11697,11697,11697,11697,11697,11697,11697,11697,11697,11697,11697,11697,11697,11697,11697,11697,11697,11697,11697,11697,11697,11697,11697,11697,11697,11697,11697,11697,11697,11697,11697,11697,11697,11697,11697,11697,11697,11697,11697,11697,11697,11697,11697,11697,11697,11697,11697,11697,11697,11697,11697,11697,11697,11697,11697,11697,11697,11697,11697,11697,11697,
11697,11697,11697,11697,11697,11697,11697,11697,11697,11697,11697,11697,11697,11697,11697,11697,11697,11697,11697,11697,11697,11697,11697,11697,11697,11697,11697,11697,11697,11697,11697,11697,11697,11697,11697,11697,11697,11697,11697,11697,11697,11697,11697,11697,11697,11697,11697,11697,11697,11697,11697,11697,11697,11697,11697,11697,11697,11697,11697,11697,11697,11697,11697,11697,
11697,11697,11697,11697,11697,11697,11697,11697,11697,11697,11697,11697,11697,11697,11697,11697,11697,11697,11697,11697,11697,11697,11697,11697,11697,11697,11697,11697,11697,11697,11697,11697,11697,11697,11697,11697,11697,11697,11697,11697,11697,11697,11697,11697,11697,11697,11697,11697,11697,11697,11697,11697,11697,11697,11697,11697,11697,11697,11697,11697,11697,11697,11697,11697,
11697,11697,11697,11697,11697,11697,11697,11697,11697,11697,11697,11697,11697,11697,11697,11697,11697,11697,11697,11697,11697,11697,11697,11697,11697,11697,11697,11697,11697,11697,11697,11697,11697,11697,11697,11697,11697,11697,11697,11697,11697,11697,11697,11697,11697,11697,11697,11697,11697,11697,11697,11697,11697,11697,11697,11697,11697,11697,11697,11697,11697,11697,11697,11697,
11697,11697,11697,11697,11697,11697,11697,11697,11697,11697,11697,11697,11697,11697,11697,11697,11697,11697,11697,11697,11697,11697,11697,11697,11697,11697,11697,11697,11697,11697,11697,11697,11697,11697,11697,11697,11697,11697,11697,11697,11697,11697,11697,11697,11697,11697,11697,11697,11697,11697,11697,11697,11697,11697,11697,11697,11697,11697,11697,11697,11697,11697,11697,11697,
11697,11697,11697,11697,11697,11697,11697,11697,11697,11697,11697,11697,11697,11697,11697,11697,11697,11697,11697,11697,11697,11697,11697,11697,11697,11697,11697,11697,11697,11697,11697,11697,11697,11697,11697,11697,11697,11697,11697,11697,11697,11697,11697,11697,11697,11697,11697,11697,11697,11697,11697,11697,11697,11697,11697,11697,11697,11697,11697,11697,11697,11697,11697,11697,
11697,11697,11697,11697,11697,11697,11697,11697,11697,11697,11697,11697,11697,11697,11697,11697,11697,11697,11697,11697,11697,11697,11697,11697,11697,11697,11697,11697,11697,11697,11697,11697,11697,11697,11697,11697,11697,11697,11697,11697,11697,11697,11697,11697,11697,11697,11697,11697,11697,11697,11697,11697,11697,11697,11697,11697,11697,11697,11697,11697,11697,11697,11697,11697,
11697,11697,11697,11697,11697,11697,11697,11697,11697,11697,11697,11697,11697,11697,11697,11697,11697,11697,11697,11697,11697,11697,11697,11697,11697,11697,11697,11697,11697,11697,11697,11697,11697,11697,11697,11697,11697,11697,11697,11697,11697,11697,11697,11697,11697,11697,11697,11697,11697,11697,11697,11697,11697,11697,11697,11697,11697,11697,11697,11697,11697,11697,11697,11697,
11697,11697,11697,11697,11697,11697,11697,11697,11697,11697,11697,11697,11697,11697,11697,11697,11697,11697,11697,11697,11697,11697,11697,11697,11697,11697,11697,11697,11697,11697,11697,11697,11697,11697,11697,11697,11697,11697,11697,11697,11697,11697,11697,11697,11697,11697,11697,11697,11697,11697,11697,11697,11697,11697,11697,11697,11697,11697,11697,11697,11697,11697,11697,11697,
11697,11697,11697,11697,11697,11697,11697,11697,11697,11697,11697,11697,11697,11697,11697,11697,11697,11697,11697,11697,11697,11697,11697,11697,11697,11697,11697,11697,11697,11697,11697,11697,11697,11697,11697,11697,11697,11697,11697,11697,11697,11697,11697,11697,11697,11697,11697,11697,11697,11697,11697,11697,11697,11697,11697,11697,11697,11697,11697,11697,11697,11697,11697,11697,
11697,11697,11697,11697,11697,11697,11697,11697,11697,11697,11697,11697,11697,11697,11697,11697,11697,11697,11697,11697,11697,11697,11697,11697,11697,11697,11697,11697,11697,11697,11697,11697,11697,11697,11697,11697,11697,11697,11697,11697,11697,11697,11697,11697,11697,11697,11697,11697,11697,11697,11697,11697,11697,11697,11697,11697,11697,11697,11697,11697,11697,11697,11697,11697,
11697,11697,11697,11697,11697,11697,11697,11697,11697,11697,11697,11697,11697,11697,11697,11697,11697,11697,11697,11697,11697,11697,11697,11697,11697,11697,11697,11697,11697,11697,11697,11697,11697,11697,11697,11697,11697,11697,11697,11697,11697,11697,11697,11697,11697,11697,11697,11697,11697,11697,11697,11697,11697,11697,11697,11697,11697,11697,11697,11697,11697,11697,11697,11697,
11697,11697,11697,11697,11697,11697,11697,11697,11697,11697,11697,11697,11697,11697,11697,11697,11697,11697,11697,11697,11697,11697,11697,11697,11697,11697,11697,11697,11697,11697,11697,11697,11697,11697,11697,11697,11697,11697,11697,11697,11697,11697,11697,11697,11697,11697,11697,11697,11697,11697,11697,11697,11697,11697,11697,11697,11697,11697,11697,11697,11697,11697,11697,11697
</data>
 </layer>
</map>
