<?xml version="1.0" encoding="UTF-8"?>
<map version="1.10" tiledversion="1.11.2" orientation="orthogonal" renderorder="right-down" width="64" height="48" tilewidth="16" tileheight="16" infinite="0" nextlayerid="5" nextobjectid="7">
 <tileset firstgid="1" source="castle_interior.tsx"/>
 <layer id="2" name="pared" width="64" height="48">
  <data encoding="csv">
0,0,0,0,0,0,0,0,0,0,0,0,0,0,0,0,0,0,0,0,0,0,0,0,0,0,0,0,0,0,0,0,0,0,0,0,0,0,0,0,0,0,0,0,0,0,0,0,0,0,0,0,0,0,0,0,0,0,0,0,0,0,0,0,
0,0,0,0,0,0,0,0,0,0,0,0,0,0,0,0,0,0,0,0,0,0,0,0,0,0,0,0,0,0,0,0,0,0,0,0,0,0,0,0,0,0,0,0,0,0,0,0,0,0,0,0,0,0,0,0,0,0,0,0,0,0,0,0,
0,0,0,0,0,0,0,0,0,0,0,0,0,0,0,0,0,0,0,0,0,0,0,0,0,0,0,0,0,0,0,0,0,0,0,0,0,0,0,0,0,0,0,0,0,0,0,0,0,0,0,0,0,0,0,0,0,0,0,0,0,0,0,0,
0,0,0,0,0,0,0,0,0,0,0,0,0,0,0,0,0,0,0,0,0,0,0,0,0,0,0,0,0,0,0,0,0,0,0,0,0,0,0,0,0,0,0,0,0,0,0,0,0,0,0,0,0,0,0,0,0,0,0,0,0,0,0,0,
0,0,0,0,0,0,0,0,0,0,0,0,0,0,0,0,0,0,0,0,0,0,0,0,0,0,0,0,0,0,0,0,0,0,0,0,0,0,0,0,0,0,0,0,0,0,0,0,0,0,0,0,0,0,0,0,0,0,0,0,0,0,0,0,
0,0,0,0,0,0,0,0,0,0,0,0,0,0,0,0,0,0,0,0,0,0,0,0,0,0,0,0,0,0,0,0,0,0,0,0,0,0,0,0,0,0,0,0,0,0,0,0,0,0,0,0,0,0,0,0,0,0,0,0,0,0,0,0,
11372,11372,11372,11372,11372,11372,11372,11372,11372,11372,11372,11372,11372,11372,11372,11372,11372,11372,11372,11372,11372,11372,11372,11372,11372,11372,11372,11372,11372,11372,11372,11372,11372,11372,11372,11372,11372,11372,11372,11372,11372,11372,11372,11372,11372,11372,11372,11372,11372,11372,11372,11372,11372,11372,11372,11372,11372,11372,11372,11372,11372,11372,11372,11372,
11372,11372,11372,11372,11372,11372,11372,11372,11372,11372,11372,11372,11372,11372,11372,11372,11372,11372,11372,11372,11372,11372,11372,11372,11372,11372,11372,11372,11372,11372,11372,11372,11372,11372,11372,11372,11372,11372,11372,11372,11372,11372,11372,11372,11372,11372,11372,11372,11372,11372,11372,11372,11372,11372,11372,11372,11372,11372,11372,11372,11372,11372,11372,11372,
11372,11372,11372,11372,11372,11372,11372,11372,11372,11372,11372,11372,11372,11372,11372,11372,11372,11372,11372,11372,11372,11372,11372,11372,11372,11372,11372,11372,11372,11372,11372,11372,11372,11372,11372,11372,11372,11372,11372,11372,11372,11372,11372,11372,11372,11372,11372,11372,11372,11372,11372,11372,11372,11372,11372,11372,11372,11372,11372,11372,11372,11372,11372,11372,
11372,11372,11372,11372,11372,11372,11372,11372,11372,11372,11372,11372,11372,11372,11372,11372,11372,11372,11372,11372,11372,11372,11372,11372,11372,11372,11372,11372,11372,11372,11372,11372,11372,11372,11372,11372,11372,11372,11372,11372,11372,11372,11372,11372,11372,11372,11372,11372,11372,11372,11372,11372,11372,11372,11372,11372,11372,11372,11372,11372,11372,11372,11372,11372,
11372,11372,11372,11372,11372,11372,11372,11372,11372,11372,11372,11372,11372,11372,11372,11372,11372,11372,11372,11372,11372,11372,11372,11372,11372,11372,11372,11372,11372,11372,11372,11372,11372,11372,11372,11372,11372,11372,11372,11372,11372,11372,11372,11372,11372,11372,11372,11372,11372,11372,11372,11372,11372,11372,11372,11372,11372,11372,11372,11372,11372,11372,11372,11372,
11372,11372,11372,11372,11372,11372,11372,11372,11372,11372,11372,11372,11372,11372,11372,11372,11372,11372,11372,11372,11372,11372,11372,11372,11372,11372,11372,11372,11372,11372,11372,11372,11372,11372,11372,11372,11372,11372,11372,11372,11372,11372,11372,11372,11372,11372,11372,11372,11372,11372,11372,11372,11372,11372,11372,11372,11372,11372,11372,11372,11372,11372,11372,11372,
11372,11372,11372,11372,11372,11372,11372,11372,11372,11372,11372,11372,11372,11372,11372,11372,11372,11372,11372,11372,11372,11372,11372,11372,11372,11372,11372,11372,11372,11372,11372,11372,11372,11372,11372,11372,11372,11372,11372,11372,11372,11372,11372,11372,11372,11372,11372,11372,11372,11372,11372,11372,11372,11372,11372,11372,11372,11372,11372,11372,11372,11372,11372,11372,
11372,11372,11372,11372,11372,11372,11372,11372,11372,11372,11372,11372,11372,11372,11372,11372,11372,11372,11372,11372,11372,11372,11372,11372,11372,11372,11372,11372,11372,11372,11372,11372,11372,11372,11372,11372,11372,11372,11372,11372,11372,11372,11372,11372,11372,11372,11372,11372,11372,11372,11372,11372,11372,11372,11372,11372,11372,11372,11372,11372,11372,11372,11372,11372,
11372,11372,11372,11372,11372,11372,11372,11372,11372,11372,11372,11372,11372,11372,11372,11372,11372,11372,11372,11372,11372,11372,11372,11372,11372,11372,11372,11372,11372,11372,11372,11372,11372,11372,11372,11372,11372,11372,11372,11372,11372,11372,11372,11372,11372,11372,11372,11372,11372,11372,11372,11372,11372,11372,11372,11372,11372,11372,11372,11372,11372,11372,11372,11372,
11372,11372,11372,11372,11372,11372,11372,11372,11372,11372,11372,11372,11372,11372,11372,11372,11372,11372,11372,11372,11372,11372,11372,11372,11372,11372,11372,11372,11372,11372,11372,11372,11372,11372,11372,11372,11372,11372,11372,11372,11372,11372,11372,11372,11372,11372,11372,11372,11372,11372,11372,11372,11372,11372,11372,11372,11372,11372,11372,11372,11372,11372,11372,11372,
11372,11372,11372,11372,11372,11372,11372,11372,11372,11372,11372,11372,11372,11372,11372,11372,11372,11372,11372,11372,11372,11372,11372,11372,11372,11372,11372,11372,11372,11372,11372,11372,11372,11372,11372,11372,11372,11372,11372,11372,11372,11372,11372,11372,11372,11372,11372,11372,11372,11372,11372,11372,11372,11372,11372,11372,11372,11372,11372,11372,11372,11372,11372,11372,
11372,11372,11372,11372,11372,11372,11372,11372,11372,11372,11372,11372,11372,11372,11372,11372,11372,11372,11372,11372,11372,11372,11372,11372,11372,11372,11372,11372,11372,11372,11372,11372,11372,11372,11372,11372,11372,11372,11372,11372,11372,11372,11372,11372,11372,11372,11372,11372,11372,11372,11372,11372,11372,11372,11372,11372,11372,11372,11372,11372,11372,11372,11372,11372,
11372,11372,11372,11372,11372,11372,11372,11372,11372,11372,11372,11372,11372,11372,11372,11372,11372,11372,11372,11372,11372,11372,11372,11372,11372,11372,11372,11372,11372,11372,11372,11372,11372,11372,11372,11372,11372,11372,11372,11372,11372,11372,11372,11372,11372,11372,11372,11372,11372,11372,11372,11372,11372,11372,11372,11372,11372,11372,11372,11372,11372,11372,11372,11372,
11372,11372,11372,11372,11372,11372,11372,11372,11372,11372,11372,11372,11372,11372,11372,11372,11372,11372,11372,11372,11372,11372,11372,11372,11372,11372,11372,11372,11372,11372,11372,11372,11372,11372,11372,11372,11372,11372,11372,11372,11372,11372,11372,11372,11372,11372,11372,11372,11372,11372,11372,11372,11372,11372,11372,11372,11372,11372,11372,11372,11372,11372,11372,11372,
11372,11372,11372,11372,11372,11372,11372,11372,11372,11372,11372,11372,11372,11372,11372,11372,11372,11372,11372,11372,11372,11372,11372,11372,11372,11372,11372,11372,11372,11372,11372,11372,11372,11372,11372,11372,11372,11372,11372,11372,11372,11372,11372,11372,11372,11372,11372,11372,11372,11372,11372,11372,11372,11372,11372,11372,11372,11372,11372,11372,11372,11372,11372,11372,
11372,11372,11372,11372,11372,11372,11372,11372,11372,11372,11372,11372,11372,11372,11372,11372,11372,11372,11372,11372,11372,11372,11372,11372,11372,11372,11372,11372,11372,11372,11372,11372,11372,11372,11372,11372,11372,11372,11372,11372,11372,11372,11372,11372,11372,11372,11372,11372,11372,11372,11372,11372,11372,11372,11372,11372,11372,11372,11372,11372,11372,11372,11372,11372,
11372,11372,11372,11372,11372,11372,11372,11372,11372,11372,11372,11372,11372,11372,11372,11372,11372,11372,11372,11372,11372,11372,11372,11372,11372,11372,11372,11372,11372,11372,11372,11372,11372,11372,11372,11372,11372,11372,11372,11372,11372,11372,11372,11372,11372,11372,11372,11372,11372,11372,11372,11372,11372,11372,11372,11372,11372,11372,11372,11372,11372,11372,11372,11372,
11372,11372,11372,11372,11372,11372,11372,11372,11372,11372,11372,11372,11372,11372,11372,11372,11372,11372,11372,11372,11372,11372,11372,11372,11372,11372,11372,11372,11372,11372,11372,11372,11372,11372,11372,11372,11372,11372,11372,11372,11372,11372,11372,11372,11372,11372,11372,11372,11372,11372,11372,11372,11372,11372,11372,11372,11372,11372,11372,11372,11372,11372,11372,11372,
11372,11372,11372,11372,11372,11372,11372,11372,11372,11372,11372,11372,11372,11372,11372,11372,11372,11372,11372,11372,11372,11372,11372,11372,11372,11372,11372,11372,11372,11372,11372,11372,11372,11372,11372,11372,11372,11372,11372,11372,11372,11372,11372,11372,11372,11372,11372,11372,11372,11372,11372,11372,11372,11372,11372,11372,11372,11372,11372,11372,11372,11372,11372,11372,
11372,11372,11372,11372,11372,11372,11372,11372,11372,11372,11372,11372,11372,11372,11372,11372,11372,11372,11372,11372,11372,11372,11372,11372,11372,11372,11372,11372,11372,11372,11372,11372,11372,11372,11372,11372,11372,11372,11372,11372,11372,11372,11372,11372,11372,11372,11372,11372,11372,11372,11372,11372,11372,11372,11372,11372,11372,11372,11372,11372,11372,11372,11372,11372,
11372,11372,11372,11372,11372,11372,11372,11372,11372,11372,11372,11372,11372,11372,11372,11372,11372,11372,11372,11372,11372,11372,11372,11372,11372,11372,11372,11372,11372,11372,11372,11372,11372,11372,11372,11372,11372,11372,11372,11372,11372,11372,11372,11372,11372,11372,11372,11372,11372,11372,11372,11372,11372,11372,11372,11372,11372,11372,11372,11372,11372,11372,11372,11372,
11372,11372,11372,11372,11372,11372,11372,11372,11372,11372,11372,11372,11372,11372,11372,11372,11372,11372,11372,11372,11372,11372,11372,11372,11372,11372,11372,11372,11372,11372,11372,11372,11372,11372,11372,11372,11372,11372,11372,11372,11372,11372,11372,11372,11372,11372,11372,11372,11372,11372,11372,11372,11372,11372,11372,11372,11372,11372,11372,11372,11372,11372,11372,11372,
11372,11372,11372,11372,11372,11372,11372,11372,11372,11372,11372,11372,11372,11372,11372,11372,11372,11372,11372,11372,11372,11372,11372,11372,11372,11372,11372,11372,11372,11372,11372,11372,11372,11372,11372,11372,11372,11372,11372,11372,11372,11372,11372,11372,11372,11372,11372,11372,11372,11372,11372,11372,11372,11372,11372,11372,11372,11372,11372,11372,11372,11372,11372,11372,
11372,11372,11372,11372,11372,11372,11372,11372,11372,11372,11372,11372,11372,11372,11372,11372,11372,11372,11372,11372,11372,11372,11372,11372,11372,11372,11372,11372,11372,11372,11372,11372,11372,11372,11372,11372,11372,11372,11372,11372,11372,11372,11372,11372,11372,11372,11372,11372,11372,11372,11372,11372,11372,11372,11372,11372,11372,11372,11372,11372,11372,11372,11372,11372,
11372,11372,11372,11372,11372,11372,11372,11372,11372,11372,11372,11372,11372,11372,11372,11372,11372,11372,11372,11372,11372,11372,11372,11372,11372,11372,11372,11372,11372,11372,11372,11372,11372,11372,11372,11372,11372,11372,11372,11372,11372,11372,11372,11372,11372,11372,11372,11372,11372,11372,11372,11372,11372,11372,11372,11372,11372,11372,11372,11372,11372,11372,11372,11372,
11372,11372,11372,11372,11372,11372,11372,11372,11372,11372,11372,11372,11372,11372,11372,11372,11372,11372,11372,11372,11372,11372,11372,11372,11372,11372,11372,11372,11372,11372,11372,11372,11372,11372,11372,11372,11372,11372,11372,11372,11372,11372,11372,11372,11372,11372,11372,11372,11372,11372,11372,11372,11372,11372,11372,11372,11372,11372,11372,11372,11372,11372,11372,11372,
0,0,0,0,0,0,0,0,11372,11372,11372,11372,11372,11372,11372,11372,11372,11372,11372,11372,0,0,0,0,0,0,0,0,0,0,0,0,0,0,0,0,0,0,0,0,0,0,0,0,0,0,0,0,0,0,0,0,0,0,0,0,0,0,0,0,0,0,0,0,
0,0,0,0,0,0,0,12365,12365,12365,12365,12365,12365,12365,12365,12365,12365,12365,12365,12365,0,0,0,0,0,0,0,0,0,0,0,0,0,0,0,0,0,0,0,0,0,0,0,0,0,0,0,0,0,0,0,0,0,0,0,0,0,0,0,0,0,0,0,0,
0,0,0,0,0,0,0,0,0,0,0,0,0,0,0,0,0,0,0,0,0,0,0,0,0,0,0,0,0,0,0,0,0,0,0,0,0,0,0,0,0,0,0,0,0,0,0,0,0,0,0,0,0,0,0,0,0,0,0,0,0,0,0,0,
0,0,0,0,0,0,0,0,0,0,0,0,0,0,0,0,0,0,0,0,0,0,0,0,0,0,0,0,0,0,0,0,0,0,0,0,0,0,0,0,0,0,0,0,0,0,0,0,0,0,0,0,0,0,0,0,0,0,0,0,0,0,0,0,
0,0,0,0,0,0,0,0,0,0,0,0,0,0,0,0,0,0,0,0,0,0,0,0,0,0,0,0,0,0,0,0,0,0,0,0,0,0,0,0,0,0,0,0,0,0,0,0,0,0,0,0,0,0,0,0,0,0,0,0,0,0,0,0,
0,0,0,0,0,0,0,0,0,0,0,0,0,0,0,0,0,0,0,0,0,0,0,0,0,0,0,0,0,0,0,0,0,0,0,0,0,0,0,0,0,0,0,0,0,0,0,0,0,0,0,0,0,0,0,0,0,0,0,0,0,0,0,0,
0,0,0,0,0,0,0,0,0,0,0,0,0,0,0,0,0,0,0,0,0,0,0,0,0,0,0,0,0,0,0,0,0,0,0,0,0,0,0,0,0,0,0,0,0,0,0,0,0,0,0,0,0,0,0,0,0,0,0,0,0,0,0,0,
0,0,0,0,0,0,0,0,0,0,0,0,0,0,0,0,0,0,0,0,0,0,0,0,0,0,0,0,0,0,0,0,0,0,0,0,0,0,0,0,0,0,0,0,0,0,0,0,0,0,0,0,0,0,0,0,0,0,0,0,0,0,0,0,
0,0,0,0,0,0,0,0,0,0,0,0,0,0,0,0,0,0,0,0,0,0,0,0,0,0,0,0,0,0,0,0,0,0,0,0,0,0,0,0,0,0,0,0,0,0,0,0,0,0,0,0,0,0,0,0,0,0,0,0,0,0,0,0,
0,0,0,0,0,0,0,0,0,0,0,0,0,0,0,0,0,0,0,0,0,0,0,0,0,0,0,0,0,0,0,0,0,0,0,0,0,0,0,0,0,0,0,0,0,0,0,0,0,0,0,0,0,0,0,0,0,0,0,0,0,0,0,0,
0,0,0,0,0,0,0,0,0,0,0,0,0,0,0,0,0,0,0,0,0,0,0,0,0,0,0,0,0,0,0,0,0,0,0,0,0,0,0,0,0,0,0,0,0,0,0,0,0,0,0,0,0,0,0,0,0,0,0,0,0,0,0,0,
0,0,0,0,0,0,0,0,0,0,0,0,0,0,0,0,0,0,0,0,0,0,0,0,0,0,0,0,0,0,0,0,0,0,0,0,0,0,0,0,0,0,0,0,0,0,0,0,0,0,0,0,0,0,0,0,0,0,0,0,0,0,0,0,
0,0,0,0,0,0,0,0,0,0,0,0,0,0,0,0,0,0,0,0,0,0,0,0,0,0,0,0,0,0,0,0,0,0,0,0,0,0,0,0,0,0,0,0,0,0,0,0,0,0,0,0,0,0,0,0,0,0,0,0,0,0,0,0,
0,0,0,0,0,0,0,0,0,0,0,0,0,0,0,0,0,0,0,0,0,0,0,0,0,0,0,0,0,0,0,0,0,0,0,0,0,0,0,0,0,0,0,0,0,0,0,0,0,0,0,0,0,0,0,0,0,0,0,0,0,0,0,0,
0,0,0,0,0,0,0,0,0,0,0,0,0,0,0,0,0,0,0,0,0,0,0,0,0,0,0,0,0,0,0,0,0,0,0,0,0,0,0,0,0,0,0,0,0,0,0,0,0,0,0,0,0,0,0,0,0,0,0,0,0,0,0,0,
0,0,0,0,0,0,0,0,0,0,0,0,0,0,0,0,0,0,0,0,0,0,0,0,0,0,0,0,0,0,0,0,0,0,0,0,0,0,0,0,0,0,0,0,0,0,0,0,0,0,0,0,0,0,0,0,0,0,0,0,0,0,0,0
</data>
 </layer>
 <objectgroup id="4" name="colisiones">
  <object id="2" x="1.92481" y="512" width="127.038" height="17.3233"/>
  <object id="3" x="321.444" y="510.075" width="352.241" height="17.3233"/>
  <object id="5" x="674.585" y="510.055">
   <polygon points="-3.7877,-2.86703 135.41,-139.529 349.415,-138.573 347.521,-3.8227"/>
  </object>
  <object id="6" x="74.1053" y="510.075">
   <polygon points="0,0 28.8722,-28.8722 263.699,-27.9098 292.571,-0.962406 248.301,-0.962406 233.865,-13.4737 58.7068,-13.4737 46.1955,0.962406"/>
  </object>
 </objectgroup>
 <layer id="3" name="objetos_fondo" width="64" height="48">
  <data encoding="csv">
0,0,0,0,0,0,0,0,0,0,0,0,0,0,0,0,0,0,0,0,0,0,0,0,0,0,0,0,0,0,0,0,0,0,0,0,0,0,0,0,0,0,0,0,0,0,0,0,0,0,0,0,0,0,0,0,0,0,0,0,0,0,0,0,
0,0,0,0,0,0,0,0,0,0,0,0,0,0,0,0,0,0,0,0,0,0,0,0,0,0,0,0,0,0,0,0,0,0,0,0,0,0,0,0,0,0,0,0,0,0,0,0,0,0,0,0,0,0,0,0,0,0,0,0,0,0,0,0,
0,0,0,0,0,0,0,0,0,0,0,0,0,0,0,0,0,0,0,0,0,0,0,0,0,0,0,0,0,0,0,0,0,0,0,0,0,0,0,0,0,0,0,0,0,0,0,0,0,0,0,0,0,0,0,0,0,0,0,0,0,0,0,0,
0,0,0,0,0,0,0,0,0,0,0,0,0,0,0,0,0,0,0,0,0,0,0,0,0,0,0,0,0,0,0,0,0,0,0,0,0,0,0,0,0,0,0,0,0,0,0,0,0,0,0,0,0,0,0,0,0,0,0,0,0,0,0,0,
0,0,0,0,0,0,0,0,0,0,0,0,0,0,0,0,0,0,0,0,0,0,0,0,0,0,0,0,0,0,0,0,0,0,0,0,0,0,0,0,0,0,0,0,0,0,0,0,0,0,0,0,0,0,0,0,0,0,0,0,0,0,0,0,
0,0,0,0,0,0,0,0,0,0,0,0,0,0,0,0,0,0,0,0,0,0,0,0,0,0,0,0,0,0,0,0,0,0,0,0,0,0,0,0,0,0,0,0,0,0,0,0,0,0,0,0,0,0,0,0,0,0,0,0,0,0,0,0,
0,0,0,0,0,0,0,0,0,0,0,0,0,0,0,0,0,0,0,0,0,0,0,0,0,0,0,0,0,0,0,0,0,0,0,0,0,0,0,0,0,0,0,0,0,0,0,0,0,0,0,0,0,0,0,0,0,0,0,0,0,0,0,0,
0,0,0,0,0,0,0,0,0,0,0,0,0,0,0,0,0,0,0,0,0,0,0,0,0,0,0,0,0,0,0,0,0,0,0,0,0,0,0,0,0,0,0,0,0,0,0,0,0,0,0,0,0,0,0,0,0,0,0,0,0,0,0,0,
0,0,0,0,0,0,0,0,0,0,0,0,0,0,0,0,0,0,0,0,0,0,0,0,0,0,0,0,0,0,0,0,0,0,0,0,0,0,0,0,0,0,0,0,0,0,0,0,0,0,0,0,0,0,0,0,0,0,0,0,0,0,0,0,
0,0,0,0,0,0,0,0,0,0,0,0,0,0,0,0,0,0,0,0,0,0,0,0,0,0,0,0,0,0,0,0,0,0,0,0,0,0,0,0,0,0,0,0,0,0,0,0,0,0,0,0,0,0,0,0,0,0,0,0,0,0,0,0,
0,0,0,0,0,0,0,0,0,0,0,0,0,0,0,0,0,0,0,0,0,0,0,0,0,0,0,0,0,0,0,0,0,0,0,0,0,0,0,0,0,0,0,0,0,0,0,0,0,0,0,0,0,0,0,0,0,0,0,0,0,0,0,0,
0,0,0,0,0,0,0,0,0,0,0,0,0,0,0,0,0,0,0,0,0,0,0,0,0,0,0,0,0,0,0,0,0,0,0,0,0,0,0,0,0,0,0,0,0,0,0,0,0,0,0,0,0,0,0,0,0,0,0,0,0,0,0,0,
0,0,0,0,0,0,0,0,0,0,0,0,0,0,0,0,0,0,0,0,0,0,0,0,0,0,0,0,0,0,0,0,0,0,0,0,0,0,0,0,0,0,0,0,0,0,0,0,0,0,0,0,0,0,0,0,0,0,0,0,0,0,0,0,
0,0,0,0,0,0,0,0,0,0,0,0,0,0,0,0,0,0,0,0,0,0,0,0,0,0,0,0,0,0,0,0,0,0,0,0,0,0,0,0,0,0,0,0,0,0,0,0,0,0,0,0,0,0,0,0,0,0,0,0,0,0,0,0,
0,0,0,0,0,0,0,0,0,0,0,0,0,0,0,0,0,0,0,0,0,0,0,0,0,0,0,0,0,0,0,0,0,0,0,0,0,0,0,0,0,0,0,0,0,0,0,0,0,0,0,0,0,0,0,0,0,0,0,0,0,0,0,0,
0,0,0,0,0,0,0,0,0,0,0,0,0,0,0,0,0,0,0,0,0,0,0,0,0,0,0,0,0,0,0,0,0,0,0,0,0,0,0,0,0,0,0,0,0,0,0,0,0,0,0,0,0,0,0,0,0,0,0,0,0,0,0,0,
0,0,0,0,0,0,0,0,0,0,0,0,0,0,0,0,0,0,0,0,0,0,0,0,0,0,0,0,0,0,0,0,0,0,0,0,0,0,0,0,0,0,0,0,0,0,0,0,0,0,0,0,0,0,0,0,0,0,0,0,0,0,0,0,
0,0,0,0,0,0,0,0,0,0,0,0,0,0,0,0,0,0,0,0,0,0,0,0,0,0,0,0,0,0,0,0,0,0,0,0,0,0,0,0,0,0,0,0,0,0,0,0,0,0,0,0,0,0,0,0,0,0,0,0,0,0,0,0,
0,0,0,0,0,0,0,0,0,0,0,0,0,0,0,0,0,0,0,0,0,0,0,0,0,0,0,0,0,0,0,0,0,0,0,0,0,0,0,0,0,0,0,0,0,0,0,0,0,0,0,0,0,0,0,0,0,0,0,0,0,0,0,0,
0,0,0,0,0,0,0,0,0,0,0,0,0,0,0,0,0,0,0,0,0,0,0,0,0,0,0,0,0,0,0,0,0,0,0,0,0,0,0,0,0,0,0,0,0,0,0,0,0,0,0,0,20291,20292,20293,20294,20295,0,0,0,0,0,0,0,
0,0,0,0,0,0,0,0,0,0,0,0,0,0,0,0,0,0,0,0,0,0,0,0,0,0,0,0,0,0,0,0,0,0,0,0,0,0,0,0,0,0,0,0,0,0,0,0,0,0,0,0,20458,20459,20460,20461,20462,0,0,0,0,0,0,0,
0,0,0,0,0,0,0,0,0,0,0,0,0,0,0,0,0,0,0,0,0,0,0,0,0,0,0,0,0,0,0,0,0,0,0,0,0,0,0,0,0,0,0,0,0,0,0,0,0,0,0,0,20625,20626,20627,20628,20629,0,0,0,0,0,0,0,
0,0,0,0,0,0,0,0,0,0,0,0,0,0,0,0,0,0,0,0,0,0,0,0,0,0,0,0,0,0,0,0,0,0,0,0,0,0,0,0,0,0,0,0,0,0,0,0,0,0,0,0,20792,20793,20794,20795,20796,0,0,0,0,0,0,0,
0,0,0,0,0,0,0,0,0,0,0,0,0,0,0,0,0,0,0,0,0,0,0,0,0,0,0,0,0,0,0,0,0,0,0,0,0,0,0,0,0,0,0,0,0,0,0,0,0,0,0,0,0,0,0,0,0,0,0,0,0,0,0,0,
0,0,0,0,0,0,0,0,0,0,0,0,0,0,0,0,0,0,0,0,0,0,0,0,0,0,0,0,0,0,0,0,0,0,0,0,0,0,0,0,0,0,0,0,0,0,0,0,0,0,0,0,0,0,0,0,0,0,0,0,0,0,0,0,
0,0,0,0,0,0,0,0,0,0,0,0,0,0,0,0,0,0,0,0,0,0,0,0,0,0,0,0,0,0,0,0,0,0,0,0,0,0,0,0,0,0,0,0,0,0,0,0,0,0,0,0,0,0,0,0,0,0,0,0,0,0,0,0,
0,0,0,0,0,0,0,0,0,0,0,0,0,0,0,0,0,0,0,0,0,0,0,0,0,0,0,0,0,0,0,0,0,0,0,0,0,0,0,0,0,0,0,0,0,0,0,0,0,0,0,0,0,0,0,0,0,0,0,0,0,0,0,0,
0,0,0,0,0,0,0,0,0,0,0,0,0,0,0,0,0,0,0,0,0,0,0,0,0,0,0,0,0,0,0,0,0,0,0,0,0,0,0,0,0,0,0,0,0,0,0,0,0,0,0,0,0,0,0,0,0,0,0,0,0,0,0,0,
0,0,0,0,0,0,0,0,0,0,0,0,0,0,0,0,0,0,0,0,0,0,0,0,0,0,0,0,0,0,0,0,0,0,0,0,0,0,0,0,0,0,0,0,0,0,0,0,0,0,0,0,0,0,0,0,0,0,0,0,0,0,0,0,
0,0,0,0,0,0,0,0,0,0,0,0,0,0,0,0,0,0,0,0,0,0,0,0,0,0,0,0,0,0,0,0,0,0,0,0,0,0,0,0,0,0,0,0,0,0,0,0,0,0,0,0,0,0,0,0,0,0,0,0,0,0,0,0,
0,0,0,0,0,0,0,0,0,0,0,0,0,0,0,0,0,0,0,0,0,0,0,0,0,0,0,0,0,0,0,0,0,0,0,0,0,0,0,0,0,0,0,0,0,0,0,0,0,0,0,0,0,0,0,0,0,0,0,0,0,0,0,0,
0,0,0,0,0,0,0,0,0,0,0,0,0,0,0,0,0,0,10867,0,0,0,0,0,0,0,0,0,0,0,0,0,0,0,0,0,0,0,0,0,0,0,0,0,0,0,0,0,0,0,0,0,0,0,0,0,0,0,0,0,0,0,0,0,
0,0,0,0,0,0,0,0,0,0,0,0,0,0,0,0,0,0,0,0,0,0,0,0,0,0,0,0,0,0,0,0,0,0,0,0,0,0,0,0,0,0,0,0,0,0,0,0,0,0,0,0,0,0,0,0,0,0,0,0,0,0,0,0,
0,0,0,0,0,0,0,0,0,0,0,0,0,0,0,0,0,0,0,0,0,0,0,0,0,0,0,0,0,0,0,0,0,0,0,0,0,0,0,0,0,0,0,0,0,0,0,0,0,0,0,0,0,0,0,0,0,0,0,0,0,0,0,0,
0,0,0,0,0,0,0,0,0,0,0,0,0,0,0,0,0,0,0,0,0,0,0,0,0,0,0,0,0,0,0,0,0,0,0,0,0,0,0,0,0,0,0,0,0,0,0,0,0,0,0,0,0,0,0,0,0,0,0,0,0,0,0,0,
0,0,0,0,0,0,0,0,0,0,0,0,0,0,0,0,0,0,0,0,0,0,0,0,0,0,0,0,0,0,0,0,0,0,0,0,0,0,0,0,0,0,0,0,0,0,0,0,0,0,0,0,0,0,0,0,0,0,0,0,0,0,0,0,
0,0,0,0,0,0,0,0,0,0,0,0,0,0,0,0,0,0,0,0,0,0,0,0,0,0,0,0,0,0,0,0,0,0,0,0,0,0,0,0,0,0,0,0,0,0,0,0,0,0,0,0,0,0,0,0,0,0,0,0,0,0,0,0,
0,0,0,0,0,0,0,0,0,0,0,0,0,0,0,0,0,0,0,0,0,0,0,0,0,0,0,0,0,0,0,0,0,0,0,0,0,0,0,0,0,0,0,0,0,0,0,0,0,0,0,0,0,0,0,0,0,0,0,0,0,0,0,0,
0,0,0,0,0,0,0,0,0,0,0,0,0,0,0,0,0,0,0,0,0,0,0,0,0,0,0,0,0,0,0,0,0,0,0,0,0,0,0,0,0,0,0,0,0,0,0,0,0,0,0,0,0,0,0,0,0,0,0,0,0,0,0,0,
0,0,0,0,0,0,0,0,0,0,0,0,0,0,0,0,0,0,0,0,0,0,0,0,0,0,0,0,0,0,0,0,0,0,0,0,0,0,0,0,0,0,0,0,0,0,0,0,0,0,0,0,0,0,0,0,0,0,0,0,0,0,0,0,
0,0,0,0,0,0,0,0,0,0,0,0,0,0,0,0,0,0,0,0,0,0,0,0,0,0,0,0,0,0,0,0,0,0,0,0,0,0,0,0,0,0,0,0,0,0,0,0,0,0,0,0,0,0,0,0,0,0,0,0,0,0,0,0,
0,0,0,0,0,0,0,0,0,0,0,0,0,0,0,0,0,0,0,0,0,0,0,0,0,0,0,0,0,0,0,0,0,0,0,0,0,0,0,0,0,0,0,0,0,0,0,0,0,0,0,0,0,0,0,0,0,0,0,0,0,0,0,0,
0,0,0,0,0,0,0,0,0,0,0,0,0,0,0,0,0,0,0,0,0,0,0,0,0,0,0,0,0,0,0,0,0,0,0,0,0,0,0,0,0,0,0,0,0,0,0,0,0,0,0,0,0,0,0,0,0,0,0,0,0,0,0,0,
0,0,0,0,0,0,0,0,0,0,0,0,0,0,0,0,0,0,0,0,0,0,0,0,0,0,0,0,0,0,0,0,0,0,0,0,0,0,0,0,0,0,0,0,0,0,0,0,0,0,0,0,0,0,0,0,0,0,0,0,0,0,0,0,
0,0,0,0,0,0,0,0,0,0,0,0,0,0,0,0,0,0,0,0,0,0,0,0,0,0,0,0,0,0,0,0,0,0,0,0,0,0,0,0,0,0,0,0,0,0,0,0,0,0,0,0,0,0,0,0,0,0,0,0,0,0,0,0,
0,0,0,0,0,0,0,0,0,0,0,0,0,0,0,0,0,0,0,0,0,0,0,0,0,0,0,0,0,0,0,0,0,0,0,0,0,0,0,0,0,0,0,0,0,0,0,0,0,0,0,0,0,0,0,0,0,0,0,0,0,0,0,0,
0,0,0,0,0,0,0,0,0,0,0,0,0,0,0,0,0,0,0,0,0,0,0,0,0,0,0,0,0,0,0,0,0,0,0,0,0,0,0,0,0,0,0,0,0,0,0,0,0,0,0,0,0,0,0,0,0,0,0,0,0,0,0,0,
0,0,0,0,0,0,0,0,0,0,0,0,0,0,0,0,0,0,0,0,0,0,0,0,0,0,0,0,0,0,0,0,0,0,0,0,0,0,0,0,0,0,0,0,0,0,0,0,0,0,0,0,0,0,0,0,0,0,0,0,0,0,0,0
</data>
 </layer>
 <layer id="1" name="Capa de patrones 1" width="64" height="48">
  <data encoding="csv">
11697,11697,11697,11697,11697,11697,11697,11697,11697,11697,11697,11697,11697,11697,11697,11697,11697,11697,11697,11697,11697,11697,11697,11697,11697,11697,11697,11697,11697,11697,11697,11697,11697,11697,11697,11697,11697,11697,11697,11697,11697,11697,11697,11697,11697,11697,11697,11697,11697,11697,11697,11697,11697,11697,11697,11697,11697,11697,11697,11697,11697,11697,11697,11697,
11697,11697,11697,11697,11697,11697,11697,11697,11697,11697,11697,11697,11697,11697,11697,11697,11697,11697,11697,11697,11697,11697,11697,11697,11697,11697,11697,11697,11697,11697,11697,11697,11697,11697,11697,11697,11697,11697,11697,11697,11697,11697,11697,11697,11697,11697,11697,11697,11697,11697,11697,11697,11697,11697,11697,11697,11697,11697,11697,11697,11697,11697,11697,11697,
11697,11697,11697,11697,11697,11697,11697,11697,11697,11697,11697,11697,11697,11697,11697,11697,11697,11697,11697,11697,11697,11697,11697,11697,11697,11697,11697,11697,11697,11697,11697,11697,11697,11697,11697,11697,11697,11697,11697,11697,11697,11697,11697,11697,11697,11697,11697,11697,11697,11697,11697,11697,11697,11697,11697,11697,11697,11697,11697,11697,11697,11697,11697,11697,
11697,11697,11697,11697,11697,11697,11697,11697,11697,11697,11697,11697,11697,11697,11697,11697,11697,11697,11697,11697,11697,11697,11697,11697,11697,11697,11697,11697,11697,11697,11697,11697,11697,11697,11697,11697,11697,11697,11697,11697,11697,11697,11697,11697,11697,11697,11697,11697,11697,11697,11697,11697,11697,11697,11697,11697,11697,11697,11697,11697,11697,11697,11697,11697,
11697,11697,11697,11697,11697,11697,11697,11697,11697,11697,11697,11697,11697,11697,11697,11697,11697,11697,11697,11697,11697,11697,11697,11697,11697,11697,11697,11697,11697,11697,11697,11697,11697,11697,11697,11697,11697,11697,11697,11697,11697,11697,11697,11697,11697,11697,11697,11697,11697,11697,11697,11697,11697,11697,11697,11697,11697,11697,11697,11697,11697,11697,11697,11697,
10860,10860,10860,10860,10860,10860,10860,10860,10860,10860,10860,10860,10860,10860,10860,10860,10860,10860,10860,10860,10860,10860,10860,10860,10860,10860,10860,10860,10860,10860,10860,10860,10860,10860,10860,10860,10860,10860,10860,10860,10860,10860,10860,10860,10860,10860,10860,10860,10860,10860,10860,10860,10860,10860,10860,10860,10860,10860,10860,10860,10860,10860,10860,10860,
0,0,0,0,3305,3306,3307,3308,0,0,0,0,0,0,0,0,0,0,0,0,0,0,0,0,0,3305,3306,3307,3308,0,0,0,0,0,0,0,0,0,0,0,0,0,0,0,0,0,0,3305,3306,3307,3308,0,0,0,0,0,0,0,0,0,0,0,0,0,
0,0,0,0,3472,3473,3474,3475,0,0,0,0,0,0,0,0,0,0,0,0,0,0,0,0,0,3472,3473,3474,3475,0,0,0,0,0,0,0,0,0,0,0,0,0,0,0,0,0,0,3472,3473,3474,3475,0,0,0,0,0,0,0,0,0,0,0,0,0,
0,0,0,0,3639,3640,3641,3642,0,0,0,0,0,0,0,0,0,0,0,0,0,0,0,0,0,3639,3640,3641,3642,0,0,0,0,0,0,0,0,0,0,0,0,0,0,0,0,0,0,3639,3640,3641,3642,0,0,0,0,0,0,0,0,0,0,0,0,0,
0,0,0,0,3806,3807,3808,3809,0,0,0,0,0,0,0,0,0,0,0,0,0,0,0,0,0,3806,3807,3808,3809,0,0,0,0,0,0,0,0,0,0,0,0,0,0,0,0,0,0,3806,3807,3808,3809,0,0,0,0,0,0,0,0,0,0,0,0,0,
0,0,0,0,0,0,0,0,0,0,0,0,0,0,0,0,0,0,0,0,0,0,0,0,0,0,0,0,0,0,0,0,0,0,0,0,0,0,0,0,0,0,0,0,0,0,0,0,0,0,0,0,0,0,0,0,0,0,0,0,0,0,0,0,
0,0,0,0,0,0,0,0,0,0,0,0,0,0,0,0,0,0,0,0,0,0,0,0,0,0,0,0,0,0,0,0,0,0,0,0,0,0,0,0,0,0,0,0,0,0,0,0,0,0,0,0,0,0,0,0,0,0,0,0,0,0,0,0,
0,0,0,0,0,0,0,0,0,0,0,0,0,0,0,0,0,0,0,0,0,0,0,0,0,0,0,0,0,0,0,0,0,0,0,0,0,0,0,0,0,0,0,0,0,0,0,0,0,0,0,0,0,0,0,0,0,0,0,0,0,0,0,0,
0,0,0,0,0,0,0,0,0,0,0,0,0,0,0,0,0,0,0,0,0,0,0,0,0,0,0,0,0,0,0,0,0,0,0,0,0,0,0,0,0,0,0,0,0,0,0,0,0,0,0,0,0,0,0,0,0,0,0,0,0,0,0,0,
0,0,0,0,0,0,0,0,0,0,0,0,0,0,0,0,0,0,0,0,0,0,0,0,0,0,0,0,0,0,0,0,0,0,0,0,0,0,0,0,0,0,0,0,0,0,0,0,0,0,0,0,0,0,0,0,0,0,0,0,0,0,0,0,
0,0,0,0,0,0,0,0,0,0,0,0,0,0,0,0,0,0,0,0,0,0,0,0,0,0,0,0,0,0,0,0,0,0,0,0,0,0,0,0,0,0,0,0,0,0,0,0,0,0,0,0,0,0,0,0,0,0,0,0,0,0,0,0,
0,0,0,0,0,0,0,0,0,0,0,0,0,0,0,0,0,0,0,0,0,0,0,0,0,0,0,0,0,0,0,0,0,0,0,0,0,0,0,0,0,0,0,0,0,0,0,0,0,0,0,0,0,0,0,0,0,0,0,0,0,0,0,0,
0,0,0,0,0,0,0,0,0,0,0,0,0,0,0,0,0,0,0,0,0,0,0,0,0,0,0,0,0,0,0,0,0,0,0,0,0,0,0,0,0,0,0,0,0,0,0,0,0,0,0,0,0,0,0,0,0,0,0,0,0,0,0,0,
0,0,0,0,0,0,0,0,0,0,0,22608,22609,22610,0,0,0,0,22608,22609,22610,0,0,0,0,22608,22609,22610,0,0,0,0,22608,22609,22610,0,0,0,0,22608,22609,22610,0,0,0,0,0,0,0,0,0,0,0,0,0,0,0,0,0,0,0,0,0,0,
0,0,0,0,0,0,0,0,0,0,0,22775,22776,22777,0,0,0,0,22775,22776,22777,0,0,0,0,22775,22776,22777,0,0,0,0,22775,22776,22777,0,0,0,0,22775,22776,22777,0,0,0,0,0,0,0,0,0,0,0,0,0,0,0,0,0,0,0,0,0,0,
0,0,0,0,0,0,0,0,0,0,0,22942,22943,22944,0,0,0,0,22942,22943,22944,0,0,0,0,22942,22943,22944,0,0,0,0,22942,22943,22944,0,0,0,0,22942,22943,22944,0,0,0,0,0,0,0,0,0,0,0,0,0,0,0,0,0,0,0,0,0,0,
0,0,0,0,0,0,0,0,0,0,0,23109,23110,23111,0,0,0,0,23109,23110,23111,0,0,0,0,23109,23110,23111,0,0,0,0,23109,23110,23111,0,0,0,0,23109,23110,23111,0,0,0,0,0,0,0,0,0,0,0,0,0,0,0,0,0,0,0,0,0,0,
0,0,0,0,0,0,0,0,0,0,0,0,0,0,0,0,0,0,0,0,0,0,0,0,0,0,0,0,0,0,0,0,0,0,0,0,0,0,0,0,0,0,0,0,0,0,0,0,0,0,0,0,0,0,0,0,0,0,0,0,0,0,0,0,
0,0,0,0,0,0,0,0,0,0,0,0,0,0,0,0,0,0,0,0,0,0,0,0,0,0,0,0,0,0,0,0,0,0,0,0,0,0,0,0,0,0,0,0,0,0,0,0,0,10879,11046,10699,10699,10699,10699,10699,10699,10699,10700,10699,10699,10699,10699,10700,
0,0,0,0,0,0,0,0,0,0,0,0,0,0,0,0,0,0,0,0,0,0,0,0,0,0,0,0,0,0,0,0,0,0,0,0,0,0,0,0,0,0,0,0,0,0,0,0,10879,11046,11213,11213,11213,11213,11213,11213,11213,11213,11213,11213,11213,11213,11213,11213,
0,0,0,0,0,0,0,0,0,0,0,0,0,0,0,0,0,0,0,0,0,0,0,0,0,0,0,0,0,0,0,0,0,0,0,0,0,0,0,0,0,0,0,0,0,0,0,10879,11046,11213,11380,11213,11380,11380,11380,11380,11213,11380,11380,11213,11380,11380,11380,11380,
0,0,0,0,0,0,0,0,0,0,0,0,0,0,0,0,0,0,0,0,0,0,0,0,0,0,0,0,0,0,0,0,0,0,0,0,0,0,0,0,0,0,0,0,0,0,10879,11046,11213,11380,11380,11380,11380,11380,11380,11380,11380,11380,11380,11380,11380,11380,11380,11380,
0,0,0,0,0,0,0,0,0,0,0,0,0,0,0,0,0,0,0,0,0,0,0,0,0,0,0,0,0,0,0,0,0,0,0,0,0,0,0,0,0,10875,10876,10877,10878,10879,11046,11213,11380,11380,11380,11380,11380,11380,11380,11380,11380,11380,11380,11380,11380,11380,11380,11380,
0,0,0,0,0,0,0,0,0,0,0,0,0,0,0,0,0,0,0,0,0,0,0,0,0,0,0,0,0,0,0,0,0,0,0,0,0,0,0,0,0,11042,11043,11044,11045,11046,11213,11380,11380,11380,11380,11213,11380,11380,11380,11380,11213,11380,11380,11213,11380,11380,11380,11380,
0,0,0,0,0,0,0,0,0,0,0,0,0,0,0,0,0,0,0,0,0,0,0,0,0,0,0,0,0,0,0,0,0,0,0,0,0,0,0,0,0,11209,11210,11211,11212,11213,11380,11380,11380,11380,11380,11380,11380,11380,11380,11380,11380,11380,11380,11380,11380,11380,11380,11380,
0,0,0,0,11376,11377,11378,10697,10698,10699,10700,10700,10700,10700,10700,10700,10700,10700,10700,10701,10702,2147495026,2147495025,2147495024,0,0,0,0,0,0,0,0,0,0,0,0,0,0,0,0,0,11376,11377,11378,11379,11380,11380,11380,11380,11380,11380,11380,11380,11380,11380,11380,11380,11380,11380,11380,11380,11380,11380,11380,
0,0,0,0,11543,11544,11545,10864,10865,10866,0,0,0,0,0,0,0,0,10867,10868,10869,2147495193,2147495192,2147495191,0,0,0,0,0,0,0,0,0,0,0,0,0,0,0,0,0,11543,11544,11545,11546,11547,11547,11547,11547,11547,11547,11547,11547,11547,11547,11547,11547,11547,11547,11547,11547,11547,11547,11547,
10699,10699,10699,10699,10699,10699,10699,10699,16983,16998,16992,16983,16998,16992,16983,16983,16992,16998,16998,16983,10699,10699,10699,10699,10699,10699,10699,10699,10699,10699,10699,10699,10699,10699,10699,10699,10699,10699,10699,10699,10699,10699,10699,10699,10699,10699,10699,10699,10699,10699,10699,10699,10699,10699,10699,10699,10699,10699,10699,10699,10699,10699,10699,10699,
11697,11697,11697,11697,11697,11697,11697,11697,17150,17165,17159,17150,17165,17159,17150,17150,17159,17165,17165,17150,11697,11697,11697,11697,11697,11697,11697,11697,11697,11697,11697,11697,11697,11697,11697,11697,11697,11697,11697,11697,11697,11697,11697,11697,11697,11697,11697,11697,11697,11697,11697,11697,11697,11697,11697,11697,11697,11697,11697,11697,11697,11697,11697,11697,
11697,11697,11697,11697,11697,11697,11697,11697,11697,11697,11697,11697,11697,11697,11697,11697,11697,11697,11697,11697,11697,11697,11697,11697,11697,11697,11697,11697,11697,11697,11697,11697,11697,11697,11697,11697,11697,11697,11697,11697,11697,11697,11697,11697,11697,11697,11697,11697,11697,11697,11697,11697,11697,11697,11697,11697,11697,11697,11697,11697,11697,11697,11697,11697,
11697,11697,11697,11697,11697,11697,11697,11697,11697,11697,11697,11697,11697,11697,11697,11697,11697,11697,11697,11697,11697,11697,11697,11697,11697,11697,11697,11697,11697,11697,11697,11697,11697,11697,11697,11697,11697,11697,11697,11697,11697,11697,11697,11697,11697,11697,11697,11697,11697,11697,11697,11697,11697,11697,11697,11697,11697,11697,11697,11697,11697,11697,11697,11697,
11697,11697,11697,11697,11697,11697,11697,11697,11697,11697,11697,11697,11697,11697,11697,11697,11697,11697,11697,11697,11697,11697,11697,11697,11697,11697,11697,11697,11697,11697,11697,11697,11697,11697,11697,11697,11697,11697,11697,11697,11697,11697,11697,11697,11697,11697,11697,11697,11697,11697,11697,11697,11697,11697,11697,11697,11697,11697,11697,11697,11697,11697,11697,11697,
11697,11697,11697,11697,11697,11697,11697,11697,11697,11697,11697,11697,11697,11697,11697,11697,11697,11697,11697,11697,11697,11697,11697,11697,11697,11697,11697,11697,11697,11697,11697,11697,11697,11697,11697,11697,11697,11697,11697,11697,11697,11697,11697,11697,11697,11697,11697,11697,11697,11697,11697,11697,11697,11697,11697,11697,11697,11697,11697,11697,11697,11697,11697,11697,
11697,11697,11697,11697,11697,11697,11697,11697,11697,11697,11697,11697,11697,11697,11697,11697,11697,11697,11697,11697,11697,11697,11697,11697,11697,11697,11697,11697,11697,11697,11697,11697,11697,11697,11697,11697,11697,11697,11697,11697,11697,11697,11697,11697,11697,11697,11697,11697,11697,11697,11697,11697,11697,11697,11697,11697,11697,11697,11697,11697,11697,11697,11697,11697,
11697,11697,11697,11697,11697,11697,11697,11697,11697,11697,11697,11697,11697,11697,11697,11697,11697,11697,11697,11697,11697,11697,11697,11697,11697,11697,11697,11697,11697,11697,11697,11697,11697,11697,11697,11697,11697,11697,11697,11697,11697,11697,11697,11697,11697,11697,11697,11697,11697,11697,11697,11697,11697,11697,11697,11697,11697,11697,11697,11697,11697,11697,11697,11697,
11697,11697,11697,11697,11697,11697,11697,11697,11697,11697,11697,11697,11697,11697,11697,11697,11697,11697,11697,11697,11697,11697,11697,11697,11697,11697,11697,11697,11697,11697,11697,11697,11697,11697,11697,11697,11697,11697,11697,11697,11697,11697,11697,11697,11697,11697,11697,11697,11697,11697,11697,11697,11697,11697,11697,11697,11697,11697,11697,11697,11697,11697,11697,11697,
11697,11697,11697,11697,11697,11697,11697,11697,11697,11697,11697,11697,11697,11697,11697,11697,11697,11697,11697,11697,11697,11697,11697,11697,11697,11697,11697,11697,11697,11697,11697,11697,11697,11697,11697,11697,11697,11697,11697,11697,11697,11697,11697,11697,11697,11697,11697,11697,11697,11697,11697,11697,11697,11697,11697,11697,11697,11697,11697,11697,11697,11697,11697,11697,
11697,11697,11697,11697,11697,11697,11697,11697,11697,11697,11697,11697,11697,11697,11697,11697,11697,11697,11697,11697,11697,11697,11697,11697,11697,11697,11697,11697,11697,11697,11697,11697,11697,11697,11697,11697,11697,11697,11697,11697,11697,11697,11697,11697,11697,11697,11697,11697,11697,11697,11697,11697,11697,11697,11697,11697,11697,11697,11697,11697,11697,11697,11697,11697,
11697,11697,11697,11697,11697,11697,11697,11697,11697,11697,11697,11697,11697,11697,11697,11697,11697,11697,11697,11697,11697,11697,11697,11697,11697,11697,11697,11697,11697,11697,11697,11697,11697,11697,11697,11697,11697,11697,11697,11697,11697,11697,11697,11697,11697,11697,11697,11697,11697,11697,11697,11697,11697,11697,11697,11697,11697,11697,11697,11697,11697,11697,11697,11697,
11697,11697,11697,11697,11697,11697,11697,11697,11697,11697,11697,11697,11697,11697,11697,11697,11697,11697,11697,11697,11697,11697,11697,11697,11697,11697,11697,11697,11697,11697,11697,11697,11697,11697,11697,11697,11697,11697,11697,11697,11697,11697,11697,11697,11697,11697,11697,11697,11697,11697,11697,11697,11697,11697,11697,11697,11697,11697,11697,11697,11697,11697,11697,11697,
11697,11697,11697,11697,11697,11697,11697,11697,11697,11697,11697,11697,11697,11697,11697,11697,11697,11697,11697,11697,11697,11697,11697,11697,11697,11697,11697,11697,11697,11697,11697,11697,11697,11697,11697,11697,11697,11697,11697,11697,11697,11697,11697,11697,11697,11697,11697,11697,11697,11697,11697,11697,11697,11697,11697,11697,11697,11697,11697,11697,11697,11697,11697,11697,
11697,11697,11697,11697,11697,11697,11697,11697,11697,11697,11697,11697,11697,11697,11697,11697,11697,11697,11697,11697,11697,11697,11697,11697,11697,11697,11697,11697,11697,11697,11697,11697,11697,11697,11697,11697,11697,11697,11697,11697,11697,11697,11697,11697,11697,11697,11697,11697,11697,11697,11697,11697,11697,11697,11697,11697,11697,11697,11697,11697,11697,11697,11697,11697,
11697,11697,11697,11697,11697,11697,11697,11697,11697,11697,11697,11697,11697,11697,11697,11697,11697,11697,11697,11697,11697,11697,11697,11697,11697,11697,11697,11697,11697,11697,11697,11697,11697,11697,11697,11697,11697,11697,11697,11697,11697,11697,11697,11697,11697,11697,11697,11697,11697,11697,11697,11697,11697,11697,11697,11697,11697,11697,11697,11697,11697,11697,11697,11697
</data>
 </layer>
</map>
